/* XPM */
static char *e982db2c37b94d5ec4a4ced5b92b80eaRXMOLKJecU94ke7W[] = {
/* columns rows colors chars-per-pixel */
"50 50 180 2 ",
"   c #5C0000",
".  c #670404",
"X  c #6B0503",
"o  c #6F0805",
"O  c #740607",
"+  c #7A0A05",
"@  c #710808",
"#  c #7C0C08",
"$  c #6E1516",
"%  c #7A1E1A",
"&  c #5F2F3D",
"*  c #5B303F",
"=  c #6B2223",
"-  c #6D2829",
";  c #792724",
":  c #782825",
">  c #71252A",
",  c #7B2D2A",
"<  c #612E3D",
"1  c #6C2D3A",
"2  c #752C36",
"3  c #7B2A34",
"4  c #712D38",
"5  c #743D3E",
"6  c #26374F",
"7  c #2D374E",
"8  c #26384F",
"9  c #2A384F",
"0  c #3D3347",
"q  c #34364B",
"w  c #3D3549",
"e  c #273950",
"r  c #2A3951",
"t  c #303950",
"y  c #383F57",
"u  c #353F58",
"i  c #433447",
"p  c #4F3243",
"a  c #42364A",
"s  c #533142",
"d  c #563B4D",
"f  c #5F3B4C",
"g  c #453F55",
"h  c #4C3E51",
"j  c #513D50",
"k  c #6D3947",
"l  c #653E4B",
"z  c #6E3D48",
"x  c #7B3742",
"c  c #743845",
"v  c #2F435C",
"b  c #3F4057",
"n  c #32425B",
"m  c #3A4159",
"M  c #810B07",
"N  c #830D08",
"B  c #811718",
"V  c #871A1B",
"C  c #961A1A",
"Z  c #9D1D1D",
"A  c #A51D1F",
"S  c #B21E1B",
"D  c #AA2E1D",
"F  c #B9211E",
"G  c #B33C1A",
"H  c #A31F21",
"J  c #842629",
"K  c #8E282F",
"L  c #972123",
"P  c #96272C",
"I  c #9B262B",
"U  c #852931",
"Y  c #8B2A31",
"T  c #85343E",
"R  c #8A343D",
"E  c #8A393F",
"W  c #9D3136",
"Q  c #91333B",
"!  c #9B353A",
"~  c #9C3C3F",
"^  c #A52223",
"/  c #AD2324",
"(  c #A72826",
")  c #A82C26",
"_  c #A22529",
"`  c #A82629",
"'  c #B12424",
"]  c #BC2524",
"[  c #B92922",
"{  c #B32E2F",
"}  c #BD2C2B",
"|  c #A63129",
" . c #B83025",
".. c #A22F34",
"X. c #AC2F31",
"o. c #A43436",
"O. c #A83537",
"+. c #A13B3A",
"@. c #B63A32",
"#. c #C42624",
"$. c #CE2724",
"%. c #C72927",
"&. c #CE2925",
"*. c #C12C2A",
"=. c #D12925",
"-. c #D0322A",
";. c #C63C31",
":. c #AD4A3F",
">. c #BE4A37",
",. c #C5411F",
"<. c #CA422F",
"1. c #CB4D3B",
"2. c #D7513A",
"3. c #DB7038",
"4. c #E0732A",
"5. c #823540",
"6. c #9A4244",
"7. c #814B55",
"8. c #884E57",
"9. c #834E58",
"0. c #845657",
"q. c #97575A",
"w. c #9B575B",
"e. c #97595C",
"r. c #A4494E",
"t. c #AD4B4D",
"y. c #B64647",
"u. c #B44748",
"i. c #B44A4C",
"p. c #B4564A",
"a. c #AD5456",
"s. c #A45B5D",
"d. c #BC6A56",
"f. c #BC7150",
"g. c #975D60",
"h. c #9D5F63",
"j. c #876669",
"k. c #99666A",
"l. c #906F71",
"z. c #8F7A7D",
"x. c #A86669",
"c. c #AA686D",
"v. c #B8646A",
"b. c #B86B70",
"n. c #A97579",
"m. c #E1822D",
"M. c #DE8540",
"N. c #E9A447",
"B. c #F3AE46",
"V. c #DDA168",
"C. c #E9B472",
"Z. c #F2C46F",
"A. c #F3CC7E",
"S. c #F5D078",
"D. c #F6D87D",
"F. c #FCE078",
"G. c #967F82",
"H. c #A17E81",
"J. c #A87E82",
"K. c #95868A",
"L. c #9A8D90",
"P. c #9E989C",
"I. c #A5868A",
"U. c #A48F93",
"Y. c #A2969A",
"T. c #A6959A",
"R. c #A59EA3",
"E. c #9EA0A4",
"W. c #A3A1A6",
"Q. c #A4A6AB",
"!. c #A6A9AD",
"~. c #A9A8AD",
"^. c #A6ABB0",
"/. c #A6ADB2",
"(. c #A6AFB4",
"). c #A7B0B5",
"_. c #A8B2B7",
"`. c #F0D483",
"'. c #FCE986",
"]. c #FFFD99",
/* pixels */
").).).).).).).).).).).).).).).).).).).).).).).).).).).).).).).).).).).).).).).).).).).).).).).).).).",
").).).).).).).).).).).).).).).).).).).).).).).).).).).).).).).).).).).).).).).).).).).).).).).).).).",
").).).).).).).).).).).).).).).).).).).).).).).).).).).).).).).).).).).).).).).).).).).).).).).).).).",
").).).).).).).).).).).).).).).).).).).).).).).).).).).).).).).).).).).).).).).).).).).).).).).).).).",
").).).).).).).).).).).).).).).).).).).).).).).).).).).).).).).).).).).).).).).).).).).).).).).).).).",
").).).).).).).).).).).).).).).).).).).).).).).).).).).).).).).).).).).).).).).).).).).).).).).).).).",
").).).).).).).).).).).).).).).).).).).).).).).).).).).).).).).).).).).).).).).).).).).).).).).).).).",
").).).).).).).).).).).).).).).).).).).).).).).).).).).).).).).).).).).).).).).).).).).).).).).).).).",
").).).).).).).).).).).).).).).).).).).).).).).).).).).).).).).).).).).).).).).).).).).).).).).).).).",
").).).).).).).).).).).).).).).).).).).).).).).).).).).).).).).).).).).).).).).).).).).).).).).).).).",
").).).).).).).).).).).).).).).).).).).).).).).).).).).).).).).).).).).).).).).).).).).).).).).).).).",
").).).).).).).).).).).).).).).).).).).).).).).).).).).).).).).).).).(.).).).).).).).).).).).).).).).",
").).).).).).).).).).).).).).).).).).).).).).).).).).).).).).).(.^.(.).(.).).).).).).).).).).).).).).",
").).).).).).).).).).).).).).).).).).).).).).).).).).).).).).).!.8.l.(.).).).).).).).).).).).).).).).",
").).).).).).).).).).).).).).).).).).).).).).).).).).).).).).).Q.: , !.).).).).).).).).).).).).).).).",
"/.L.G.P./.^.!.!.!.!.!.!.!.!.!.~.~.~.~.~.~.~.~.~.~.~.~.~.~.~.~.W.; , W.!.!.!.!.!.!.!.!.Q.!.^.).).(.).",
"W., o J a.i.u.u.u.y.y.y.r.u.t.8.9.9.9.9.9.9.9.9.9.9.9.9.9.9.9.7.J ` y.y.y.y.y.y.y.y.p.d.p.t.n.!.).(.",
"T.% X M #.$.$.$.$.$.$.} d T %.x u n n n n n n n n n n n n y d T X.W { $.$.$.$.$.$.$.2.S.Z.3. .c./.).",
"b.M X # ' &.&.&.&.&.&.x n m Q *.c h h h h h h h h h h h f R ! x j m l &.&.&.&.&.&.&.-.C.].F.4.@.T.).",
"v.M X M ] &.&.&.&.=.{ g n n g { &.*.*.*.*.*.*.*.*.*.*.*.*.k m n n n b X.&.&.&.&.&.&.$.2.A.'.B.,.c.).",
"c.# X N &.&.&.&.&.=.R n n n h } =.&.&.&.=.=.=.=.=.=.=.=.&.l v n n n n R =.&.&.&.&.&.%.#.;.1.<.[ t.!.",
"x.+ X N %.&.&.&.&.&.l n n n l &.&.&.&.&.} R 5.5.5.T Q *.=.R n n n n n c &.&.&.&.&.&.&.&.%.#.] ' O.R.",
"s.+ X N %.&.&.&.&.*.h n n n x =.&.&.&.=.T n n n n n m o.=.o.m n n n n l &.&.&.&.&.&.&.&.&.&.&.] X.T.",
"s.+ X N %.&.&.&.=.{ b n n n Q =.&.&.&.&.k n n n n n m W =.{ b n n n n d %.&.&.#.%.&.&.&.&.&.=.S _ I.",
"s.+ X N %.&.&.&.=.X.m n n m W =.&.&.&.&.l n n n n n m W =.} g n n n n h *.=.&.] #.%.&.&.&.&.=.F C I.",
"s.+ X M #.&.&.&.&.o.m n n m ..&.&.&.&.%.f n n n n n m W &.} h n n n n h } &.&.] ] ] #.&.&.&.&.F C J.",
"w..   @ ' ' ' ' ' Y r r r t Y ' ' ' ' ' s r r r r r r Y ] ` a r r r r a ` ' ' ^ / / / ' ' ' ' A B H.",
"q..   @ / / / / ' K 7 9 9 7 U ' / / / / s e 9 9 9 9 7 U ' _ w r 9 9 r i _ ' / H ^ ^ / / / / ' Z B H.",
"q..   @ / ' ' ' ' P q r r 9 3 ' / ' ' / * e r r r r 7 U ' P q r r r r i ` ' / ^ / / / ' ' ' ' C V I.",
"e..   @ / ' ' ' ' _ w r r r 1 ' ' ' ' ' 1 e e e e e 9 U ' Y 7 r r r e p / ' / / / / ' ' ' ' ' Z P U.",
"g..   @ / ' ' ' ' / s e 9 e s / ' ' / ' I & * * * * 1 I ' 2 9 r r r e * / ' / / ' / / / / / ^ Z W Y.",
"k..   @ / ' ' ' ' ' 1 9 r r i _ ' ' ' ' ' / / / / / ' ' / * e r r r 9 2 ' / ' / / / ^ H ( | ) Z 6.Q.",
"c.@   o H / ' ' / ' P q r r q P ' / / / / / / / / / / / / s 9 r r r q K ' ' ' / / / / @.C.`.N.G h.).",
"v.O   . Z / ' ' ' ' / * e 7 1 / 4 p p p p p p p p p p p < 3 2 s q e p ` ' ' ' ' ' / ' V.].'.m.| I.).",
"U.$   o A / / / / / ' P 0 < ^ 2 7 8 8 8 8 8 8 8 8 8 8 8 6 q s 3 Y 2 Y ' / ' ' ' ' / >.D.D.M.D w.^.).",
"E.=   $ ~ +.o.o.o.o.o.o.E ! ! z l l l l l l l l l l l l l l l l > L o.o.o.o.o.o.o.o.:.f.p.+.h.W.).(.",
"^.z.j.K.Q.W.W.R.R.R.R.R.R.R.R.R.R.R.R.R.R.R.R.R.R.R.R.R.R.R.R.Y.= > Y.R.R.R.R.R.R.R.R.R.R.W./.).(.).",
").)._.).).).).).).).).).).).).).).).).).).).).).).).).).).).).Q.= - Q.).).).).).).).).).).).).(.).).",
").).).).).).).).).).).).).).).).).).).).).).).).).).).).).).).Q.5 0./.).).).).).).).).).).).).).).).",
").).).).).).).).).).).).).).).).).).).).).).).).).).).).).).).(.W./.).(.).).).).).).).).).).).).).).",
").).).).).).).).).).).).).).).).).).).).).).).).).).).).).).(.).).).(.).).).).).).).).).).).).).).).",
").).).).).).).).).).).).).).).).).).).).).).).).).).).).).).).).).).).).).).).).).).).).).).).).).).",
").).).).).).).).).).).).).).).).).).).).).).).).).).).).).).).).).).).).).).).).).).).).).).).).).).",
").).).).).).).).).).).).).).).).).).).).).).).).).).).).).).).).).).).).).).).).).).).).).).).).).).",
").).).).).).).).).).).).).).).).).).).).).).).).).).).).).).).).).).).).).).).).).).).).).).).).).).",
").).).).).).).).).).).).).).).).).).).).).).).).).).).).).).).).).).).).).).).).).).).).).).).).).).",
").).).).).).).).).).).).).).).).).).).).).).).).).).).).).).).).).).).).).).).).).).).).).).).).).).",
").).).).).).).).).).).).).).).).).).).).).).).).).).).).).).).).).).).).).).).).).).).).).).).).).).",
").).).).).).).).).).).).).).).).).).).).).).).).).).).).).).).).).).).).).).).).).).).).).).).).).).",
").).).).).).).).).).).).).).).).).).).).).).).).).).).).).).).).).).).).).).).).).).).).).).).).).)."
};
