/* XPM */
static char *result[] = {
/* columns rows colors chars-per-pixel */
"50 100 176 2 ",
"   c #560201",
".  c #5C0000",
"X  c #660602",
"o  c #6D0501",
"O  c #6C090B",
"+  c #6E0608",
"@  c #730603",
"#  c #7A0A06",
"$  c #7C0708",
"%  c #740B0B",
"&  c #7C0C0B",
"*  c #740806",
"=  c #6F0D10",
"-  c #7A0F11",
";  c #512E3E",
":  c #5D2F3F",
">  c #5D303F",
",  c #642F3C",
"<  c #6E2E39",
"1  c #6C2A36",
"2  c #762C36",
"3  c #7D2B34",
"4  c #712D38",
"5  c #7D343F",
"6  c #2D374E",
"7  c #27384F",
"8  c #29384F",
"9  c #32374C",
"0  c #3B3549",
"q  c #3F3447",
"w  c #273950",
"e  c #293950",
"r  c #3F3F56",
"t  c #453345",
"y  c #483042",
"u  c #423448",
"i  c #553141",
"p  c #5B3040",
"a  c #543C4F",
"s  c #5C3C4D",
"d  c #463F54",
"f  c #4B3E53",
"g  c #523D51",
"h  c #633B4B",
"j  c #693A49",
"k  c #6F3947",
"l  c #7B3742",
"z  c #733845",
"x  c #783844",
"c  c #763541",
"v  c #2F425B",
"b  c #3D4057",
"n  c #32435C",
"m  c #3B4158",
"M  c #424056",
"N  c #484054",
"B  c #860E0B",
"V  c #8B0B08",
"C  c #870A07",
"Z  c #87100E",
"A  c #8C110E",
"S  c #90120D",
"D  c #810F10",
"F  c #8A1312",
"G  c #8F1A1E",
"H  c #85191B",
"J  c #931619",
"K  c #951A1C",
"L  c #9B1D1E",
"P  c #971511",
"I  c #A51D1E",
"U  c #AC1E1D",
"Y  c #A71A16",
"T  c #9B201E",
"R  c #B4201E",
"E  c #AD321E",
"W  c #BA3D1E",
"Q  c #801D22",
"!  c #9E1E20",
"~  c #A21F21",
"^  c #AC1F21",
"/  c #B01F22",
"(  c #8E282F",
")  c #8F252A",
"_  c #9E2326",
"`  c #97272C",
"'  c #9C262B",
"]  c #91282E",
"[  c #832A32",
"{  c #8B2930",
"}  c #86353E",
"|  c #8A353E",
" . c #9D3237",
".. c #95333A",
"X. c #9B3238",
"o. c #A52123",
"O. c #AD2324",
"+. c #A42529",
"@. c #A92529",
"#. c #B02425",
"$. c #BB2525",
"%. c #B52C25",
"&. c #B42E2F",
"*. c #BC2D2D",
"=. c #A83425",
"-. c #BD3223",
";. c #AD2F32",
":. c #A52F34",
">. c #B22E31",
",. c #A33136",
"<. c #AB3032",
"1. c #B73C31",
"2. c #DD191F",
"3. c #DD1920",
"4. c #D61920",
"5. c #E11A21",
"6. c #C32625",
"7. c #CC2724",
"8. c #C62826",
"9. c #CE2A26",
"0. c #C42B2A",
"q. c #C92B29",
"w. c #D12925",
"e. c #C93E22",
"r. c #D0332A",
"t. c #BC4C3A",
"y. c #BA5637",
"u. c #C5491F",
"i. c #C3511D",
"p. c #D5671D",
"a. c #E2721E",
"s. c #C84321",
"d. c #DA5724",
"f. c #D24233",
"g. c #CD5934",
"h. c #DD6E2F",
"j. c #D8742B",
"k. c #E06020",
"l. c #823640",
"z. c #C35D43",
"x. c #C97745",
"c. c #DD744D",
"v. c #DE794B",
"b. c #DE7A51",
"n. c #ED811D",
"m. c #F48F1C",
"M. c #F28A27",
"N. c #F69A27",
"B. c #F9A822",
"V. c #F4A13B",
"C. c #DC894D",
"Z. c #DF8255",
"A. c #D58352",
"S. c #EF9241",
"D. c #F8BB41",
"F. c #E9A75C",
"G. c #D79562",
"H. c #DFA568",
"J. c #EBAF6F",
"K. c #F1B862",
"L. c #E5B473",
"P. c #F9C74F",
"I. c #F9D365",
"U. c #EEC87D",
"Y. c #FBD877",
"T. c #FBE275",
"R. c #FDE37D",
"E. c #F3D282",
"W. c #FFE781",
"Q. c #FDEA86",
"!. c #F5E28B",
"~. c #FDED89",
"^. c #FEF695",
"/. c #FEF996",
"(. c #FFFB98",
"). c None",
/* pixels */
").).).).).).).).).).).).).).).).).).).).).).).).).).).).).).).).).).).).).).).).).).).).).).).).).).",
").).).).).).).).).).3.5.3.L G K G K K K J K K G K I O.o.^ O.o.^ U O.^ U ^ 2.5.3.).).).).).).).).).).",
").).).).).).  . . * $ $ $ + X + + X + X + X + + X # # & # # & # & # & # & C V V C @ X o ).).).).).).",
").).).).).. . . . . . . . . . . . . . . . . . . X o o @ o o @ o o o @ o @ o o o o o o @ o ).).).).).",
").).).).).. . . . . . . . . . . . . . . . . . . . o o o o @ @ o o @ o @ o o o o o o o o o ).).).).).",
").).).).).  . . X . . . . . . X . . . X . . X . . o @ o o o o o o o o o o @ @ o @ o @ o o ).).).).).",
").).).).).).. . . . . . . . . . . . . . . . . . . o o o o o o o o o o o o o o o o o o o o ).).).).).",
").).).).).).X % % % % O % & & & - & - & & & - - & F A A S S S S S S S S A A Z B B A A & ).).).).).).",
").).).).).).).! O.~ K ! ! O.O.O.O.#.O.#.O.#.O.#.#.8.9.9.9.9.w.w.9.9.9.7.9.0.O.O.#.9.$.^ ).).).).).).",
").).).).).).J ! O.@.! ~ o.O.#.#.#.#.#.#.#.#.#.#.#.q.9.9.9.w.w.r.w.9.9.w.9.9.$.$.8.w.$.^ ).).).).).).",
").).).).).).K ! #.#.O.#.#.O.#.#.#.#.#.#.#.#.#.#.#.q.w.9.9.w.9.9.9.w.w.9.9.9.9.9.9.9.0./ ).).).).).).",
").).).).).).J ~ #.#.#.#.#.#.#.#.#.O.#.#.O.#.#.O.#.7.9.w.9.9.9.9.9.9.w.9.9.9.9.9.9.9.7./ ).).).).).).",
").).).).).).K o.#.#.#.#.#.O.#.#.#.#.#.#.#.#.O.#.#.7.9.9.w.w.w.9.w.9.9.9.9.9.9.9.9.w.7.#.).).).).).).",
").).).).).).K ^ O.#.#.#.#.#.#.#.@.#.#.&.#.#.O.#.#.q.9.9.r.9.9.9.9.9.9.9.9.9.9.9.9.9.7.#.).).).).).).",
").).).).).).K o.#.#.;.O.#.#.#.#.#.#.#.O.#.#.#.#./ q.9.9.9.9.9.9.9.9.9.w.r.w.w.w.w.9.9.#.).).).).).).",
").).).).).).K @.#.#.#.#.#.#.#.#.#.#.#.#.#.#.O.#.#.q.w.9.9.9.9.9.9.9.r.w.w.w.w.9.9.9.q.#.).).).).).).",
").).).).).).K o.#.#.#.#.O.#.#.#.@.#.#.#.#.#.#.#.#.9.w.w.9.9.w.9.9.w.w.9.9.9.9.9.9.w.w./ ).).).).).).",
").).).).).).K o.#.O.#.#.#.#.#.#.#.#.#.#.#.#.#.#.#.8.9.9.9.w.w.w.9.9.9.9.9.9.9.w.9.w.7.#.).).).).).).",
").).).).).).K o.#.#.#.#.#.#.#.#.#.#.#.#.#.#.#.#.#.8.w.9.w.w.9.w.w.9.9.w.9.r.w.9.w.9.9.#.).).).).).).",
").).).).).).J O.#.#.#.#.#.#.#.#.#.#.+.] { [ 4 < < 5 } | ..,.<.*.q.w.w.w.w.w.9.9.w.9.9.#.).).).).).).",
").).).).).).K O.#.#.O.#.#.O.@.( 4 i u 9 6 6 8 8 e n n n n m M N N l ,.*.9.w.9.9.9.9.9.#.).).).).).).",
").).).).).).K o.#.#.#.O.` < t 9 8 e e e e e 8 8 e n n n n n n n m m m N z ,.q.w.9.w.7.#.).).).).).).",
").).).).).).J O.O.#.` , 0 8 e e 8 8 8 8 e e e 8 e n n n n n n n n n n n n m h ,.9.w.7.#.).).).).).).",
").).).).).).K ^ @.4 0 8 8 8 6 e e e e e e e e 8 e n n n n n n n n n n n n n n m z *.w.#.).).).).).).",
").).).).).).K _ i 6 8 8 e e e e e e e e e e e 8 e n n n n n n n n n n n n n n n n g :.#.).).).).).).",
").).).).).).K 1 8 8 8 8 e e e e e e 8 e e e e 8 e n n n n n n n n n n n n n n n n v h @.).).).).).).",
").).).).).).K +.p 8 8 e 8 e e e e e e 8 8 8 8 8 6 v n n n n n n n n n n n n n n n a >.#.).).).).).).",
").).).).).).J o.@., 6 8 e e e e e e e 8 w e 8 8 8 v n n n v v n n n n n n n n n s &.9.#.).).).).).).",
").).).).).).K o.#.@., 6 e 8 8 w 8 6 0 t i > < < 2 | | l.x j s f M m n n n n n s *.9.9.#.).).).).).).",
").).).).).).G ) O.#.@.< 6 9 t p 3 { ' @.#.#.#.#.#.7.w.w.w.q.q.*.>.l.z s M n h 0.w.w.&.o.).).).).).).",
").).).).).).G ; 2 O.#.O.[ ] @.O.#.#.#.#.O.#.#.O.#.8.w.9.9.9.9.w.w.w.9.0.>.X.1.w.9.,.s ` ).).).).).).",
").).).).).).G y 6 4 O.#.#.#.O.#.#.#.O.#.O.#.#.#.#.8.w.w.9.w.w.9.w.w.w.w.w.w.w.w.,.N b ` ).).).).).).",
").).).).).).G y w 6 < @.#.#.#.#.#.@.#.#.@.#.O.#.#.q.w.w.9.w.r.w.w.9.9.9.9.w.w.X.M n r ` ).).).).).).",
").).).).).).G y w e e 3 #.#.#.#.#.#.#.#.#.#.#.#.#.q.w.q.9.9.9.w.w.9.9.9.9.r.>.f n n r ] ).).).).).).",
").).).).).).G y e e w < #.#.#.#.#.#.#.#.#.#.#.#.#.q.w.w.w.9.q.w.9.9.9.9.w.w.<.m n n d ` ).).).).).).",
").).).).).).G y e e w < #.#.#.#.#.#.#.#.#.#.#.#./ q.w.w.q.w.w.9.9.9.9.9.w.w.<.m v n r ` ).).).).).).",
").).).).).).G y w e e < #.#.#.#.&.#.#.#.#.#.#.#.#.q.9.w.9.w.9.9.9.9.9.9.w.w.<.m n n b ` ).).).).).).",
").).).).).).G y e e e < #.#.#.O.#.O.#.#.#.#.#.#.#.q.9.9.w.w.9.w.r.9.9.9.w.w.<.m n n b ` ).).).).).).",
").).).).).).G y e e w < #.#.#.#.#.#.#.#.#./ #.#./ 8.w.9.w.w.w.w.w.w.9.9.w.w.<.m n n d ` ).).).).).).",
").).).).).).G y e e e < #.#.#.#.O.#.#.#.#.#.#.#.#.8.w.w.w.w.w.w.w.w.9.w.9.w.<.m n n r ` ).).).).).).",
").).).).).).G y e e w < #.#.O.#.#.O.' ( 3 2 4 < c c c l.l.l.:.>.q.w.w.w.9.w.<.m n n b ` ).).).).).).",
").).).).).).G y e e e < #.#.#.#.+.p 0 6 8 8 8 7 w v v v n d n d s ,.9.w.w.w.<.m n n d ` ).).).).).).",
").).).).).).G y e e e < #.#.O.#.< 7 7 8 8 8 8 8 e r n n n n n n v s q.w.9.w.<.m n n r ] ).).).).).).",
").).).).).).G y e e e < #.#.#.#.j 7 8 8 8 8 8 8 e n n n n n n n n g 0.9.w.w.<.m n n d ` ).).).).).).",
").).).).).).G y w e e < #.O.#.#., e e e e e e 8 e n n n n n n n n N 0.9.9.w.<.m n v r ] ).).).).).).",
").).).).).).G y e e w < #.#.O.#., e e e e e e 8 e n n n n n n n n g 0.w.9.w.<.m n n M ` ).).).).).).",
").).).).).).G y e e e < #.#.#.#., e e e e e e 8 e n n n n n n n n g 0.9.9.w.<.m n n m ` ).).).).).).",
").).).).).).G y e e w 4 #.#.#.O., e e e e e e 8 e n n n n n n n n g 0.9.w.w.<.m n n b ` ).).).).).).",
").).).).).).G y e e e < #.O.#.#., w e e e e e e e n n n n n n n n g 0.w.9.w.<.m n n b ` ).).).).).).",
").).).).).).G y e e w 4 #.#.#.#., e e e e e e 6 e n n n n n n n v g 0.9.w.w.<.m n n d ` ).).).).).).",
").).).).).).G y w e e < #.#.#.#., 6 e e e e e e 8 n n n n n n n n g 0.9.9.w.<.m v n r ` ).).).).).).",
").).).).).).G y e e w < #.#.#.O.p e e e e e e e e v v r n n n n n g 0.w.9.w.<.b n n r ` ).).).).).).",
").).).).).).G y e e e 4 #.#.#.#.< e e 8 8 8 8 7 e n n n n n r n v s q.w.w.w.<.m n n b ` ).).).).).).",
").).).).).).G y e e w < #.#.#.#.[ 6 e e e 7 7 7 e e n n n n n n v z 9.9.9.w.<.m n n b ` ).).).).).).",
").).).).).).G y w e 7 < #.O.#.#.@.4 , , , , p c j c l l x x l x l >.w.9.9.w.<.m n n b ` ).).).).).).",
").).).).).).G y e e 8 4 #.#.#.#.#.#./ #.#.#.#.#.#.7.7.w.9.w.w.w.w.w.9.9.9.w.<.m n n M ` ).).).).).).",
").).).).).).G y w e 8 3 #.#.#.#.#.O.#.#.#.#.#./ #.q.w.9.w.w.w.w.w.9.9.9.9.w.&.N n n r ` ).).).).).).",
").).).).).).G y e e 0 ' @.O.#.#.#.#.#.O.#.#.#.#.#.q.9.9.9.w.w.w.9.w.w.w.w.0.0.j n n r ` ).).).).).).",
").).).).).).G t w 7 , +.i : 3 ` @.#.#./ #.#.#.O.#.q.w.w.w.w.r.w.w.0.&.,.x s <.,.n n d ` ).).).).).).",
").).).).).).H y w 9 ] { 6 8 6 9 t p 4 [ ] ' +.+.@.6.0.*.*.>.<.l.x s N n n v l 0.g v r ` ).).).).).).",
").).).).).).G y w i @., 8 8 8 8 e e 8 6 9 0 0 t t g g f N M n n n n n n n n N q.l.n d ` ).).).).).).",
").).).).).).! t 8 3 +.u 8 8 e e e e e 8 e e e e w e n n n n n n n n n n n n m <.>.d r ` ).).).).).).",
").).).).).).! y q +.[ 9 e e e e e e e e e e e e e n n n n n n n n n n n n n n x 9.k d ` ).).).).).).",
").).).).).).Q y , O., 8 e e e e e e e e e e e e e n n n n n n n n n n n n n n N 0.,.d ] ).).).).).).",
").  .   . . = ; ] +.0 e e e e e e e e e e e e 8 e n n n n n n n n n n n n n n m ,.q.j Q o X X X X ).",
"  . . . . . O 4 #.[ 6 e 8 e e e e e e 6 e e e 8 8 n n n m n n n n n n n n n n n z r.X.H o @ @ @ o o ",
").. . . . . - _ O.> 8 e e e e e 8 v e e e e e 8 8 n n n n n n n n n n n n n n n f *.0.! @ o o o o ).",
").)..   . . H o.' 0 e e e 8 e e 8 6 e e e e e 8 8 n n n n n n n n n n n n n n n n X.9.#.* X o o ).).",
").).).).).).K o.' t e e e e 8 8 8 8 e e e e e 8 e n n m n n n n n n n n n n n n f ,.w./ ).).).).).).",
").).).).).).K o.O.+.2 t 6 e 8 e e 8 e e e e e e e n n n n m n n n n n n n n N x >.9.w.#.).).).).).).",
").).).).).).K O.#.#.#.+.{ < y 0 9 e e 7 e w w e e n m n n n n n n m N N z ..*.9.w.9.9.#.).).).).).).",
").).).).).).K o.#.#.#.O.#.O.@.' { 3 < > i i t t t f N h N h k l | ,.&.0.9.w.w.w.9.9.8.#.).).).).).).",
").).).).).).K O.#.#.#.#.#.#.#.#.#.#.#.O.O.@.@.@.@.*.0.0.9.9.9.9.w.w.w.9.w.9.w.9.w.w.9.$.).).).).).).",
").).).).).).K O.#.#.#.#.#.#.#.@.#.#.#.#.#.#.#.#.#.9.w.w.9.9.9.9.9.9.w.9.9.9.9.9.9.w.8.#.).).).).).).",
").).).).).).K o.#.#.#.O.#.#.@.O.#.#.#.O.#.#.O.#.#.8.w.w.9.9.9.w.w.9.w.9.9.7.w.w.w.9.9.#.).).).).).).",
").).).).).).K ^ #.#.#.#.#.O.%.#.#.#.#.#.#.#.#.#.#.8.w.9.9.9.9.9.9.9.9.9.9.r.w.9.w.9.9.#.).).).).).).",
").).).).).).K O.#.O.#.#.#.#.#.#.#.O.#.#.#.#.O.#.#.8.9.w.w.9.9.9.w.9.9.w.9.9.9.9.9.9.9.#.).).).).).).",
").).).).).).J O.#.#.#.#.#.#.#.#.#.O.O.o.O.O.#.O.#.q.9.w.9.9.8.8.q.w.9.9.7.r.w.w.9.w.w.#.).).).).).).",
").).).).).).K O.#.#.#.#.#.#.#.#.#.O.o.I T I I _ o.$.6.$.$.#.$.6.9.9.9.9.9.w.9.9.w.w.9.#.).).).).).).",
").).).).).).K O.#.#.#.#.@.#.O.#.#.#.#.#.o.T L L L O.#.#.$.6.9.9.9.9.9.9.9.9.9.9.w.w.w.#.).).).).).).",
").).).).).).K o.#.#.#.#.#.O.O.#.#.#.#.O.O.O.O.O.O.6.9.9.9.9.q.7.9.w.9.9.9.9.9.9.9.w.9.#.).).).).).).",
").).).).).).K ^ #.O.#.#.#.#.o.O.#.O.#.@.I ~ T o.^ #.$.$.#.$.8.w.9.9.9.8.8.9.w.9.w.9.9.#.).).).).).).",
").).).).).).K O.#.#.#.#.#.O.o.O.#.#.#.#.O.o.o.o.L #.$.$.8.9.w.9.9.9.9.8.9.9.9.9.9.9.9.#.).).).).).).",
").).).).).).K o.#.#.O.#.#.#.^ O.#.#.#.O.O.O.O.O.#.8.9.9.9.9.9.9.9.9.9.6.9.9.9.9.w.w.9.#.).).).).).).",
").).).).).).K o.O.O.#.#.O.#.^ o.#.#.#.#.O.@.~ ~ o.$.$.$.8.7.w.w.7.w.9.$.q.w.9.w.7.7.7.O.).).).).).).",
").).).).).).J y.A.t.#.O.#.#.~ o.#.O.#.#.#.#.O.O.o.$.8.9.9.9.9.9.9.w.9.$.9.9.w.7.f.b.v.#.).).).).).).",
").).).).).).J x.W.!.G.1.O.#.o.o.#.O.#.#.#.O.#.#.#.8.9.w.9.9.9.9.9.9.q.$.9.7.q.b.E.~.F.%.).).).).).).",
").).).).).).J x.R.^.^.E.z.O.~ ~ #.#.#.#.#.#.O.#.#.9.9.w.9.9.9.w.w.9.8.$.9.f.L.^./.Q.F.#.).).).).).).",
").).).).).).J y.Y./.^./.!.g.~ ! #.#.#.#.#.#.#.#.#.8.9.w.9.9.w.9.9.w.6.$.r.E.(.^.^.W.C.#.).).).).).).",
").).).).).).J =.K.^./.^.(.H.o.! #.#.@.#.#.#.O.#.#.8.9.w.w.9.9.9.9.w.$.$.c.^.^.^.^.Y.g.^ ).).).).).).",
").).).).).).K L h.Y././.(.L.+.! @.#.#.#.#.#.O.#.#.q.9.9.9.9.9.9.w.w./ 6.b.(.(.(.Q.S.-.^ ).).).).).).",
").).).).).).J K W M.I.^.(.L.o.L @.#.#.#.O.#.O.#.#.9.w.9.9.9.9.9.w.w.$./ b.(.^.Y.V.d.#.O.).).).).).).",
").).).).).).).L T i.M.D.T.H.+.! ^ O.#.O.#.#.#.#.#.8.w.9.9.w.w.9.w.q.#.6.v.R.P.N.d.%.#.U ).).).).).).",
").).).).).).).K ! T u.a.B.j.~ ! ~ #.#.#.#.#.#.#.#.q.9.w.r.w.9.w.w.0.#.6.d.B.m.d.-.O.O.).).).).).).).",
").).).).).).).).J K K E p.i.! ! I #.O.O.#.#.#.#.#.q.w.w.w.w.9.7.9.6.#.$.e.a.s.#.#.O.).).).).).).).).",
").).).).).).).).).G T K L T K K ! ~ K - Z F J K L R R R Y P F I 6.#.#.#.#.#.O.O.U ).).).).).).).).).",
").).).).).).).).).).).J K ! K T _ K K H & O X X X * # # B Z L O.#.#.#.#.O.O.^ ).).).).).).).).).).).",
").).).).).).).).).).).).).).J G K K K _ L K K G J L ^ ^ O.O.#.O.O.O.O.^ ).).).).).).).).).).).).).).",
").).).).).).).).).).).).).).).).).).).).).).).).J I ).).).).).).).).).).).).).).).).).).).).).).).).",
").).).).).).).).).).).).).).).).).).).).).).).).).).).).).).).).).).).).).).).).).).).).).).).).).)."
};
