/* XPM */
static char *result[] = {
/* columns rows colors chars-per-pixel */
"100 50 120 2 ",
"   c #28374E",
".  c #29384F",
"X  c #2B3A51",
"o  c #303F56",
"O  c #313F59",
"+  c #304057",
"@  c #33435C",
"#  c #37485D",
"$  c #384A5E",
"%  c #364760",
"&  c #374860",
"*  c #3B4C63",
"=  c #3E5166",
"-  c #3E5168",
";  c #405463",
":  c #435A64",
">  c #42556C",
",  c #455A6D",
"<  c #485E6C",
"1  c #465B71",
"2  c #495E73",
"3  c #4B626D",
"4  c #4E6575",
"5  c #4E6379",
"6  c #506774",
"7  c #506976",
"8  c #50667A",
"9  c #546C7B",
"0  c #57707D",
"q  c #58727E",
"w  c #7E7366",
"e  c #60777E",
"r  c #777E76",
"t  c #E61C25",
"y  c #EB1A22",
"u  c #D4242C",
"i  c #DB2B34",
"p  c #E5222A",
"a  c #BB3942",
"s  c #D33A44",
"d  c #AA414B",
"f  c #AD545F",
"g  c #BA545F",
"h  c #B37D48",
"j  c #C5424C",
"k  c #91825E",
"l  c #A08A73",
"z  c #B8AB75",
"x  c #DBAF53",
"c  c #E5BE5A",
"v  c #F6B751",
"b  c #CD9F65",
"n  c #DFB063",
"m  c #D7C379",
"M  c #DBC67F",
"N  c #FDD46B",
"B  c #FBE17E",
"V  c #556D81",
"C  c #5B7483",
"Z  c #5E7986",
"A  c #5B7489",
"S  c #5E7A8E",
"D  c #607A87",
"F  c #637E8B",
"G  c #637D92",
"H  c #897782",
"J  c #917784",
"K  c #A67583",
"L  c #A47C8A",
"P  c #65818F",
"I  c #668292",
"U  c #698594",
"Y  c #6C8997",
"T  c #6A869A",
"R  c #6E8B9A",
"E  c #718E9C",
"W  c #798F9C",
"Q  c #72919F",
"!  c #7A969F",
"~  c #6F8DA0",
"^  c #718EA1",
"/  c #7494A1",
"(  c #7798A6",
")  c #7899A7",
"_  c #7796A8",
"`  c #7897A9",
"'  c #7C9DAC",
"]  c #7E9EB0",
"[  c #7FA0AF",
"{  c #7FA0B1",
"}  c #8A9389",
"|  c #858493",
" . c #818C91",
".. c #839495",
"X. c #829C9D",
"o. c #9FA583",
"O. c #B3AE86",
"+. c #ACBB9C",
"@. c #819EA6",
"#. c #8D9CAB",
"$. c #809FB1",
"%. c #8CA4A8",
"&. c #93ACAC",
"*. c #85A6B7",
"=. c #88A8B5",
"-. c #85A7B8",
";. c #85A8B8",
":. c #95B1B1",
">. c #B7C49C",
",. c #C5C28E",
"<. c #D1D79A",
"1. c #EDE48D",
"2. c #FEEA85",
"3. c #FFF28D",
"4. c #E7E594",
"5. c #EFED99",
"6. c #FDF694",
"7. c #FFF996",
"8. c #D2DAA2",
"9. c None",
/* pixels */
"9.9.9.9.9.9.9.9.9.9.9.9.9.9.9.9.9.9.9.9.9.9.9.9.9.9.9.9.9.9.9.9.9.9.9.9.9.9.9.9.9.9.9.9.9.9.9.9.9.9.9.9.9.9.9.9.9.9.9.9.9.9.9.9.9.9.6 9.9.9.9.9.9.9.9.9.9.9.9.9.9.9.9.9.9.9.9.9.9.9.9.9.9.9.9.9.9.9.9.9.",
"9.9.9.9.9.9.9.9.9.9.9.9.9.9.9.9.9.9.9.9.9.9.9.9.9.9.9.9.9.9.9.9.9.9.9.9.9.9.9.9.9.9.9.9.9.9.9.9.9.9.9.9.9.9.9.9.9.9.9.9.9.9.9.9.9.9.7 7 6 9.9.9.9.9.9.9.9.9.9.9.9.9.9.9.9.9.9.9.9.9.9.9.9.9.9.9.9.9.9.9.",
"9.9.9.9.9.9.9.9.9.9.9.9.9.9.9.9.9.9.9.9.9.9.9.9.9.9.9.9.9.9.9.9.9.9.9.9.9.9.9.9.9.9.9.9.9.9.9.9.9.9.9.9.9.9.9.9.9.9.9.9.9.9.9.9.9.9.7 7 7 9.9.9.9.9.9.9.9.9.9.9.9.9.9.9.9.9.9.9.9.9.9.9.9.9.9.9.9.9.9.9.",
"9.9.9.9.9.9.9.9.9.9.9.9.9.9.9.9.9.9.9.9.9.9.9.9.9.9.9.9.9.9.9.9.9.9.9.9.9.9.9.9.9.9.9.9.9.9.9.9.9.9.9.9.9.9.9.9.9.9.9.9.9.9.9.9.9.9.7 7 7 9.9.9.9.9.9.9.9.9.9.9.9.9.9.9.9.9.9.9.9.9.9.9.9.9.9.9.9.9.9.9.",
"9.9.9.9.9.9.9.9.9.9.9.9.9.9.9.9.9.9.9.9.9.9.9.9.9.9.9.9.9.9.9.9.9.9.9.9.9.9.9.9.9.9.9.9.9.9.9.9.9.9.9.9.9.9.9.9.9.9.9.9.9.9.9.9.9.9.7 7 7 9.9.9.9.9.9.9.9.9.9.9.9.9.9.9.9.9.9.9.9.9.9.9.9.9.9.9.9.9.9.9.",
"9.9.9.9.9.9.9.9.9.9.9.9.9.9.9.9.9.9.9.9.9.9.9.9.9.9.9.9.9.9.9.9.9.9.9.9.9.9.9.9.9.9.9.9.9.9.9.9.9.9.9.9.9.9.9.9.9.9.9.9.9.9.9.9.9.9.7 7 7 9.9.9.9.9.9.9.9.9.9.9.9.9.9.9.9.9.9.9.9.9.9.9.9.9.9.9.9.9.9.9.",
"9.9.9.9.9.9.9.9.9.9./ ^ R R R E R R ~ R R / ~ R R R R R R R ^ R R ^ / R R R E R R ^ R R ~ R R R R R ~ R ~ E E ^ / ^ R R R R R E E P q A I E ~ ~ R E E E Q R Q Y E / / / / E / / Q Q Q Q / 9.9.9.9.9.9.9.",
"9.9.9.9.9.9.9.Q / Y / ' R 2 > > 1 > > > > > > - 1 > 1 > 1 > > > > 5 ' T > > > 1 > > 1 > > 1 1 - , > > , > > > V ' 5 > > 1 > , > > > > > > > 1 - > > > > > > , V R $.{ *.] *.] ] ' ' ) _ } l  .9.9.9.9.9.",
"9.9.9.9.t f / ' / > A *.*.T - O + @ @ @ @ @ O @ @ O @ O @ O @ + O - ] I @ @ @ @ O @ O @ @ @ @ @ @ O @ O @ O O 5 ' > O @ @ O @ O @ @ @ @ O @ @ @ O O O O * 2 T ] -.*._ _ *.*.*.*.*.-.*.%.x v b ..9.9.9.9.",
"9.9.9.t y g { { V O % A *.*._ 5 @ @ @ @ @ @ @ @ @ @ @ @ @ @ @ @ @ - ] T @ @ @ @ @ @ @ @ @ @ + @ @ @ @ @ @ @ O 5 ] - O @ @ @ @ @ @ @ + @ @ @ @ @ @ % - A _ *.*.` I 5 * 1 ] *.*.*.-.*.*.&.1.6.B O./ 9.9.9.",
"9.9.9.y t L *.~ % @ @ @ A { -.] A @ @ + @ @ O @ @ @ @ O @ @ @ @ @ - ] ~ @ @ @ @ @ @ @ O @ + @ @ @ @ @ @ + @ + 5 ] > O @ O O @ @ @ + @ @ + @ + % 2 G ] *.` T 8 > % O @ @ G *.*.-.*.*.*.*.8.6.3.M ! E 9.9.",
"9.9.t y s #.*.V O @ @ @ @ A *.-.*.T S S S S S S S S S S S S S G S I { ' S S S S S S S S S S S S S S S S S S S T $.G S S S S S S S S S S S S S ~ *.] T V - O O @ O @ @ @ 1 ] *.*.*.*.*.*.:.8.5.,.Q / 9.9.",
"9.9.t i K *._ - @ @ @ @ @ % ^ -.;.;.;.;.;.;.;.;.{ ;.;.;.-.-.;.;.*.-.-.*.-.;.;.;.*.;.;.;.;.;.;.;.*.;.;.;.;.;.;.;.*.*.;.;.-.-.-.-.;.;.;.;.;.*.-.-.] 2 % O @ @ @ O @ @ % O % ~ -.-.*.*.*.*.*.;.:.' / Q 9.9.",
"9.9.9.| *.-.G @ @ @ @ @ @ * ` -.{ ' ' [ ' [ ' ' { ] ] ' ' ' ' ' ' ] ' ' ' ' ' ' ] ' ' ' [ ' ' ' ' ' ' ] ' ' [ ' ' [ ' ' ] ] ] ] ' ' ' [ { *.-.*.*.5 O % @ @ @ % @ @ @ @ @ A -.*.*.*.-.*.*.*.*.' / / Q 9.",
"9.9.9.` *.*.5 @ @ @ @ @ O 1 $.-.{ [ ' ' ' ' ' ' ' ' ' ' ' ' @.) ' ' ' ' ' ' ' ' ' ' ' ' ' ' ' ' ' ' ' ' ' ' ' ' ' ' ' ' ' ' ` ' ' ' ' ' ' *.-.*.-.G @ @ @ @ @ @ % @ @ @ O 2 ' { *.*.*.;.*.*.*.*.) / / 9.",
"9.9.9.) -.] - @ @ @ @ @ @ 5 *.-.*.*.*.*.*.*.*.*.*.*.*.*.-.-.-.-.*.*.*.*.-.-.*.*.*.*.*.*.*.*.*.*.*.*.*.*.*.*.*.*.;.*.*.*.*.*.;.*.*.*.*.*.*.*.*.-.-.^ % @ @ @ @ % @ @ @ @ @ * ~ ' ' ' ' { *.*.*.*./ Q / 9.",
"9.9.9.) *.^ & @ @ @ @ @ O A -.*.*.*.*.*.*.*.*.*.*.*.*.*.*.*.-.*.*.*.*.*.*.*.*.*.*.*.=.*.*.*.*.*.*.*.*.*.*.*.*.*.*.*.*.*.*.*.*.*.-.*.*.*.*.*.*.*.-.' > O @ @ % @ @ @ @ @ @ & ~ *.*.*.*.*.*.*.*.*.E E / 9.",
"9.9.Q ) *.U @ @ @ @ @ @ @ G -.*.*.*.*.-.*.*.*.*.*.*.*.*.*.*.*.*.*.*.*.-.*.*.*.*.*.*.*.-.*.*.*.;.*.*.*.*.-.*.*.*.*.*.-.*.*.*.*.-.*.*.=.*.*.*.-.*.*.*.8 O O % O @ % @ @ @ + @ T ;.*.*.*.*.*.*.*.;.E Y Q Q ",
"9.9./ ) -.A @ @ % @ @ @ % R -.-.*.*.*.*.*.-.*.*.-.*.*.*.*.-.*.-.*.*.*.*.*.*.-.*.*.*.*.*.*.*.*.*.*.*.*.*.-.*.*.*.*.*.*.*.*.-.-.*.*.-.-.*.*.-.*.*.-.-.A O @ @ @ @ @ @ % @ @ @ A ;.*.*.*.*.*.*.*.*.Y F Y / ",
"9.9.Q ' -.8 O @ @ @ @ @ % ^ -.*.*.-.-.*.*.*.*.*.*.*.-.*.*.*.-.*.*.*.-.*.*.-.*.*.*.*.-.*.-.*.*.*.;.*.*.*.*.*.-.-.*.*.*.-.*.*.*.-.-.*.*.-.*.*.*.*.-.-.G @ @ @ @ @ @ @ @ @ @ + A ;.*.*.*.*.;.*.*.;.R F U / ",
"9.9./ ` *.5 + @ @ @ @ @ * ` *.*.*.-.-.*.-.-.*.*.*.*.*.;.*.;.*.*.*.*.-.*.*.*.-.-.*.-.*.*.*.*.*.*.*.*.*.-.*.*.*.*.-.*.*.*.*.*.-.*.*.-.*.*.*.*.;.*.*.-.~ % O O @ @ @ @ @ % @ + 8 ;.*.*.*.*.;.;.;.;.R C P Q ",
"9.9./ ' ] > + @ @ @ @ @ - ' *.*.*.*.*.*.*.*.*.-.;.*.*.*.*.*.*.*.-.*.=.*.-.*.*.*.-.*.*.-.;.*.*.;.*.*.-.*.*.-.-.*.*.*.-.*.-.*.-.*.-.*.*.-.;.*.*.*.*.-._ * O @ @ % @ @ @ @ @ @ 5 { *.*.*.;.{ =.;.;.R 0 F Q ",
"9.9./ ` { - @ @ @ @ @ O > ' *.*.-.*.*.-.*.*.*.-.*.*.*.*.*.*.*.;.*.*.*.*.*.-.-.*.*.-.-.*.*.*.*.*.-.*.-.-.-.-.*.*.*.-.*.-.*.-.*.*.*.-.*.;.*.*.*.*.*.-.` * @ % O @ @ @ @ @ @ + 1 *.*.*.*.*.;.=.;.;.R 0 D Q ",
"9.9./ ' ] - @ @ @ % @ @ > ] *.*.-.*.*.-.*.-.*.*.*.;.*.*.*.;.*.*.*.-.*.*.*.-.*.*.-.*.-.*.*.*.;.;.*.-.*.*.*.*.-.*.*.*.*.-.*.*.*.-.*.-.*.*.*.*.*.*.-.*.$.> @ @ @ @ % @ @ @ @ @ 1 { *.;.*.*.;.;.;.;.R 0 Z Q ",
"9.9.Q ' ) ; O @ @ O @ O , $.*.*.*.*.$.*.*.*.*.*.*.*.*.*.{ ;.;.*.*.*.*.*.*.*.*.*.{ ;.;.{ ;.*.;.*.*.;.*.;.*.*.*.;.*.*.*.*.*.*.*.*.*.*.*.*.*.*.*.*.*.*.' > O @ @ @ @ @ @ @ @ O 1 { { { { [ { { [ { R 0 C Q ",
"9.9.C U E # X X X X X X * / _ _ _ ) ) ` ( ( / ( _ / ( / ( ( ( ( ` _ ) ) / ) ) / ( ( ( ( ( ( ( ( / ( / ( ( ( / ( ` / ) ) / ) ) / ( ) / ( ) / ) ) ) ) ^ & . X X X X X X X . . * / ( ( [ [ [ [ / [ Z 3 6 C ",
"9.9.0 P Y @ . .         $ R / / Q / W / Q / / Q / Q Q / / / / / Q Q Q / Q / Q Q / / / / Q / Q / / Q / Q Q Q Q / Q / Q Q / / W / / Q Q / Q / Q / Q Q E #   .   .     . . .   * / Q / / Q R Q Q / q 3 3 0 ",
"9.9.0 P E # . . X X X   $ R / Q / Q / / / ! / Q ! / Q / ! / Q Q ! Q / Q / ! / Q ! / Q Q Q Q / Q Q / / Q / Q / ! ! Q / / Q Q / Q / ! / Q / Q / Q Q / Y @ . . X . . X X . X X * E / / / / Q / / / Z 3 3 0 ",
"9.9.0 P E #   . X   . . @ Y / / / / / / / / / / / / Q / / / / / / / / / / / / / / / Q / / / / / / / / / / / / / / Q / / / / / / / / / / / / / / / / U +   . X X . X . X .   = Q / / / Q / / / / P 3 6 0 ",
"9.9.0 P E = . . . X X . @ Y / / / / / / / / / / / / / / / / / Q / Q / / / / / / / / / / / / / / / / / / / / / / / / / / / / / / / Q / / Q / / / / / P X . . X . X . X . X   > / / / / / / / / / q 3 6 0 ",
"9.9.0 P Q >   . X . X . o P / / / / Q / / / / / / / / / / / / / / / / / / / / / / / / / / / / / / / / / / Q / / / / / / / / / / / / / / / / / / / / A . . . X . . X . X .   2 Q Q / / / / / / / e 3 7 q ",
"9.9.0 F / 4   . . X     . F / / / / / / Q / / / / / / / / / / / / / / / / / / Q / / / / Q / ! / / / / / / / / / / / / / / Q / / / / / / / / / / / / 9 . . X . X . . X . . . 8 / / / Q / / / / / P 3 0 0 ",
"9.9.9 F / 9 . . . X . X . C / Q / / / / / / ! ! / / / / / / / / / / / / / / / / / / / / / / / / / / / / / / / / / / / / / / / / ( Q ! / / / / / / / ,   . . X . X . . X . . V / / ! / / / / / / D 7 0 0 ",
"9.9.0 F / F X . . . . . . 9 / / / / / / / / / Q / Q Q Q Q / Q Q / Q Q Q / Q Q / / / Q / Q Q Q Q / Q Q / / Q / Q / / / / Q / / Q Q Q / / / / / / / R $   . X . X . X X . . X Z ( Q Q / / / / / / P 9 C 0 ",
"9.9.9.Z / T @ . X . . .   > / / / / / / / / Q Q / / Q Q / / Q / / Q Q ! Q Q / / / / / / / Q / Q Q Q / / Q / / Q / / / / / / / / Q Q Q Q / / / / / P + . X . X . X . X X . + Z U P U Y R E / / / D 0 0 9.",
"9.9.9.Z R / - . . . . . . = E / Q Y Y Y Y Y Y Y R R R R R R R Y R R R R R R R R Y R Y Y R R R R R R R R R R R U Y Y R Y R Y Y Y R R R R R / / / / C + . . X . X . X . . . $ F U R E Q / / / / E Z q C 9.",
"9.9.9.C R / 7 X X . . X . @ Y Q R P P P P P P P P P P P P Z P P P P P P P P P P F F F F F F F F P P P P Z P P P P P Z P P P P P P P Z P P Q / / / 3 . . . . X . X . . . . 3 / / / / / Q Q / Q E C q q 9.",
"9.9.u a H _ I X . . X . . + P / / / Q Q Q Q E Q Q Q Q Q / / Q / Q Q E / Q Q Q Q / / / / / / / / Q Q / / / Q / Q Q Q Q E Q / Q E / Q Q / / / / / R & . . . . . . . X . . . C / / / Q / / / / ! P q q q 9.",
"9.9.y y j / Q - . . . . . = T / / Y P P P P P P P P P P I P P I P P Q E I I P P I I I I I I I I U P I I P I I U Q P P P P P P P P P P P P P I R / P 3 % . . . . . X . . # T / / / / / / ! +.<.o.q q 9.9.",
"9.9.9.y p J / C X . . . = R / / Z + + + . + + . + + + + + X X + + $ R I * $ $ $ % # % # % # # % # $ $ # $ # # 5 E $ +   + + + + + X + X + + + & 7 U Q R S , @ X   . .   4 / / / / / / / >.6.6.m e q 9.9.",
"9.9.9.y y f Q E = . . = R / E 7 +         X   . . X . . . . . .   @ R P @ @ @ @ @ @ @ @ @ @ @ @ @ + @ @ @ @ @ 1 R #             . . X . . . . .   @ 1 F Q / T C > @ . @ U Q / Q / / / X.4.7.2.z q 9.9.9.",
"9.9.9.9.y d D U C + = R / R , . +       . . X   . . . . . . . .   + R Z @ @ @ @ @ + + @ @ @ @ + @ @ @ @ @ @ + 2 R #     +       . . . . . . . .   X X X = 9 T / / Y V C / Q / / / / / ..c N n r 0 9.9.9.",
"9.9.9.9.9.9.0 0 q 6 P R P = + +   + . + X X X + + X X X X X + X X # Y C & % & & # % % % & # # & & % % @ % % $ 3 Y $ + + X + + + X X X + X X X X X X X X X X $ 4 I Q / Q Q Q Q E R R U P k h w 0 9.9.9.9.",
"9.9.9.9.9.9.9.9.9.0 0 q 7 4 3 4 3 6 4 4 7 7 3 4 5 5 7 4 7 4 4 4 4 4 Z 0 5 7 7 7 5 7 7 5 7 5 7 7 7 7 7 5 7 7 7 0 q 7 6 6 4 4 3 3 4 4 < 3 7 7 7 4 4 7 4 7 7 7 7 7 0 Z Z Z C C C C q q q q 0 0 9.9.9.9.9.9.",
"9.9.9.9.9.9.9.9.9.9.9.9.9.9.9.9.9.9.9.9.9.9.9.9.9.9.9.9.9.9.9.9.9.9.9.9.9.9.9.9.9.9.9.9.9.9.9.9.9.9.9.9.9.9.9.9.9.9.9.9.9.9.9.9.9.9.: : : 9.9.9.9.9.9.9.9.9.9.9.9.9.9.9.9.9.9.9.9.9.9.9.9.9.9.9.9.9.9.9.",
"9.9.9.9.9.9.9.9.9.9.9.9.9.9.9.9.9.9.9.9.9.9.9.9.9.9.9.9.9.9.9.9.9.9.9.9.9.9.9.9.9.9.9.9.9.9.9.9.9.9.9.9.9.9.9.9.9.9.9.9.9.9.9.9.9.9.: : : 9.9.9.9.9.9.9.9.9.9.9.9.9.9.9.9.9.9.9.9.9.9.9.9.9.9.9.9.9.9.9.",
"9.9.9.9.9.9.9.9.9.9.9.9.9.9.9.9.9.9.9.9.9.9.9.9.9.9.9.9.9.9.9.9.9.9.9.9.9.9.9.9.9.9.9.9.9.9.9.9.9.9.9.9.9.9.9.9.9.9.9.9.9.9.9.9.9.9.: : : 9.9.9.9.9.9.9.9.9.9.9.9.9.9.9.9.9.9.9.9.9.9.9.9.9.9.9.9.9.9.9.",
"9.9.9.9.9.9.9.9.9.9.9.9.9.9.9.9.9.9.9.9.9.9.9.9.9.9.9.9.9.9.9.9.9.9.9.9.9.9.9.9.9.9.9.9.9.9.9.9.9.9.9.9.9.9.9.9.9.9.9.9.9.9.9.9.9.9.: : ; 9.9.9.9.9.9.9.9.9.9.9.9.9.9.9.9.9.9.9.9.9.9.9.9.9.9.9.9.9.9.9.",
"9.9.9.9.9.9.9.9.9.9.9.9.9.9.9.9.9.9.9.9.9.9.9.9.9.9.9.9.9.9.9.9.9.9.9.9.9.9.9.9.9.9.9.9.9.9.9.9.9.9.9.9.9.9.9.9.9.9.9.9.9.9.9.9.9.9.: : ; 9.9.9.9.9.9.9.9.9.9.9.9.9.9.9.9.9.9.9.9.9.9.9.9.9.9.9.9.9.9.9.",
"9.9.9.9.9.9.9.9.9.9.9.9.9.9.9.9.9.9.9.9.9.9.9.9.9.9.9.9.9.9.9.9.9.9.9.9.9.9.9.9.9.9.9.9.9.9.9.9.9.9.9.9.9.9.9.9.9.9.9.9.9.9.9.9.9.9.; ; 9.9.9.9.9.9.9.9.9.9.9.9.9.9.9.9.9.9.9.9.9.9.9.9.9.9.9.9.9.9.9.9."
};
