/* XPM */
static char *result[] = {
/* columns rows colors chars-per-pixel */
"100 50 120 2 ",
"   c #28374E",
".  c #29384F",
"X  c #2B3A51",
"o  c #303F56",
"O  c #313F59",
"+  c #304057",
"@  c #33435C",
"#  c #37485D",
"$  c #384A5E",
"%  c #364760",
"&  c #374860",
"*  c #3B4C63",
"=  c #3E5166",
"-  c #3E5168",
";  c #405463",
":  c #435A64",
">  c #42556C",
",  c #455A6D",
"<  c #485E6C",
"1  c #465B71",
"2  c #495E73",
"3  c #4B626D",
"4  c #4E6575",
"5  c #4E6379",
"6  c #506774",
"7  c #506976",
"8  c #50667A",
"9  c #546C7B",
"0  c #57707D",
"q  c #58727E",
"w  c #7E7366",
"e  c #60777E",
"r  c #777E76",
"t  c #E61C25",
"y  c #EB1A22",
"u  c #D4242C",
"i  c #DB2B34",
"p  c #E5222A",
"a  c #BB3942",
"s  c #D33A44",
"d  c #AA414B",
"f  c #AD545F",
"g  c #BA545F",
"h  c #B37D48",
"j  c #C5424C",
"k  c #91825E",
"l  c #A08A73",
"z  c #B8AB75",
"x  c #DBAF53",
"c  c #E5BE5A",
"v  c #F6B751",
"b  c #CD9F65",
"n  c #DFB063",
"m  c #D7C379",
"M  c #DBC67F",
"N  c #FDD46B",
"B  c #FBE17E",
"V  c #556D81",
"C  c #5B7483",
"Z  c #5E7986",
"A  c #5B7489",
"S  c #5E7A8E",
"D  c #607A87",
"F  c #637E8B",
"G  c #637D92",
"H  c #897782",
"J  c #917784",
"K  c #A67583",
"L  c #A47C8A",
"P  c #65818F",
"I  c #668292",
"U  c #698594",
"Y  c #6C8997",
"T  c #6A869A",
"R  c #6E8B9A",
"E  c #718E9C",
"W  c #798F9C",
"Q  c #72919F",
"!  c #7A969F",
"~  c #6F8DA0",
"^  c #718EA1",
"/  c #7494A1",
"(  c #7798A6",
")  c #7899A7",
"_  c #7796A8",
"`  c #7897A9",
"'  c #7C9DAC",
"]  c #7E9EB0",
"[  c #7FA0AF",
"{  c #7FA0B1",
"}  c #8A9389",
"|  c #858493",
" . c #818C91",
".. c #839495",
"X. c #829C9D",
"o. c #9FA583",
"O. c #B3AE86",
"+. c #ACBB9C",
"@. c #819EA6",
"#. c #8D9CAB",
"$. c #809FB1",
"%. c #8CA4A8",
"&. c #93ACAC",
"*. c #85A6B7",
"=. c #88A8B5",
"-. c #85A7B8",
";. c #85A8B8",
":. c #95B1B1",
">. c #B7C49C",
",. c #C5C28E",
"<. c #D1D79A",
"1. c #EDE48D",
"2. c #FEEA85",
"3. c #FFF28D",
"4. c #E7E594",
"5. c #EFED99",
"6. c #FDF694",
"7. c #FFF996",
"8. c #D2DAA2",
"9. c None",
/* pixels */
"9.9.9.9.9.9.9.9.9.9.9.9.9.9.9.9.9.9.9.9.9.9.9.9.9.9.9.9.9.9.9.9.; ; 9.9.9.9.9.9.9.9.9.9.9.9.9.9.9.9.9.9.9.9.9.9.9.9.9.9.9.9.9.9.9.9.9.9.9.9.9.9.9.9.9.9.9.9.9.9.9.9.9.9.9.9.9.9.9.9.9.9.9.9.9.9.9.9.9.9.",
"9.9.9.9.9.9.9.9.9.9.9.9.9.9.9.9.9.9.9.9.9.9.9.9.9.9.9.9.9.9.9.; : : 9.9.9.9.9.9.9.9.9.9.9.9.9.9.9.9.9.9.9.9.9.9.9.9.9.9.9.9.9.9.9.9.9.9.9.9.9.9.9.9.9.9.9.9.9.9.9.9.9.9.9.9.9.9.9.9.9.9.9.9.9.9.9.9.9.9.",
"9.9.9.9.9.9.9.9.9.9.9.9.9.9.9.9.9.9.9.9.9.9.9.9.9.9.9.9.9.9.9.: : : 9.9.9.9.9.9.9.9.9.9.9.9.9.9.9.9.9.9.9.9.9.9.9.9.9.9.9.9.9.9.9.9.9.9.9.9.9.9.9.9.9.9.9.9.9.9.9.9.9.9.9.9.9.9.9.9.9.9.9.9.9.9.9.9.9.9.",
"9.9.9.9.9.9.9.9.9.9.9.9.9.9.9.9.9.9.9.9.9.9.9.9.9.9.9.9.9.9.9.: : : 9.9.9.9.9.9.9.9.9.9.9.9.9.9.9.9.9.9.9.9.9.9.9.9.9.9.9.9.9.9.9.9.9.9.9.9.9.9.9.9.9.9.9.9.9.9.9.9.9.9.9.9.9.9.9.9.9.9.9.9.9.9.9.9.9.9.",
"9.9.9.9.9.9.9.9.9.9.9.9.9.9.9.9.9.9.9.9.9.9.9.9.9.9.9.9.9.9.9.: : : 9.9.9.9.9.9.9.9.9.9.9.9.9.9.9.9.9.9.9.9.9.9.9.9.9.9.9.9.9.9.9.9.9.9.9.9.9.9.9.9.9.9.9.9.9.9.9.9.9.9.9.9.9.9.9.9.9.9.9.9.9.9.9.9.9.9.",
"9.9.9.9.9.9.9.9.9.9.9.9.9.9.9.9.9.9.9.9.9.9.9.9.9.9.9.9.9.9.9.: : : 9.9.9.9.9.9.9.9.9.9.9.9.9.9.9.9.9.9.9.9.9.9.9.9.9.9.9.9.9.9.9.9.9.9.9.9.9.9.9.9.9.9.9.9.9.9.9.9.9.9.9.9.9.9.9.9.9.9.9.9.9.9.9.9.9.9.",
"9.9.9.9.9.9.0 0 q 0 0 q C C C Z Z Z Z 9 4 4 8 7 6 8 7 4 4 4 7 7 3 < 4 4 4 7 7 4 4 4 7 C 0 7 8 8 7 5 7 7 8 5 7 6 7 8 6 8 7 5 8 8 q C 4 4 7 7 3 3 7 4 4 4 7 4 4 4 4 4 7 4 4 4 4 9 0 0 0 9.9.9.9.9.9.9.9.9.",
"9.9.9.9.9 w h k P Y Y R E E Q Q Q Q Q U 5 $ o X X X X + X + X X + X X + X X + X + X # Y 4 @ % % % # # % # # # % # # % % # # # # C Y # . + + + + + X + X X + X + + X X + X X = F U Z 4 C C 0 9.9.9.9.9.9.",
"9.9.9.0 r n N c ..! / / / / / / C C Y / / Y 9 * X       . .       . .         . .   # R - % @ @ @ @ + @ @ @ @ @ @ @ @ @ + @ @ @ P Y +                           . . . . . , Y ( Y - + C Y C d y 9.9.9.9.",
"9.9.9.q z 2.7.4.X.Q / Q / / Q U @   @ > C Y / E S , @     .         . X       . . . # R 3 + @ @ @ @ @ @ + @ @ @ O @ @ @ @ @ @ @ P R # +                       + . .   + 7 Q / Y - X X - R ^ f y y 9.9.9.",
"9.9.0 e m 6.5.>./ / / / / / / 4   X     X # , Z R Q U 4 $ + + + X + + X . + + + + + $ R 4 # # # % % # # # % # # % # % # % # % & P Y # + + + +   + + + + + + + + X X # C Q ! R =       X C ( J p y 9.9.9.",
"9.9.q 0 o.<.>.! / Q / / Q / Y #   X . . . . . X # 4 P Q R P P P P P P P P P P U P P U Q Y I I P I I I I I I I P I I I I I U I I Q Q P P P P P P P Z P P P P P P U P Y / ( R =     X X   ; Q Q j y y 9.9.",
"9.q q C P ! / / / / Q Q / / Z X . X . X . . X       $ E / / ( Q / / Q Q Q / Q Q Q Q Q Q Q Q Q / / Q Q / Q ! Q Q / Q / Q / / / / / Q / / / / / / R Q Q / / / / R / / Q Q ( P . . X X   . X I / H a u 9.9.",
"9.q q C R / / Q ! / / ! / / 3   . X X . . X . X     3 Q / / Q P P P P P P P P P P P P P P P P P P S P P S P P P P F P P F F F F P P P D P D P P P P P P P P P P F F P E Q Y @   X   . X X 8 ( R C 9.9.9.",
"9.q q P Q / / Q / Q E Y U S #   . . X X . X X . . X C / Q / Q R Y Y R Y Y R R R Y Y R R Y Y Y Y R R Y Y Y R R Y Y Y Y Y R Y Y R Y Y Y Y Y Y Y Y Y Y U Y Y R Y Y R Y R Q Q Q =   . X       = / R Z 9.9.9.",
"9.q 0 Z / / Q Q R Y U P U A + . . X . . X . . X . + U / / / / / Q / / / Q Q Q Q Q Q Q ! Q ! / / Q / Q Q / / / / / ! / / / / / / / / ! / / / / / / / / / / / / / / / Q / / / <     X . X   @ Y / D 9.9.9.",
"0 q 0 Z Q / Q Q / Q / / / P X . X X . X . X   X . * E / / Q Q / / Q / Q / Q / ! / Q / ! / Q / ! Q Q ! / Q Q / Q Q / Q / / Q / Q Q Q / Q / Q Q / Q / Q / Q / Q Q Q Q / / Q ( 8 .   X X .   X S / F 0 9.9.",
"q q 6 P ! Q / / / / / Q / C .   X . X . X .   X . , / / / / / / / / / / / / / / / / / / / / / / / / / / / / / / / / / / / / / / / / / / / / / / / / / / / / / / / / / / Q / C . X . . . . X 9 / F 0 9.9.",
"q 0 6 Z / / / / / Q / / / 5   . . X . X X X .   . 8 ( / / / / / / / / / / / / / / / / / / / / / / / / / / / / / / / / / / / / / / / / / / / / / / Q / / / / / / / / / / Q ( S .       X X   4 Q F 0 9.9.",
"q 7 3 Z / ! / / / / / / / 3   X X . X       X X X C / Q / / / / / / / / / / / Q / / / / Q / / / / / / / / / / / / / / / / / / / / / / / / / / / / / / / / / / / / / / / ! Q P +   X X X     > / F 0 9.9.",
"0 6 : P / / / / / / / Q / - . . X . . X X . .   X P / / / / / / / / / / / / / / / / Q / / / / / Q / / / / / / / / / / / / / / Q / / / / / ! / / / / / / / / / / / / / / / / U +   . X . X   = Q P 0 9.9.",
"0 3 3 q / / / / / / / / / - . . . X . . . X .   + U / / / / / / / / / / / / / / / / / / / / / / / / / / / / / / / / / / / / / / / / / Q / / / / / / / / / / / / / / / / / / R @ . X . X .   & Q F 0 9.9.",
"0 3 3 P / / / Q / Q / / Q =   . X . X X X . X   @ Y / / Q / Q / / / / / Q / / Q / Q Q / / Q / Q / / / / / / / / / / / / / / / Q Q / / ! / Q / / ! / / / / / / / / / ! / Q / R #   X X . . . % R P 0 9.9.",
"0 3 : P / / Q / Q / Q Q Q *     .   .     X     # R / Q / Q / Q / Q / / / Q / / Q / Q / Q / Q / / Q / / Q / / Q Q / / Q / / Q / / / Q / Q / Q Q / Q Q / / Q / / Q Q / Q / / Q &   . . . .   @ Y P 0 9.9.",
"e 3 3 P ( / ( ( ( / ( ( _ -   X X X X X X X X X & / _ ( _ _ _ / ( / ( ( ( ( ( ( _ _ ( _ _ ( / ( ( / _ ( ( ( ( ( / / [ ( ( [ ( ( _ _ ( _ _ ( / _ / _ ( _ ( ( ( _ [ / / ( ( / / * . X X X X . @ ~ U D 9.9.",
"Q Z 0 Y *.*.*.*.*.*.*.*.{ 1 O @ @ @ @ @ @ @ @ + - ] *.*.*.*.*.*.;.{ { =.*.*.*.*.*.*.=.$.*.=.*.*.*.*.*.*.*.*.*.*.[ [ ;.{ [ { ;.[ *.*.=.$.*.=.*.*.*.*.*.*.*.$.*.*.{ { *.*.*.*.] > @ @ @ @ @ O - ' ) Q 9.9.",
"Q C 0 Y ;.*.;.;.*.*.*.*.{ 2 @ @ @ @ @ @ @ @ @ @ - ] *.*.*.-.*.-.;.;.=.;.*.*.*.*.*.*.-.*.*.*.*.*.*.*.*.*.*.*.*.*.;.=.;.;.;.;.;.;.*.*.-.*.*.*.*.*.*.*.-.*.*.*.*.-.;.;.;.;.-.*.*.> O @ @ @ @ @ - ] ' Q 9.9.",
"Q P 0 Y ;.*.;.{ *.*.*.*.{ 2 + @ @ @ @ @ @ @ @ @ - ' *.*.*.-.*.*.;.;.{ ;.*.*.*.*.-.*.*.*.*.*.*.*.*.*.*.*.*.*.-.*.;.;.;.=.;.{ =.;.-.*.*.*.*.*.*.*.*.*.*.*.*.*.*.-.;.;.;.;.*.-.' - @ @ % @ @ @ - { ' / 9.9.",
"Q P 0 R { { =.=.*.*.*.-.*.4 @ @ @ @ @ % @ @ @ @ & _ -.*.*.*.-.*.*.*.*.*.*.*.*.;.*.*.-.-.*.-.-.*.*.*.*.*.*.-.*.*.*.*.*.*.=.*.*.*.*.-.*.-.*.*.*.-.*.*.*.-.-.*.*.*.-.*.*.*.*.*.' - @ @ @ @ @ @ 1 { ' Q 9.9.",
"R P Z Y ;.;.;.;.*.*.*.-.*.5 + @ # @ @ @ @ @ @ @ % ~ -.*.*.-.*.*.-.*.-.-.*.*.-.*.-.*.*.*.*.*.*.*.*.*.*.*.*.*.*.-.*.*.*.*.;.;.*.;.*.-.*.*.-.-.*.*.*.*.*.*.*.*.-.*.*.*.-.-.*.-._ * @ @ @ @ @ @ 2 { ' Q 9.9.",
"Q U P Y ;.;.;.;.*.*.*.*.*.V @ @ @ @ @ @ @ @ @ @ O I -.*.*.-.*.-.*.*.*.*.-.*.*.*.-.*.-.*.-.*.*.-.*.*.*.-.*.;.*.;.*.*.*.*.*.*.*.*.*.*.-.*.*.*.-.*.*.*.-.*.*.-.*.*.*.-.*.*.*.-.^ % @ @ @ @ @ @ V { ' Q 9.9.",
"Q R P Y ;.;.;.;.*.*.*.*.*.S @ @ @ @ @ @ @ @ % @ O A -.-.*.*.*.*.*.-.-.*.*.*.-.*.*.*.*.*.-.*.*.*.-.-.*.*.*.;.*.*.*.;.;.*.*.;.*.*.-.*.*.*.-.*.*.*.-.-.*.*.*.*.-.-.*.*.-.*.*.-.R % @ @ @ @ @ O A *.) Q 9.9.",
"Q / Y R *.*.*.*.*.*.*.*.-.U @ @ @ @ @ @ @ O @ @ @ 5 *.*.*.*.-.*.*.-.*.*.*.*.*.*.*.*.*.*.*.*.*.*.*.*.*.*.*.*.;.*.*.*.*.*.*.*.*.*.*.*.*.*.*.*.*.*.*.*.*.*.*.*.;.*.*.*.*.*.*.*.G @ @ @ @ @ @ @ T *.) Q 9.9.",
"9./ R R *.*.*.*.*.*.*.*.-.^ & @ @ O % @ % % @ @ @ - ] -.-.*.*.*.*.*.*.*.*.*.*.*.*.*.*.*.*.*.*.*.*.*.*.*.*.*.*.*.*.-.*.*.*.*.*.*.*.*.*.*.-.*.*.*.*.*.*.*.*.*.*.*.*.*.*.*.*.*.C @ @ @ @ @ @ % ^ *.) 9.9.9.",
"9./ Q ( *.*.*.*.] ' ' _ ' R * @ % O @ @ O @ @ @ @ % / *.*.*.*.*.*.*.*.*.*.*.*.*.*.*.-.-.*.*.*.*.=.*.*.*.*.*.;.{ *.*.*.*.*.*.*.*.*.*.*.*.*.*.*.*.*.*.*.*.;.*.;.{ -.*.*.*.*.*.5 @ @ @ @ @ @ - ' *.( 9.9.9.",
"9./ / / *.*.*.*.-.*.*.*.*.' 2 O @ @ @ @ @ % @ @ @ @ G -.*.*.*.' ' ' ' ' ' ' ' ' ' ' ' ' ' ' ' ' ' ' ' ' ' ' ' ' ' ' ' ' ' ' ' ' ' ' ' ' ' ' ' ' ' ' ' ' ' ' ' [ ' ' ' *.-.{ > O @ % @ @ O V { *.( 9.9.9.",
"9.Q / / [ *.*.*.*.*.*.-.-.-.A @ @ @ @ @ % O % % @ @ 5 *.-.-.*.[ [ ' { ' ' [ ' ' ] ' ' ' ' ' ' ' ' ' ] ' ' ' ' [ [ ' ' ] ' ' [ ' ] ' ' ' ' ' ' ] ' ' ' ' { ' { { ' ] ] { -._ * @ @ @ @ @ # G *.*.| 9.9.9.",
"9.9./ / @.:.=.*.*.*.*.*.*.-.~ % @ % @ @ O % O O @ @ 2 ] -.;.-.;.{ ;.;.;.*.*.;.*.-.-.-.-.;.;.;.*.*.*.;.*.;.;.;.;.;.;.;.;.*.*.*.;.*.*.;.;.;.;.;.*.*.*.;.*.;.;.;.{ ;.*.*.*.-.^ & @ @ @ @ @ - ` *.K i t 9.9.",
"9.9./ Q ,.5.8.:.*.*.-.*.*.*.] 1 @ @ @ @ O O @ - V T ] { ~ S S S S S S S S S F S S S G ] T S S S F S S S S S S S S S S S S S S G ' { I S S S S S F S S S S S S S S S T *.*.*.A % O @ @ O V *.#.s y t 9.9.",
"9.9.Q Q M 3.7.8.*.*.-.*.-.*.-.G @ @ O @ * V I ] *.] I 2 % @ + @ @ @ @ + @ @ @ @ @ O > ] 5 @ @ @ @ @ O @ @ @ @ @ @ @ + @ @ + @ # ~ ] - @ @ @ @ @ @ @ @ @ @ @ @ + @ @ % A ] -.{ A % @ @ * ~ *.L t y 9.9.9.",
"9.9.9./ O.B 6.1.&.*.*.*.*.*.*.' 1 * 5 G ' *.*._ A - @ @ @ @ @ @ @ @ @ @ @ @ @ @ @ @ - ] 5 O @ @ @ @ @ @ @ @ @ @ @ + @ @ + @ @ % T ] - @ @ @ @ @ @ @ @ @ @ @ @ @ + @ @ @ 5 _ -.*.A @ + V *.' g y y 9.9.9.",
"9.9.9.9...b v x %.*.*.*.*.*.-.*._ _ *.*.] I 5 % @ + @ @ O @ @ @ @ @ @ @ @ % O @ O O - ] 5 @ O @ O O @ @ O @ @ @ @ @ @ @ @ O O O I ] - O O @ @ @ O O @ @ O @ @ @ @ @ O @ + > T *.*.A - ^ ' / f y 9.9.9.9.",
"9.9.9.9.9. .l } ( ' ' ' ' ] *.] { *.] ~ V 1 - > , > > > > > > > > - - - , - , , > > 5 ' V > > 1 > > , > > > > > - 1 > 1 > 1 > > I ' 5 > > > > > > 1 > > > > > > > > - 1 > > 2 R ' ( R / / 9.9.9.9.9.9.9.",
"9.9.9.9.9.9.9.^ Q Q E / / ^ E / / / / ~ R ^ R ^ R E R Q R R ~ I Z C U ^ R R R Q ^ R R ^ ^ E R R R ~ R ^ R R ^ R ~ R R R R R ~ R Q Q ^ R ~ R ~ R R R ^ R E R E R ~ R ~ R ^ R R R R / 9.9.9.9.9.9.9.9.9.9.",
"9.9.9.9.9.9.9.9.9.9.9.9.9.9.9.9.9.9.9.9.9.9.9.9.9.9.9.9.9.9.9.7 7 6 9.9.9.9.9.9.9.9.9.9.9.9.9.9.9.9.9.9.9.9.9.9.9.9.9.9.9.9.9.9.9.9.9.9.9.9.9.9.9.9.9.9.9.9.9.9.9.9.9.9.9.9.9.9.9.9.9.9.9.9.9.9.9.9.9.9.",
"9.9.9.9.9.9.9.9.9.9.9.9.9.9.9.9.9.9.9.9.9.9.9.9.9.9.9.9.9.9.9.6 7 6 9.9.9.9.9.9.9.9.9.9.9.9.9.9.9.9.9.9.9.9.9.9.9.9.9.9.9.9.9.9.9.9.9.9.9.9.9.9.9.9.9.9.9.9.9.9.9.9.9.9.9.9.9.9.9.9.9.9.9.9.9.9.9.9.9.9.",
"9.9.9.9.9.9.9.9.9.9.9.9.9.9.9.9.9.9.9.9.9.9.9.9.9.9.9.9.9.9.9.7 7 7 9.9.9.9.9.9.9.9.9.9.9.9.9.9.9.9.9.9.9.9.9.9.9.9.9.9.9.9.9.9.9.9.9.9.9.9.9.9.9.9.9.9.9.9.9.9.9.9.9.9.9.9.9.9.9.9.9.9.9.9.9.9.9.9.9.9.",
"9.9.9.9.9.9.9.9.9.9.9.9.9.9.9.9.9.9.9.9.9.9.9.9.9.9.9.9.9.9.9.6 7 6 9.9.9.9.9.9.9.9.9.9.9.9.9.9.9.9.9.9.9.9.9.9.9.9.9.9.9.9.9.9.9.9.9.9.9.9.9.9.9.9.9.9.9.9.9.9.9.9.9.9.9.9.9.9.9.9.9.9.9.9.9.9.9.9.9.9.",
"9.9.9.9.9.9.9.9.9.9.9.9.9.9.9.9.9.9.9.9.9.9.9.9.9.9.9.9.9.9.9.4 7 7 9.9.9.9.9.9.9.9.9.9.9.9.9.9.9.9.9.9.9.9.9.9.9.9.9.9.9.9.9.9.9.9.9.9.9.9.9.9.9.9.9.9.9.9.9.9.9.9.9.9.9.9.9.9.9.9.9.9.9.9.9.9.9.9.9.9.",
"9.9.9.9.9.9.9.9.9.9.9.9.9.9.9.9.9.9.9.9.9.9.9.9.9.9.9.9.9.9.9.9.9.4 9.9.9.9.9.9.9.9.9.9.9.9.9.9.9.9.9.9.9.9.9.9.9.9.9.9.9.9.9.9.9.9.9.9.9.9.9.9.9.9.9.9.9.9.9.9.9.9.9.9.9.9.9.9.9.9.9.9.9.9.9.9.9.9.9.9."
};
