/* XPM */
static char *result[] = {
/* columns rows colors chars-per-pixel */
"50 100 189 2 ",
"   c #29364E",
".  c #29384F",
"X  c #2A3A50",
"o  c #303F59",
"O  c #264553",
"+  c #2B4253",
"@  c #274B56",
"#  c #2C4A56",
"$  c #2D4E59",
"%  c #32425B",
"&  c #36495E",
"*  c #384D5F",
"=  c #2D535A",
"-  c #2D5A5C",
";  c #315B5E",
":  c #32535C",
">  c #374E60",
",  c #394E60",
"<  c #375261",
"1  c #3C5463",
"2  c #315E60",
"3  c #3E5A66",
"4  c #1D7866",
"5  c #2B6962",
"6  c #356364",
"7  c #386266",
"8  c #346C66",
"9  c #3A6869",
"0  c #2A7869",
"q  c #337167",
"w  c #367369",
"e  c #367A6C",
"r  c #387C6D",
"t  c #3B726A",
"y  c #7C765E",
"u  c #405C67",
"i  c #415D68",
"p  c #45656B",
"a  c #47696D",
"s  c #496B6E",
"d  c #4B6F71",
"f  c #4D7573",
"g  c #447C73",
"h  c #4E7A75",
"j  c #437370",
"k  c #517A76",
"l  c #547F78",
"z  c #7E7D62",
"x  c #E71A23",
"c  c #E91A22",
"v  c #DA2A2C",
"b  c #D03837",
"n  c #E42228",
"m  c #AD413A",
"M  c #825C4B",
"N  c #8E6754",
"B  c #A96A58",
"V  c #21865C",
"C  c #22895E",
"Z  c #16886D",
"A  c #1C8968",
"S  c #1A946B",
"D  c #16966F",
"F  c #0F9F73",
"G  c #199671",
"H  c #139E73",
"J  c #1E9B71",
"K  c #228B61",
"L  c #2E836E",
"P  c #39816F",
"I  c #2B9667",
"U  c #2B9669",
"Y  c #239B6E",
"T  c #2D996A",
"R  c #30986D",
"E  c #3A8571",
"W  c #3B8C74",
"Q  c #378571",
"!  c #259C72",
"~  c #299872",
"^  c #3D9077",
"/  c #349C72",
"(  c #3E9478",
")  c #3E9A7A",
"_  c #319274",
"`  c #0FA074",
"'  c #13A175",
"]  c #1CA376",
"[  c #1DA578",
"{  c #22A67A",
"}  c #26A97C",
"|  c #2BAA7D",
" . c #2BA57B",
".. c #3CA47C",
"X. c #32AC7F",
"o. c #3DAB7E",
"O. c #3AA275",
"+. c #6DA259",
"@. c #498979",
"#. c #55837A",
"$. c #58877C",
"%. c #57887C",
"&. c #59897D",
"*. c #409D7C",
"=. c #47937A",
"-. c #52937F",
";. c #679572",
":. c #46A466",
">. c #41A476",
",. c #41A57F",
"<. c #4EAA7F",
"1. c #56AF75",
"2. c #68AF70",
"3. c #66B67D",
"4. c #70B674",
"5. c #75A96B",
"6. c #BBAE4E",
"7. c #969B7D",
"8. c #A3826B",
"9. c #81B06C",
"0. c #82B572",
"q. c #CEB54E",
"w. c #CABC57",
"e. c #99C17C",
"r. c #95C07A",
"t. c #CDD37D",
"y. c #D0D67D",
"u. c #D5C76E",
"i. c #E0D478",
"p. c #F8E17C",
"a. c #34AD81",
"s. c #3BAD82",
"d. c #3DB183",
"f. c #35B081",
"g. c #5C8E80",
"h. c #5D9181",
"j. c #589E83",
"k. c #619784",
"l. c #639C86",
"z. c #659E88",
"x. c #42A780",
"c. c #43AC83",
"v. c #4AAE83",
"b. c #53AB81",
"n. c #56A787",
"m. c #43B285",
"M. c #49B486",
"N. c #4CB589",
"B. c #51B686",
"V. c #50B689",
"C. c #54B98B",
"Z. c #5CBA8E",
"A. c #58B887",
"S. c #5EBC90",
"D. c #67A289",
"F. c #6AA78B",
"G. c #6CAC8E",
"H. c #64A98B",
"J. c #62BC8F",
"K. c #68B58A",
"L. c #71B38A",
"P. c #6EAF90",
"I. c #6DB290",
"U. c #63BD91",
"Y. c #69BE92",
"T. c #71B592",
"R. c #74BC95",
"E. c #6DC094",
"W. c #73C397",
"Q. c #77C498",
"!. c #79C499",
"~. c #7DC498",
"^. c #79C689",
"/. c #85B58E",
"(. c #9CCF8A",
"). c #9BD28D",
"_. c #8DC994",
"`. c #88CA98",
"'. c #93CF98",
"]. c #AAD692",
"[. c #C6D887",
"{. c #E2DE85",
"}. c #C9E296",
"|. c #D8E993",
" X c #E9E182",
".X c #FAED8C",
"XX c #ECF096",
"oX c #F8F191",
"OX c None",
/* pixels */
"OXOXOXOXOXOXOXOXOXOXOXOXOXOXOXOXOXOXOXOXOXOXOXOXOXOXOXOXOXOXOXOXOXOXOXOXOXOXOXOXOXOXOXOXOXOXOXOXOXOX",
"OXOXOXOXOXOXOXOXOXOXOXOXOXOXOXOXOXOXOXOXOXOXOXOXOXOXOXOXOXOXOXOXOXOXOXOXOXOXOXOXOXOXOXOXOXOXOXOXOXOX",
"OXOXOXOXOXOXOXOXOXc c x m ! ] ] [ [ { { } { } } a.V.C.C.C.C.C.C.V.N.N.N.;.v c c x OXOXOXOXOXOXOXOXOX",
"OXOXOXOXOXOXOXOXc c n b y s.f.f.d.d.d.d.s.s.s...c.I.Y.R.R.E.R.Q.W.W.E.Y.T.B b n c x OXOXOXOXOXOXOXOX",
"OXOXOXOXOXOXOXOXM N z ;.<.m.m.x.*.W r w 8 8 6 ; 2 a d d d k $.g.z.P.R.R.`././.B B N OXOXOXOXOXOXOXOX",
"OXOXOXOXOXOXOXH ~ ,.M.c.) E 8 2 $ # + X X . . . X % % & % > , , u i d l l.I.~./.I.b.OXOXOXOXOXOXOXOX",
"OXOXOXOXOXOXOX' } s.^ q - # X X .   . . . . .   X o % % o % o % o o > > 1 p g.P.W.C.m.OXOXOXOXOXOXOX",
"OXOXOXOXOXOXOXH _ q $ X .     .   . . . . . . . X % % % % % % % % % % o o > , p $.n.m.OXOXOXOXOXOXOX",
"OXOXOXOXOXOXH Z - X     . . . . . . . . X X . . X o o o o > % % % o o % % % o % , j x.OXOXOXOXOXOXOX",
"OXOXOXOXOXOXH G ; .   . . . . . X . . . . . . . X o o > o % % % % > % % % % % o > f v.OXOXOXOXOXOXOX",
"OXOXOXOXOXOXH  .( ; . . . . . . X . .           X o o o o o + % % % % % % % % > h I.C.c.OXOXOXOXOXOX",
"OXOXOXOXOXOXD L ,.( ; .       . X X X + # # # $ * u i 3 1 , > * > % o o o o > f I.H.g.c.OXOXOXOXOXOX",
"OXOXOXOXOXOXZ = q ,.( ; + # = ; 6 8 e r Q W W ^ =.n.z.l.l.-.&.#.f d p 3 1 1 f P.P.f 9 s.OXOXOXOXOXOX",
"OXOXOXOXOXOXZ O + 8 >.( r W ^ ,.s.m.m.m.m.M.m.m.C.Q.~.~.!.!.`.Q.R.T.P.D.h.g.P.F.s % 1 s.OXOXOXOXOXOX",
"OXOXOXOXOXOXZ O . X 8 ,.m.m.m.m.M.m.m.m.m.m.m.m.V.W.!.!.Q.!.!.!.!.!.`.!.!.!.P.p % % 6 x.OXOXOXOXOXOX",
"OXOXOXOXOXOXZ O . X + ( m.d.m.m.m.m.m.m.d.d.m.m.V.Q.!.!.W.Q.!.!.!.!.!.W.Q.Q.g.% % % 6 s.OXOXOXOXOXOX",
"OXOXOXOXOXOXZ O     + W d.a.s.m.m.m.m.m.| X.m.m.V.W.!.Q.S.E.!.!.!.!.Q.U.Y.Q.%.& % % 7 ,.OXOXOXOXOXOX",
"OXOXOXOXOXOXZ O X   + ^ d.} a.m.m.m.m.m.| X.m.m.V.W.!.Q.Z.E.!.!.!.!.!.U.U.Q.%.% o % 7 ,.OXOXOXOXOXOX",
"OXOXOXOXOXOXZ O   X X ^ d.} a.m.m.m.m.m.| X.m.m.V.W.!.Q.C.E.W.!.!.!.!.Z.U.Q.$.% % % 7 x.OXOXOXOXOXOX",
"OXOXOXOXOXOXZ O X X + ^ m.} a.m.m.m.m.m.| | m.m.V.Q.!.Q.Z.E.Q.!.!.!.!.Z.U.Q.$.& o % 7 x.OXOXOXOXOXOX",
"OXOXOXOXOXOXZ O X   + ^ d.{ a.m.m.m.m.m.| | m.m.V.W.!.Q.C.E.!.!.!.!.Q.Z.U.Q.&.% % % 2 x.OXOXOXOXOXOX",
"OXOXOXOXOXOXZ O   X + ^ m.a.a.m.m.m.m.m.} a.m.m.B.W.!.Q.Z.E.!.!.!.!.!.J.U.Q.$.& % % 7 x.OXOXOXOXOXOX",
"OXOXOXOXOXOXZ O X   + ^ s.a.a.m.m.m.m.m.} | d.m.B.W.!.W.Z.E.!.!.!.!.Q.Z.U.Q.$.% % o 7 x.OXOXOXOXOXOX",
"OXOXOXOXOXOXZ O X X X ^ m.{ a.m.m.m.m.m.| a.m.m.B.W.!.W.C.E.!.!.!.!.!.J.U.!.&.& o % 7 x.OXOXOXOXOXOX",
"OXOXOXOXOXOXZ O .   + ^ c.a.a.d.m.m.m.m.a.} d.m.C.W.Q.Q.Z.E.Q.!.!.!.!.S.Y.Q.#.% % % 7 x.OXOXOXOXOXOX",
"OXOXOXOXOXOXZ @ X X + ^ m.} a.d.m.m.m.m.[ a.d.m.C.W.Q.Q.C.E.Q.Q.!.!.!.Z.U.Q.&.& % & 7 x.OXOXOXOXOXOX",
"OXOXOXOXOXOXG e r r E x.d.} a.m.m.m.m.m.[ a.m.m.V.Q.!.Q.C.E.!.!.!.!.Q.J.U.!.G.&.&.&.h.c.OXOXOXOXOXOX",
"OXOXOXOXOXOXD e 8 w r ..s.a.a.m.m.m.m.m.a.f.m.m.V.Q.Q.Q.Z.E.!.!.!.!.Q.Z.U.!.G.$.#.#.@.c.OXOXOXOXOXOX",
"OXOXOXOXOXOXZ @ + # $ ( m.} a.m.m.m.m.m.f.| m.m.V.Q.!.!.Z.E.!.!.!.!.!.Z.U.!.h.1 , , 9 x.OXOXOXOXOXOX",
"OXOXOXOXOXOXZ +     X ^ d.} a.m.m.m.m.m.} f.m.m.N.W.Q.!.C.E.!.!.!.!.!.U.U.R.$.% % o 7 ,.OXOXOXOXOXOX",
"OXOXOXOXOXOXZ O . . X ^ m.} a.m.m.m.m.m.} } d.m.V.W.Q.!.C.E.Q.!.!.!.!.Z.U.Q.&.& % % 7 ,.OXOXOXOXOXOX",
"OXOXOXOXOXOXZ O . . + =.m.} a.m.m.m.m.m.} f.d.m.V.Q.Q.Q.C.E.Q.!.!.!.!.Z.U.Q.&.% % % 7 ,.OXOXOXOXOXOX",
"OXOXOXOXOXOXZ O . X X ^ m.} a.m.m.m.m.m.} X.m.m.B.W.!.Q.C.E.!.!.!.!.!.Z.U.Q.$.% % % 3 x.OXOXOXOXOXOX",
"OXOXOXOXOXOXZ O . X + ^ c.} a.m.m.m.m.m.| | m.m.V.Q.!.Q.Z.E.!.!.!.!.!.Z.U.!.$.& o % 7 x.OXOXOXOXOXOX",
"OXOXOXOXOXOXZ O . . + ^ m.| a.m.m.m.m.m.| f.m.m.V.W.!.Q.A.E.!.!.!.!.!.J.Y.Q.$.& % % 7 x.OXOXOXOXOXOX",
"OXOXOXOXOXOXZ O . . + ^ m.} a.m.m.m.m.d.} | m.m.V.W.Q.Q.C.E.!.~.!.Q.Q.Z.J.Q.%.% o % 7 x.OXOXOXOXOXOX",
"OXOXOXOXOXOXZ O . . X ^ m.} a.m.m.m.m.m.| X.d.m.V.W.!.Q.Z.E.W.Q.!.!.!.Z.U.Q.#.& o > 3 x.OXOXOXOXOXOX",
"OXOXOXOXOXOXZ O . . + ^ m.} a.m.m.m.m.m.} X.m.m.V.W.!.Q.C.E.Q.Q.!.!.!.J.U.Q.%.% % % 2 x.OXOXOXOXOXOX",
"OXOXOXOXOXOXZ O . . + ^ m.| a.m.m.m.m.m.| | m.m.V.W.!.Q.C.E.!.~.!.!.Q.Z.Y.Q.&.% o % 7 x.OXOXOXOXOXOX",
"OXOXOXOXOXOXZ O . . + ^ c.} a.m.m.m.m.m.| | m.m.V.Q.!.Q.Z.E.!.!.!.!.!.Z.J.Q.%.& % % 7 x.OXOXOXOXOXOX",
"OXOXOXOXOXOXZ O . . X ^ m.} a.m.m.m.m.m.f.} d.d.V.W.!.Q.Z.E.!.!.!.!.!.Z.U.R.&.& % & 7 ,.OXOXOXOXOXOX",
"OXOXOXOXOXOXH e r e r x.c.} a.m.m.m.m.m.} f.m.m.V.W.!.Q.C.E.!.Q.!.!.!.Z.U.Q.G.$.$.$.-.c.OXOXOXOXOXOX",
"OXOXOXOXOXOXJ s.x.*.s.s.m.} a.m.m.m.m.m.} a.m.m.V.W.!.Q.C.E.W.!.!.!.!.J.U.!.R.T.T.T.K.c.OXOXOXOXOXOX",
"OXOXOXOXOXOXZ 6 2 2 2 ) m.} a.m.m.m.N.d.} f.m.m.V.Q.!.Q.Z.E.Q.!.!.!.!.Z.U.!.l.a p d g c.OXOXOXOXOXOX",
"OXOXOXOXOXOXZ @ X . + ^ d.[ f.m.m.m.m.m.} f.d.d.V.W.Q.Q.C.E.!.!.!.!.!.Z.U.!.&.& % % 7 x.OXOXOXOXOXOX",
"OXOXOXOXOXOXZ O   . + ^ m.a.f.m.m.m.m.m.a.} m.d.V.W.!.Q.Z.E.!.!.!.!.!.Z.U.Q.$.% % % 2 x.OXOXOXOXOXOX",
"OXOXOXOXOXOXZ O . . + ^ m.} f.m.m.m.m.m.} a.m.m.B.W.Q.Q.Z.E.!.~.!.!.Q.J.U.Q.$.& % % 7 x.OXOXOXOXOXOX",
"OXOXOXOXOXOXZ O X   + ^ d.a.f.m.m.m.m.d.} f.d.m.B.Q.Q.W.C.E.Q.~.!.!.!.Z.U.Q.&.% o % 7 x.OXOXOXOXOXOX",
"OXOXOXOXOXOXZ O . . + ^ m.| a.m.m.m.m.m.| X.m.m.C.W.!.Q.Z.E.W.Q.!.!.!.Z.Y.Q.&.% % % 7 x.OXOXOXOXOXOX",
"OXOXOXOXOXOXZ O . . + ^ m.} a.m.m.m.m.m.| | m.m.V.W.!.Q.C.E.Q.Q.!.!.!.U.J.Q.&.% % % 7 x.OXOXOXOXOXOX",
"OXOXOXOXOXOXZ O   . + ^ m.} a.m.m.m.m.m.| | m.m.B.W.!.Q.Z.E.!.~.!.!.Q.Z.U.Q.&.& o % 7 x.OXOXOXOXOXOX",
"OXOXOXOXOXOXZ O X   + W c.} a.m.m.m.m.m.| | m.m.V.Q.!.Q.C.E.!.!.!.!.!.Z.U.Q.&.% % % 7 x.OXOXOXOXOXOX",
"OXOXOXOXOXOXZ O . . + ^ m.| a.m.m.m.m.m.} X.m.m.V.W.!.Q.Z.E.!.!.!.!.Q.Z.U.Q.&.% o % 7 x.OXOXOXOXOXOX",
"OXOXOXOXOXOXZ O . . + ^ m.} a.m.m.m.m.m.} | m.m.V.W.!.Q.C.E.!.!.!.!.Q.J.U.Q.%.& % % 7 x.OXOXOXOXOXOX",
"OXOXOXOXOXOXZ O . . + ^ m.} a.m.m.m.m.m.| X.m.m.V.W.!.Q.C.E.W.!.!.!.!.Z.U.Q.$.& o % 7 x.OXOXOXOXOXOX",
"OXOXOXOXOXOXZ O . . + ^ c.} a.m.m.m.m.m.} X.m.m.V.W.!.Q.Z.E.Q.!.!.!.!.J.U.Q.$.% % % 7 x.OXOXOXOXOXOX",
"OXOXOXOXOXOXZ O . . + ^ m.| d.m.m.m.m.m.| X.m.m.V.W.!.Q.Y.Y.!.!.!.!.!.Y.Y.!.&.% + > 2 c.OXOXOXOXOXOX",
"OXOXOXOXOXOXZ O . . $ ) m.c.d.m.m.m.m.m.m.m.m.m.N.Q.!.!.W.Q.!.!.!.!.!.Q.Q.Q.l., % % 3 c.OXOXOXOXOXOX",
"OXOXOXOXOXOXZ O . X 8 ,.( ) c.m.m.m.m.m.m.m.m.m.V.Q.!.!.!.!.~.!.!.!.R.R.P.G.P.p % % 7 x.OXOXOXOXOXOX",
"OXOXOXOXOXOXZ O . + ^ W $ - 8 E =.,.,.c.m.m.m.m.N.W.!.!.Q.!.R.R.G.D.g.f i i G.&.% % 7 x.OXOXOXOXOXOX",
"OXOXOXOXOXOXZ @   2 ..8 X . . + # $ 2 q r P W W =.l.l.l.&.$.f a u , & % % & g.G.3 % 7 x.OXOXOXOXOXOX",
"OXOXOXOXOXOXZ O X E ) =   . . . . . . . . X + + + < , & & & % % % % o % % % d T.k % 7 x.OXOXOXOXOXOX",
"OXOXOXOXOXOXZ + = ,.Q X . . X   . . . . . .   . . o % % % % % o o % % % % o 1 G.z., 7 x.OXOXOXOXOXOX",
"OXOXOXOXOXOXZ # q x.6 X .   . X . . . . . . . . X o % % % % % % % % % % % % & g.T.d 7 x.OXOXOXOXOXOX",
"OXOXOXOXOXOXZ = ) ) # . . . X   X   . . X   X   X % o % % % % % > o % % % % % s T.g.p x.OXOXOXOXOXOX",
"V V V V V V A q x.P X X . X X . X X X X X     X X + o > % % > % % % % % % % o u G.P.g _ T T T U U OX",
"V V V V V C A ( x.6 .   . X X X X . X X X X   X X % > % % % o % % % % % % % % % $.R.j./ U U U T T OX",
"OXV V V V C J o.) # . X X X . X . X X   X X     X o o o % % % % % % % o % % % % a R.U...T T U T U OX",
"OXOXOXOXOXOX[ s.E X . . .   . . X . . . X .   X o o % % % % % % o % o > % o o o u G.Y.c.OXOXOXOXOXOX",
"OXOXOXOXOXOX[ d.) 8 # X       . . X X . . X X X   o % % % % % , > o o o o o > 3 l T.Y.m.OXOXOXOXOXOX",
"OXOXOXOXOXOX[ d.m...P 8 = O O         . . . . X X o o o o o o o o o > > < a l z.R.!.Y.N.OXOXOXOXOXOX",
"OXOXOXOXOXOX] d.m.m.m.,._ 4 5 6 : $ # + X + X X o > , % > , , u u p d r @.H.Q.!.~.!.Y.N.OXOXOXOXOXOX",
"OXOXOXOXOXOX[ d.m.m.m.m.f.' } ,.) ( L 0 0 t q 8 9 f l l #.@.@.k.H.I.Y.V.N.W.!.!.!.Q.E.N.OXOXOXOXOXOX",
"OXOXOXOXOXOX[ s.m.m.m.m.d.' | m.m.m.d.} a.m.m.m.N.R.!.!.Q.S.S.!.!.!.!.C.V.!.!.!.!.Q.E.N.OXOXOXOXOXOX",
"OXOXOXOXOXOX{ d.m.m.m.m.o.[ } m.m.m.c.} a.m.m.m.V.W.!.!.!.S.U.!.!.!.W.V.C.W.!.!.!.!.E.m.OXOXOXOXOXOX",
"OXOXOXOXOXOX] d.m.M.m.m.d.{ } m.m.m.m.| a.m.m.m.V.Q.!.!.!.S.U.Q.!.!.W.V.S.!.!.!.!.!.E.N.OXOXOXOXOXOX",
"OXOXOXOXOXOX{ d.m.m.m.m.m.{ } m.m.m.m.| a.m.m.m.V.W.!.!.!.U.Y.!.!.!.W.V.U.!.!.!.!.!.E.N.OXOXOXOXOXOX",
"OXOXOXOXOXOX] m.m.m.m.m.m.| { m.m.m.m.X.a.m.m.m.V.W.!.!.Q.S.Y.!.!.Q.W.V.E.!.!.!.!.!.E.N.OXOXOXOXOXOX",
"OXOXOXOXOXOX{ d.m.M.m.m.m.| { m.m.m.m.d.a.m.m.m.V.W.!.!.Q.U.Q.!.!.!.W.V.E.W.~.!.!.!.E.m.OXOXOXOXOXOX",
"OXOXOXOXOXOX] d.m.m.m.m.m.X.} m.m.m.d.d.a.m.m.c.N.Q.!.!.Q.U.Q.!.!.Q.W.C.E.Q.!.!.!.!.E.M.OXOXOXOXOXOX",
"OXOXOXOXOXOX[ d.m.m.m.m.m.a.} m.m.m.m.d.a.m.m.m.V.Q.!.!.Q.Y.!.!.!.!.W.C.W.Q.!.!.!.!.E.N.OXOXOXOXOXOX",
"OXOXOXOXOXOX[ d.m.m.m.m.m.f.} d.m.m.m.d.d.m.m.m.N.W.!.!.Q.Y.!.!.!.!.E.Z.W.!.!.!.!.!.E.m.OXOXOXOXOXOX",
"OXOXOXOXOXOX[ s.m.m.m.m.m.s.} d.m.m.m.m.d.m.m.m.V.Q.Q.!.Q.W.!.!.!.!.E.Z.Q.!.!.!.!.!.E.N.OXOXOXOXOXOX",
"OXOXOXOXOXOX] d.m.m.m.m.m.d.a.d.m.m.m.m.d.m.m.m.V.Q.!.!.Q.Q.!.!.!.Q.W.Z.Q.!.!.!.!.!.E.m.OXOXOXOXOXOX",
"OXOXOXOXOXOX[ d.m.m.m.m.m.d.f.d.m.m.m.m.m.m.N.m.N.W.!.!.Q.!.!.!.!.!.W.E.!.!.!.!.!.!.E.m.OXOXOXOXOXOX",
"OXOXOXOXOXOX] s.m.m.m.N.m.m.f.d.m.m.m.m.m.m.m.m.V.Q.!.!.Q.!.!.!.!.!.E.E.!.!.!.!.!.!.E.m.OXOXOXOXOXOX",
"OXOXOXOXOXOX' d.m.m.m.m.m.m.f.d.m.m.m.m.m.m.m.m.V.Q.!.!.!.!.!.!.!.!.W.E.!.!.!.!.!.!.E.m.OXOXOXOXOXOX",
"OXOXOXOXOXOX] a.m.m.N.m.m.m.d.d.m.m.m.M.m.m.m.m.N.Q.!.!.!.!.!.!.!.!.W.Q.!.!.!.!.!.!.S.m.OXOXOXOXOXOX",
"OXOXOXOXOXOX' a.m.m.M.m.m.m.d.m.d.m.m.m.M.m.m.m.V.Q.!.!.!.!.!.!.!.!.Q.Q.Q.!.!.!.!.Q.Z.m.OXOXOXOXOXOX",
"OXOXOXOXOXOX' a.d.d.d.m.m.m.m.d.m.N.m.m.m.m.m.m.V.W.!.!.!.!.!.!.!.!.Q.!.!.!.!.!.Q.Q.C.m.OXOXOXOXOXOX",
"OXOXOXOXOXOX' :.4.A.m.o.m.m.m.m.m.m.m.M.m.m.m.m.V.Q.!.!.!.!.!.!.!.!.!.!.!.!.Q.!.`.0.3.d.OXOXOXOXOXOX",
"OXOXOXOXOXOX` +.w.].^.A.m.m.m.M.m.m.m.M.m.m.m.m.N.Q.!.!.!.!.!.!.!.!.!.!.!.!.`.].|.w.2.m.OXOXOXOXOXOX",
"OXOXOXOXOXOX' :.q..X|.).A.m.m.m.m.m.N.d.m.m.m.m.V.R.!.~.!.~.!.~.Q.!.Q.!.~.'.}.XXp.q.<.OXOXOXOXOXOXOX",
"OXOXOXOXOXOXOXH +.i.oXoX(.M.m.m.m.m.s.d.,...s.o.v.Y.Y.Y.Y.Y.Y.Y.Q.Q.~.!.`.}.oX.Xu.5.c.OXOXOXOXOXOXOX",
"OXOXOXOXOXOXOX' Y 9.t.p.[.<.d.m.c.s./ U I U I I R >.>.>.>.>.,.b.E.Q.Q.W._.{..Xt.0.v.OXOXOXOXOXOXOXOX",
"OXOXOXOXOXOXOXOX` ' 1.0.4.} } a.s.a./ K V V V V C I U U U R O.A.E.E.E.E.L.0.0.4.M.m.OXOXOXOXOXOXOXOX",
"OXOXOXOXOXOXOXOXOXOX` ' ' ' ' ' ] [ } { S K K K C Y T T / ..B.C.B.M.m.m.m.m.m.m.OXOXOXOXOXOXOXOXOXOX",
"OXOXOXOXOXOXOXOXOXOXOXOXH ' ' ' ' ' ` ' ' H D S Y O.o.o.c.m.m.m.m.m.m.m.m.m.OXOXOXOXOXOXOXOXOXOXOXOX",
"OXOXOXOXOXOXOXOXOXOXOXOXOXOXOXOXH ' ' ' H ' ' ' [ d.m.m.m.m.m.m.m.m.OXOXOXOXOXOXOXOXOXOXOXOXOXOXOXOX",
"OXOXOXOXOXOXOXOXOXOXOXOXOXOXOXOXOXOXOXOXOXOXOXOXOXOXOXOXOXOXOXOXOXOXOXOXOXOXOXOXOXOXOXOXOXOXOXOXOXOX"
};
