/* XPM */
static char *result[] = {
/* columns rows colors chars-per-pixel */
"100 50 188 2 ",
"   c #6B5A3D",
".  c #67583F",
"X  c #725E3B",
"o  c #7D5F37",
"O  c #75603A",
"+  c #7B6439",
"@  c #726D3E",
"#  c #7A723C",
"$  c #77703D",
"%  c #27374F",
"&  c #29374F",
"*  c #2B394E",
"=  c #343D4B",
"-  c #393F4A",
";  c #3F3F47",
":  c #273650",
">  c #293750",
",  c #2A3950",
"<  c #2E3F5D",
"1  c #3C4149",
"2  c #2F405C",
"3  c #3A4757",
"4  c #3E4A55",
"5  c #32425C",
"6  c #384658",
"7  c #434247",
"8  c #4A4945",
"9  c #424348",
"0  c #4B4443",
"q  c #524D43",
"w  c #594E41",
"e  c #4D544E",
"r  c #5B5241",
"t  c #5D5E47",
"y  c #51564D",
"u  c #5F574C",
"i  c #54594B",
"p  c #5B5D48",
"a  c #434D53",
"s  c #4B5250",
"d  c #475150",
"f  c #61584B",
"g  c #665A43",
"h  c #5F6047",
"j  c #626246",
"k  c #6B6842",
"l  c #716C40",
"z  c #EC2B1F",
"x  c #E91A23",
"c  c #EA2222",
"v  c #EA2B22",
"b  c #EC3E20",
"n  c #9F772E",
"m  c #826737",
"M  c #856936",
"N  c #926E33",
"B  c #857A37",
"V  c #8A7D35",
"C  c #827539",
"Z  c #827838",
"A  c #977332",
"S  c #9B7431",
"D  c #997D31",
"F  c #A47A2F",
"G  c #AB7D2D",
"H  c #B27C2C",
"J  c #A07730",
"K  c #DC441F",
"L  c #DE491F",
"P  c #E7471E",
"I  c #E1511F",
"U  c #E4611D",
"Y  c #E86A1D",
"T  c #F26E1C",
"R  c #EF751F",
"E  c #EE781F",
"W  c #F1771C",
"Q  c #F27B1C",
"!  c #F17714",
"~  c #DC4420",
"^  c #DD4920",
"/  c #CA5627",
"(  c #EE5622",
")  c #EF5A22",
"_  c #F15A23",
"`  c #F05623",
"'  c #CF6D28",
"]  c #DB6324",
"[  c #D37626",
"{  c #D47728",
"}  c #DA7923",
"|  c #E46D23",
" . c #F16222",
".. c #F26C20",
"X. c #E77F21",
"o. c #EA7721",
"O. c #BDA01F",
"+. c #9C892E",
"@. c #948431",
"#. c #A38E2C",
"$. c #BF8827",
"%. c #B2812B",
"&. c #BD8629",
"*. c #AC9427",
"=. c #AF9825",
"-. c #A5912A",
";. c #AA9429",
":. c #B29924",
">. c #BB9B24",
",. c #BDA020",
"<. c #DE9E1D",
"1. c #F3831E",
"2. c #F48C1C",
"3. c #F38816",
"4. c #E49C1F",
"5. c #EA9F1D",
"6. c #F59314",
"7. c #F6941B",
"8. c #F79B1A",
"9. c #F89D1A",
"0. c #F79F17",
"q. c #C3A41E",
"w. c #CDAB1A",
"e. c #CAA61C",
"r. c #D0AE19",
"t. c #DDAE16",
"y. c #D7B216",
"u. c #DCB513",
"i. c #DFB813",
"p. c #F8AE09",
"a. c #E6BC0E",
"s. c #E9BE0E",
"d. c #FAB60D",
"f. c #FBBD0B",
"g. c #EBA11E",
"h. c #F9A617",
"j. c #FAAB15",
"k. c #F5A41A",
"l. c #F9A618",
"z. c #FAA91A",
"x. c #F6A617",
"c. c #E6BD10",
"v. c #E3B612",
"b. c #F9B311",
"n. c #C58B27",
"m. c #CB8D25",
"M. c #C79623",
"N. c #D49323",
"B. c #DB9621",
"V. c #DE9920",
"C. c #F18220",
"Z. c #F48C29",
"A. c #F38926",
"S. c #E19A20",
"D. c #E89221",
"F. c #F59733",
"G. c #F8AA23",
"H. c #F8B628",
"J. c #F4A53C",
"K. c #F8B836",
"L. c #EDC10D",
"P. c #FDC606",
"I. c #FFCB03",
"U. c #F2C50A",
"Y. c #FCC208",
"T. c #FDCC0A",
"R. c #F6C707",
"E. c #FBC412",
"W. c #FDD114",
"Q. c #FBDB3B",
"!. c #F7BE4A",
"~. c #F8BB58",
"^. c #F5A749",
"/. c #FBDF47",
"(. c #FAC756",
"). c #F8C548",
"_. c #F8C863",
"`. c #FAD966",
"'. c #FCD975",
"]. c #FBE76C",
"[. c #FBE47C",
"{. c #F9E072",
"}. c #FCE684",
"|. c #FCF188",
" X c #FDF694",
".X c #FEF897",
"XX c #FDF898",
"oX c None",
/* pixels */
"oXoXoXoXoXoXoXoXoXoXoXoXoXoXoXoXoXoXoXoXoXoXoXoXoXoXoXoXoXoXoXoXoXoXoXoXoXoX~ K oXoXoXoXoXoXoXoXoXoXoXoXoXoXoXoXoXoXoXoXoXoXoXoXoXoXoXoXoXoXoXoXoXoXoXoXoXoXoXoXoXoXoXoXoXoXoXoXoXoXoXoXoXoXoXoXoXoXoXoX",
"oXoXoXoXoXoXoXoXoXoXoXoXoXoXoXoXoXoXoXoXoXoXoXoXoXoXoXoXoXoXoXoXoXoXoXoXoX~ ~ K oXoXoXoXoXoXoXoXoXoXoXoXoXoXoXoXoXoXoXoXoXoXoXoXoXoXoXoXoXoXoXoXoXoXoXoXoXoXoXoXoXoXoXoXoXoXoXoXoXoXoXoXoXoXoXoXoXoXoXoX",
"oXoXoXoXoXoXoXoXoXoXoXoXoXoXoXoXoXoXoXoXoXoXoXoXoXoXoXoXoXoXoXoXoXoXoXoXoXK K K oXoXoXoXoXoXoXoXoXoXoXoXoXoXoXoXoXoXoXoXoXoXoXoXoXoXoXoXoXoXoXoXoXoXoXoXoXoXoXoXoXoXoXoXoXoXoXoXoXoXoXoXoXoXoXoXoXoXoXoX",
"oXoXoXoXoXoXoXoXoXoXoXoXoXoXoXoXoXoXoXoXoXoXoXoXoXoXoXoXoXoXoXoXoXoXoXoXoXK K K oXoXoXoXoXoXoXoXoXoXoXoXoXoXoXoXoXoXoXoXoXoXoXoXoXoXoXoXoXoXoXoXoXoXoXoXoXoXoXoXoXoXoXoXoXoXoXoXoXoXoXoXoXoXoXoXoXoXoXoX",
"oXoXoXoXoXoXoXoXoXoXoXoXoXoXoXoXoXoXoXoXoXoXoXoXoXoXoXoXoXoXoXoXoXoXoXoXoXK K K oXoXoXoXoXoXoXoXoXoXoXoXoXoXoXoXoXoXoXoXoXoXoXoXoXoXoXoXoXoXoXoXoXoXoXoXoXoXoXoXoXoXoXoXoXoXoXoXoXoXoXoXoXoXoXoXoXoXoXoX",
"oXoXoXoXoXoXoXoXoXoXoXoXoXoXoXoXoXoXoXoXoXoXoXoXoXoXoXoXoXoXoXoXoXoXoXoXoX^ ~ K oXoXoXoXoXoXoXoXoXoXoXoXoXoXoXoXoXoXoXoXoXoXoXoXoXoXoXoXoXoXoXoXoXoXoXoXoXoXoXoXoXoXoXoXoXoXoXoXoXoXoXoXoXoXoXoXoXoXoXoX",
"oXoXoXoXoXoXoXoXoXoXoX1.C.Q 1.1.1.1.1.1.1.2.1.1.2.C.1.C.1.1.1.1.1.2.1.1.C.W ] / ' { { { { [ [ [ [ [ [ [ [ [ [ [ [ [ [ [ [ X.X.[ [ [ [ [ [ [ [ [ [ [ [ [ [ [ [ { { { } Q C.C.1.Q oXoXoXoXoXoXoXoXoXoXoXoX",
"oXoXoXoXoXoXoXoXoX1.1.Q 1.7.7.8.9.9.l.l.9.l.l.l.l.l.l.l.l.l.l.l.9.l.l.9.l.l.S.N w ; ; 9 7 7 7 7 7 7 7 7 7 7 7 7 7 7 7 7 7 H H 7 7 ; 7 7 7 7 7 7 7 7 7 7 7 7 7 ; 0 o m.9.8.7.2.2.1.1.oXoXoXoXoXoXoXoXoXoX",
"oXoXoXoXoXoXoXoX1.Z.^._.(.K.h.h.l.l.l.l.l.l.l.l.l.l.l.l.l.l.l.l.l.l.h.B.%.V.l.z.N.A 8 * % % & , > > > > > > > > > > > > & F G & > > > > > * > > > > > > : : 1   &.k.S.$.N.h.l.l.8.2...c oXoXoXoXoXoXoXoX",
"oXoXoXoXoXoXoXoXZ.~.}..XXX{.z.h.h.l.h.l.l.l.h.h.h.h.h.l.h.l.l.h.l.h.k.X * 7 O G V.z.g.%.. 1 % : > > > * > > > > > > > : & F G & > * > > > > > > , , > > 1   &.g.S.J r = X l.h.l.l.l.Q c x oXoXoXoXoXoXoX",
"oXoXoXoXoXoXoXQ F.'. X.X|.).l.l.l.h.h.h.x.h.l.l.h.l.h.l.l.l.9.l.h.z.&.= , , , * 8 O %.4.g.m.m 7 = * * * = * * = * = * = * F G = * * * * = * * = * = 1 X $.g.m.M 7 & : > 1 N.h.h.l.l.7.v x oXoXoXoXoXoXoX",
"oXoXoXoXoXoXoXQ Z._.[.`.K.z.l.l.h.h.l.h.h.h.l.l.l.9.7.7.7.7.9.l.l.k.O : , , & , : & & 7 O %.4.B.n.&.n.&.&.&.&.n.&.&.$.&.$.4.4.&.&.&.n.n.n.&.n.H &.&.M.4.%.  1 : , , , , & S z.x.l.l.l.b x oXoXoXoXoXoXoX",
"oXoXoXoXoXoX1.1.1.8.z.l.k.l.l.l.h.h.h.9.8.7.2.2.2.2.8.9.h.h.l.l.h.B.7 , & , , , & & , % : * n z.h.h.h.h.h.h.h.z.j.h.h.h.h.l.z.h.h.h.h.z.h.z.h.h.h.z.h.n.1 : : * & , * , :   l.z.l.l.l.T c oXoXoXoXoXoXoX",
"oXoXoXoXoXoX1.1.2.l.l.l.z.l.k.8.7.7.2.7.7.7.8.9.l.l.l.l.h.l.h.h.z.%.* & , , , * , * * , : 1 n.l.7.7.7.8.7.7.8.7.7.7.7.7.7.7.7.7.7.7.7.8.8.7.7.7.8.h.h.V.9 & : , , , & , : 8 S.h.l.l.l.l.Q oXoXoXoXoXoXoX",
"oXoXoXoXoXoXC.1.7.l.x.x.l.l.9.8.9.9.l.l.h.h.l.h.h.x.l.x.h.l.h.z.l.m % & , , , , , , , , : q g.j.9.8.9.8.8.8.8.8.9.9.8.9.8.8.9.9.8.8.8.8.9.8.9.9.9.h.h.k.r , & , , , , * : 1 n.h.h.h.l.l.7.Q oXoXoXoXoXoX",
"oXoXoXoXoXoX1.o.Y U 2.l.l.l.l.z.h.l.h.h.h.h.x.l.l.l.l.l.z.h.h.h.k.r : & , , , , , , , , : O x.z.h.l.z.z.h.z.h.h.z.z.l.h.h.h.z.l.h.h.z.h.h.z.l.l.h.l.l.l.m : , * , , , , , & G z.h.l.l.l.2.1.oXoXoXoXoXoX",
"oXoXoXoXoXoXC.Y K ~ U l.x.l.h.h.x.l.l.l.l.l.z.h.z.h.h.l.l.h.h.h.V.9 , * , , , , , , , , & F h.h.h.h.h.h.h.h.h.l.h.h.l.l.l.h.h.h.h.h.h.h.h.h.h.h.h.h.l.h.F % % , , , , , , : N l.l.l.l.h.7.1.oXoXoXoXoXoX",
"oXoXoXoXoXC.Q I K ~ U l.l.x.l.l.l.h.l.l.h.l.l.h.l.l.h.l.l.l.h.h.m.1 , , , , , , , , & , = m.h.h.h.h.l.l.l.h.l.l.l.l.l.l.l.l.l.l.l.h.l.l.l.l.h.l.l.l.h.h.&.= & & , , , , , : O l.l.x.h.l.7.1.oXoXoXoXoXoX",
"oXoXoXoXoXC.Q P K K U l.h.l.h.l.h.l.l.l.z.l.l.h.l.l.h.z.h.h.h.h.&.* , , , , , , , , & : 7 V.h.l.l.l.h.z.l.l.h.l.l.h.z.l.h.l.l.l.l.l.l.l.l.l.l.l.h.z.z.h.N.1 , , , , , , , :   l.h.h.l.l.7.1.oXoXoXoXoXoX",
"oXoXoXoXoX1.R ^ K K U l.h.l.l.l.l.l.l.h.h.l.l.l.l.h.h.l.l.z.l.z.F * * , , , , , , & , % r g.l.h.l.l.l.l.l.l.l.l.l.h.l.l.h.l.l.l.h.h.z.h.l.h.l.l.h.h.h.h.4.8 % , , , , , , : r g.h.l.l.l.8.1.oXoXoXoXoXoX",
"oXoXoXoXoX1.W P ~ K U h.h.h.h.h.h.h.h.z.h.h.l.l.l.l.l.l.l.h.l.z.A : , , , , , , , * , :   l.h.h.l.l.l.l.l.l.l.l.l.l.l.l.h.h.h.h.l.l.l.l.h.l.l.l.h.z.l.l.8.w : , , , , , & , q g.h.h.h.h.8.C.oXoXoXoXoXoX",
"oXoXoXoXoXC.o.^ ~ K I z.h.h.h.h.x.h.h.h.h.h.h.h.h.h.x.h.h.h.l.l.N : , , , , , * , & , : m z.h.h.h.l.h.l.h.h.h.h.h.h.l.l.h.h.h.h.h.x.h.h.h.h.h.h.h.h.h.h.k.. : : * , , , & > 8 4.l.h.h.h.7.1.oXoXoXoXoXoX",
"oXoXoXoXoXC.W ~ ~ K I l.l.l.h.h.l.l.l.l.h.h.l.l.l.h.l.l.l.l.l.z.+ : , , , , , , , & , > N h.h.h.h.h.h.l.h.h.h.h.h.h.h.z.l.l.h.h.h.h.l.l.z.h.h.l.h.l.l.l.l.X : , , , , , , > 7 4.l.l.l.h.8.C.oXoXoXoXoXoX",
"oXoXoXoXoXC.W ^ K K Y l.h.l.h.h.l.l.l.l.l.h.z.l.h.h.z.l.h.l.l.l.+ : , , , * & & , & & & S z.h.h.h.h.h.z.h.h.z.h.h.h.h.h.l.l.l.z.z.h.l.l.l.h.h.h.h.z.l.l.l.O : % * * , * & > 7 S.l.l.l.l.8.C.oXoXoXoXoXoX",
"oXoXoXoXoX2.W P ^ P U j.j.j.j.j.j.j.j.j.j.j.j.j.j.j.j.j.h.j.j.j.+ , , , , , 2 * , , , , F b.j.j.j.h.j.h.j.j.j.h.j.j.j.j.j.j.j.j.j.j.j.j.j.j.j.j.j.j.j.j.j.+ , < , , 2 * * , 8 t.j.j.b.j.0.2.oXoXoXoXoXoX",
"oXoXoXoXoXl.7._ ( ( W P.P.P.I.P.I.P.P.I.P.P.I.P.I.P.P.I.I.I.I.I.Z 2 5 5 5 5 5 5 5 5 5 5 -.T.P.P.I.I.I.P.I.P.I.P.P.P.P.P.I.I.P.I.P.P.I.P.P.I.P.I.I.P.I.I.I.Z 5 5 5 5 5 5 5 5 a v.P.P.P.P.d.l.oXoXoXoXoXoX",
"oXoXoXoXoXz.8. ._ ) W I.I.I.I.I.I.I.I.I.I.I.I.I.I.I.I.I.I.I.I.I.B 2 2 5 5 6 5 5 5 5 5 5 #.I.I.I.I.I.I.I.I.I.I.I.I.I.I.I.I.I.I.I.I.I.I.I.I.I.I.I.I.I.I.I.I.C < 5 5 5 5 5 5 5 s c.I.I.I.I.f.z.oXoXoXoXoXoX",
"oXoXoXoXoXl.8._ _ ) ! I.I.I.I.I.I.I.I.I.I.I.I.I.I.I.I.I.I.I.I.I.@.2 5 5 5 5 5 5 5 5 5 5 @.I.I.I.I.I.I.I.I.I.I.I.I.I.I.I.I.I.I.I.P.I.I.I.I.I.I.I.I.I.I.I.R.$ < 5 5 5 5 5 5 < y c.I.I.I.I.Y.l.oXoXoXoXoXoX",
"oXoXoXoXoXl.7.U ` _ Q I.I.I.I.I.I.I.I.I.I.I.I.I.I.I.I.I.I.I.I.I.@.5 5 5 5 5 5 5 5 5 5 < B I.I.I.I.I.I.I.I.I.I.I.I.I.I.I.I.I.I.I.I.I.I.I.I.I.I.I.I.I.I.I.T.k < 5 5 5 5 5 5 5 i s.I.I.I.I.f.k.oXoXoXoXoXoX",
"oXoXoXoXoXh.8._ _ ` ! I.I.I.I.I.I.I.I.I.I.I.I.I.I.I.I.I.T.I.I.I.#.5 5 6 5 5 5 5 5 5 6 5 l R.I.I.I.I.I.I.I.T.I.I.I.I.I.I.I.I.I.I.I.I.I.I.I.I.I.I.I.I.I.I.L.h < 5 6 5 5 5 5 5 p U.I.I.I.I.Y.z.oXoXoXoXoXoX",
"oXoXoXoXoXh.8. ._ _ Q P.I.I.I.I.I.I.I.I.I.I.I.I.I.I.I.I.I.I.I.I.=.5 5 5 5 5 5 5 5 5 5 < h U.I.I.I.I.I.I.I.I.I.I.I.I.I.I.I.I.I.I.T.I.I.I.I.I.I.I.I.I.I.I.L.e 5 5 5 5 5 5 5 5 j R.I.I.I.I.f.l.oXoXoXoXoXoX",
"oXoXoXoXoXl.9. ._ ` Q P.I.P.I.I.I.I.I.I.I.I.I.I.I.I.I.I.I.I.I.I.,.6 5 5 5 6 5 5 5 5 5 5 d i.I.I.I.I.I.I.I.I.I.I.I.I.I.I.I.I.I.I.I.I.I.I.I.I.I.I.I.I.I.I.y.a 5 5 5 5 5 5 5 < l P.I.I.I.I.f.l.oXoXoXoXoXoX",
"oXoXoXoXoXh.l...( ( W I.I.I.I.I.I.I.I.I.I.I.I.I.I.I.I.I.I.I.I.I.y.a 5 5 5 5 5 5 5 5 5 5 3 e.I.I.I.I.I.I.I.I.I.I.I.I.I.I.I.I.I.I.I.I.I.I.I.I.I.I.I.I.I.I.O.3 5 5 5 5 5 5 6 2 @.R.I.I.I.I.f.l.oXoXoXoXoXoX",
"oXoXoXoXoXoXl.1.) ( 3.I.I.I.I.I.I.I.I.I.I.I.I.I.I.I.I.I.I.I.I.I.L.y 2 5 5 5 6 5 5 5 6 5 5 -.I.I.I.I.I.I.I.I.I.I.I.I.I.I.I.I.I.I.I.I.I.I.I.I.I.I.I.I.I.I.-.5 5 5 6 5 5 5 5 5 +.T.I.I.I.I.d.k.oXoXoXoXoXoX",
"oXoXoXoXoXoXx.l.6.6.p.I.I.I.I.I.I.I.I.I.I.I.I.I.I.I.I.I.I.I.I.I.U.k 2 5 5 5 5 5 5 5 5 5 < l T.I.I.T.I.I.I.I.I.I.I.I.I.I.I.I.I.I.I.I.I.I.I.I.I.I.I.I.I.I.B 2 5 5 5 5 5 5 5 6 :.I.I.I.I.I.d.l.oXoXoXoXoXoX",
"oXoXoXoXoXoXl.l.d.I.I.I.P.P.Y.Y.Y.Y.P.P.P.I.I.I.I.I.I.I.I.I.I.I.T.@.2 5 5 6 5 5 5 5 5 5 < i L.I.Y.f.Y.T.f.f.f.f.Y.f.f.f.f.f.f.Y.f.f.f.f.Y.f.f.f.R.I.I.U.j 5 5 5 5 5 5 5 5 4 r.I.I.I.I.I.b.z.oXoXoXoXoXoX",
"oXoXoXoXoXoXl.l.j.I.I.I.R.I.P.R.f.f.d.b.d.d.d.Y.Y.I.I.I.I.I.I.I.T.,.5 < 5 5 5 6 5 5 5 5 5 3 q.I.Y.f.P.f.f.f.Y.Y.f.Y.f.f.f.Y.f.f.Y.f.f.Y.f.Y.f.Y.Y.I.I.u.d 2 5 5 5 5 5 5 2 i L.I.I.I.I.Y.3.oXoXoXoXoXoXoX",
"oXoXoXoXoXoXl.l.z.E.W.T.I.I.I.I.I.I.I.R.Y.f.d.b.d.j.d.Y.P.I.I.I.T.L.y < 5 5 5 5 5 5 5 5 5 4 =.I.I.I.I.I.I.I.I.I.I.I.I.I.I.I.I.I.I.I.I.I.I.I.I.I.I.I.I.e.d 2 2 5 5 5 5 5 2 # R.I.I.I.I.! c oXoXoXoXoXoXoX",
"oXoXoXoXoXoXoXl.G.`.|.].Q.T.I.I.I.I.I.I.I.I.I.I.P.R.f.f.f.f.Y.I.I.I.@.< 5 5 5 5 2 2 4 j +.r.L.w.*.*.*.*.=.*.*.*.=.*.*.*.*.i.i.*.*.*.*.*.*.*.*.*.*.*.O.L.r.@.s 2 5 5 5 5 5 ;.I.I.I.I.f.P x oXoXoXoXoXoXoX",
"oXoXoXoXoXoXoXl.H.'. X X|./.I.I.I.I.I.I.I.I.I.I.I.I.I.I.I.I.P.P.I.I.w.4 5 5 5 4 j @.r.U.L.:.k 4 5 5 5 5 5 5 5 5 5 5 5 5 5 *.=.5 5 5 6 5 5 5 5 5 5 5 6 j =.L.c.-.h 4 2 2 d i.I.I.I.I.p.v x oXoXoXoXoXoXoX",
"oXoXoXoXoXoXoXoXk.(.[. X X`.T.I.I.P.I.P.I.I.I.I.I.R.I.I.I.I.I.I.I.I.R.@.4 f @.w.U.I.i.#.h 5 2 5 5 5 5 5 5 5 5 5 5 5 5 5 5 =.=.5 5 5 5 5 5 5 5 5 5 5 5 5 6 h *.L.U.O.# d V T.I.I.I.I.6.x x oXoXoXoXoXoXoX",
"oXoXoXoXoXoXoXoXl.G.J.~.).H.I.I.I.I.I.I.I.I.I.I.I.I.I.I.I.I.I.I.I.I.R.L.w.L.I.R.e.# d 2 2 2 2 5 2 2 5 2 2 2 5 2 2 2 2 2 2 *.=.5 2 5 2 5 2 2 2 5 2 2 2 2 2 < 5 p -.L.R.y.c.I.P.Y.f.b.2.v oXoXoXoXoXoXoXoX",
"oXoXoXoXoXoXoXoXoXl.l.7.8.j.f.f.f.Y.Y.Y.Y.P.R.Y.P.Y.P.P.R.P.P.R.Y.Y.R.R.Y.Y.v.@.j p p f u f f f f f f u f f f f f f f f f >.>.g f f f f f f f f f f f f f f f u f C e.Y.f.b.b.h.l.l.oXoXoXoXoXoXoXoXoXoX",
"oXoXoXoXoXoXoXoXoXoXoXz.x.h.x.h.j.h.j.j.j.j.j.j.j.j.j.z.h.j.h.j.h.j.j.h.l.2.o.| D.g.g.g.8.S.5.G.g.g.g.g.g.g.g.g.g.g.g.g.g.k.k.g.g.g.g.g.g.g.g.g.g.g.g.g.g.g.g.g.g.4.g.l.l.l.l.oXoXoXoXoXoXoXoXoXoXoXoXoX",
"oXoXoXoXoXoXoXoXoXoXoXoXoXoXoXoXoXoXoXoXoXoXoXoXoXoXoXoXoXoXoXoXoXoXoXoXoX) _ _ oXoXoXoXoXoXoXoXoXoXoXoXoXoXoXoXoXoXoXoXoXoXoXoXoXoXoXoXoXoXoXoXoXoXoXoXoXoXoXoXoXoXoXoXoXoXoXoXoXoXoXoXoXoXoXoXoXoXoXoX",
"oXoXoXoXoXoXoXoXoXoXoXoXoXoXoXoXoXoXoXoXoXoXoXoXoXoXoXoXoXoXoXoXoXoXoXoXoX) _ _ oXoXoXoXoXoXoXoXoXoXoXoXoXoXoXoXoXoXoXoXoXoXoXoXoXoXoXoXoXoXoXoXoXoXoXoXoXoXoXoXoXoXoXoXoXoXoXoXoXoXoXoXoXoXoXoXoXoXoXoX",
"oXoXoXoXoXoXoXoXoXoXoXoXoXoXoXoXoXoXoXoXoXoXoXoXoXoXoXoXoXoXoXoXoXoXoXoXoX( _ _ oXoXoXoXoXoXoXoXoXoXoXoXoXoXoXoXoXoXoXoXoXoXoXoXoXoXoXoXoXoXoXoXoXoXoXoXoXoXoXoXoXoXoXoXoXoXoXoXoXoXoXoXoXoXoXoXoXoXoXoX",
"oXoXoXoXoXoXoXoXoXoXoXoXoXoXoXoXoXoXoXoXoXoXoXoXoXoXoXoXoXoXoXoXoXoXoXoXoX_ _ _ oXoXoXoXoXoXoXoXoXoXoXoXoXoXoXoXoXoXoXoXoXoXoXoXoXoXoXoXoXoXoXoXoXoXoXoXoXoXoXoXoXoXoXoXoXoXoXoXoXoXoXoXoXoXoXoXoXoXoXoX",
"oXoXoXoXoXoXoXoXoXoXoXoXoXoXoXoXoXoXoXoXoXoXoXoXoXoXoXoXoXoXoXoXoXoXoXoXoX) ) ) oXoXoXoXoXoXoXoXoXoXoXoXoXoXoXoXoXoXoXoXoXoXoXoXoXoXoXoXoXoXoXoXoXoXoXoXoXoXoXoXoXoXoXoXoXoXoXoXoXoXoXoXoXoXoXoXoXoXoXoX",
"oXoXoXoXoXoXoXoXoXoXoXoXoXoXoXoXoXoXoXoXoXoXoXoXoXoXoXoXoXoXoXoXoXoXoXoXoXoXoX) oXoXoXoXoXoXoXoXoXoXoXoXoXoXoXoXoXoXoXoXoXoXoXoXoXoXoXoXoXoXoXoXoXoXoXoXoXoXoXoXoXoXoXoXoXoXoXoXoXoXoXoXoXoXoXoXoXoXoXoX"
};
