/* XPM */
static char *result[] = {
/* columns rows colors chars-per-pixel */
"50 100 177 2 ",
"   c #5C0000",
".  c #650302",
"X  c #6D0501",
"o  c #6D0A0C",
"O  c #6F0708",
"+  c #710502",
"@  c #720805",
"#  c #7E0C07",
"$  c #7E0708",
"%  c #740B0B",
"&  c #7C0C0A",
"*  c #7D0607",
"=  c #6C0E12",
"-  c #7C0F11",
";  c #7E1D23",
":  c #4C2E3F",
">  c #5D2E3D",
",  c #572B39",
"<  c #58303F",
"1  c #77262F",
"2  c #632E3C",
"3  c #6D2D39",
"4  c #742B36",
"5  c #7D2A34",
"6  c #702C38",
"7  c #7D343E",
"8  c #2C374E",
"9  c #27384F",
"0  c #29384F",
"q  c #3F3447",
"w  c #32364B",
"e  c #3B3549",
"r  c #273950",
"t  c #2A3950",
"y  c #353F57",
"u  c #3C3F56",
"i  c #492F40",
"p  c #443346",
"a  c #4A3344",
"s  c #533141",
"d  c #553C4F",
"f  c #5A3C4D",
"g  c #433E54",
"h  c #4B3E52",
"j  c #513D50",
"k  c #6B3947",
"l  c #633A4A",
"z  c #6A3948",
"x  c #733744",
"c  c #7B3642",
"v  c #753844",
"b  c #2F425B",
"n  c #3E4057",
"m  c #32425B",
"M  c #394158",
"N  c #404056",
"B  c #8A0A07",
"V  c #810E0E",
"C  c #890A07",
"Z  c #8B120F",
"A  c #8A1415",
"S  c #8D1719",
"D  c #841B1F",
"F  c #8C191B",
"G  c #961410",
"H  c #951A1C",
"J  c #9B1C1D",
"K  c #9A1717",
"L  c #A41D1E",
"P  c #AB1E1D",
"I  c #A71A17",
"U  c #B21E1B",
"Y  c #9D231E",
"T  c #A0241E",
"R  c #B83D1E",
"E  c #891B20",
"W  c #9F1E20",
"Q  c #A31F21",
"!  c #AA1F21",
"~  c #B11F21",
"^  c #8D262D",
"/  c #8C282F",
"(  c #94272D",
")  c #9C252A",
"_  c #91282E",
"`  c #9A2225",
"'  c #832932",
"]  c #892931",
"[  c #9C2F35",
"{  c #85343E",
"}  c #8C343C",
"|  c #9C3137",
" . c #94323A",
".. c #9A3238",
"X. c #A62123",
"o. c #AE2324",
"O. c #AC2A27",
"+. c #A22529",
"@. c #AD2C2B",
"#. c #B12324",
"$. c #BC2525",
"%. c #B42B25",
"&. c #B42D2E",
"*. c #BD2C2B",
"=. c #AB3B28",
"-. c #BC3123",
";. c #BA3528",
":. c #AC2F31",
">. c #A22F33",
",. c #B02E30",
"<. c #A53034",
"1. c #A83032",
"2. c #CD171E",
"3. c #D4171D",
"4. c #D7181E",
"5. c #C52724",
"6. c #CB2724",
"7. c #C42927",
"8. c #CE2925",
"9. c #C32B29",
"0. c #C82A28",
"q. c #D12925",
"w. c #C93E21",
"e. c #BD4F3B",
"r. c #BB5838",
"t. c #C34B1D",
"y. c #D95A1F",
"u. c #D7681C",
"i. c #E47B1D",
"p. c #CC4A20",
"a. c #D95A27",
"s. c #D24534",
"d. c #CE5D37",
"f. c #D7543D",
"g. c #D77434",
"h. c #813540",
"j. c #C35D44",
"k. c #C66748",
"l. c #C87644",
"z. c #DC724B",
"x. c #DA7446",
"c. c #ED881F",
"v. c #EA8C36",
"b. c #F29B32",
"n. c #EA892A",
"m. c #F3A22C",
"M. c #DB864C",
"N. c #DF8256",
"B. c #D58552",
"V. c #DD9D5C",
"C. c #EC9345",
"Z. c #E18355",
"A. c #E49F58",
"S. c #F2A344",
"D. c #F8BE4A",
"F. c #EAA95C",
"G. c #DA9A64",
"H. c #E3AF70",
"J. c #E9B874",
"K. c #E9A86B",
"L. c #F9C854",
"P. c #F9CD67",
"I. c #FAD86C",
"U. c #EDCD7F",
"Y. c #EFC278",
"T. c #F7CD70",
"R. c #F6D376",
"E. c #FADE7B",
"W. c #F7D87E",
"Q. c #F7DF89",
"!. c #FAEC8D",
"~. c #FCE984",
"^. c #FDF18F",
"/. c #FAEE91",
"(. c #FDF594",
"). c #FEF996",
"_. c None",
/* pixels */
"_._._._._._._._._._._._._._._._._._._._._._._._._._._._._._._._._._._._._._._._._._._._._._._._._._.",
"_._._._._._._._._._._._._._._._._._._._._._._.T P J H _._._._._._._._._._._._._._._._._._._._._._._.",
"_._._._._._._._._._._._._._.o.! ! o.! ~ o.P L K H A A S F W W H H H F F _._._._._._._._._._._._._._.",
"_._._._._._._._._._._.o.o.! #.#.o.#.o.K Z V V V # % O O % % A H W H W H H H H _._._._._._._._._._._.",
"_._._._._._._._._.! ! o.%.$.#.o.#.$.! K I I ! ~ P J H K A A A H W J H H ` Y H H H _._._._._._._._._.",
"_._._._._._._._.~ #.%.p.u.w.$.#.5.6.5.5.6.8.8.q.5.#.o.o.o.Q P T o.W Y T t.u.R Y H H _._._._._._._._.",
"_._._._._._._.! #.-.a.c.m.a.7.#.7.8.q.q.8.6.q.q.5.#.#.#.#.#.#.o.o.Q H X.g.m.i.t.T J H _._._._._._._.",
"_._._._._._.P o.-.a.b.L.I.z.7.#.6.8.8.8.8.q.0.q.6.#.#.o.o.o.o.#.o.X.Y X.V.I.D.n.t.` H _._._._._._._.",
"_._._._._._.! o.a.S.I.~.(.N.9.%.6.8.8.q.8.8.0.q.0.#.#.o.o.o.o.#.o.X.J @.H.(.~.P.v.;.Y F _._._._._._.",
"_._._._._._.! w.C.E.(.).(.z.$.$.8.8.8.8.8.8.q.q.0.#.#.#.#.o.%.o.o.X.J O.H.(.(./.P.g.Y S _._._._._._.",
"_._._._._._.o.d.T.).(.(./.z.$.$.8.8.8.q.8.8.8.q.0.#.o.o.o.#.#.#.o.o.T O.G./.(.(.^.F.=.H _._._._._._.",
"_._._._._._.o.M.E.).).(.J.s.$.7.8.8.8.8.8.8.q.8.6.#.#.#.o.#.o.#.#.o.Q Q j.Q.(.(.).R.r.H _._._._._._.",
"_._._._._._.%.V.~./.Q.K.j.q.~ 6.6.8.8.q.8.8.8.8.7.#.#.o.o.#.#.#.o.! Q Q &.k.J./.^.E.g.E _._._._._._.",
"_._._._._._.;.F.Q.Q.N.w.q.q.5.6.8.8.6.q.8.8.8.8.5.#.o.#.#.#.o.o.#.#.Q Q #.o.e.G.U.R.l.J _._._._._._.",
"_._._._._._.*.z.z.j.8.8.8.6.~ 8.8.8.8.8.8.8.5.5.$.o.o.o.#.o.#.o.#.#.! Q #.#.! @.k.B.r.J _._._._._._.",
"_._._._._._.#.q.q.4.8.8.8.6.5.8.8.8.8.8.8.6.5.5.#.Q Q Q X.o.o.#.o.o.! Q #.#.#.o.X.#.T J _._._._._._.",
"_._._._._._.#.6.q.8.q.8.q.5.-.8.q.8.8.8.8.6.6.6.5.o.o.X.o.#.o.o.#.#.X.P #.o.o.#.o.o.! H _._._._._._.",
"_._._._._._.#.6.8.8.8.q.8.6.0.8.q.q.8.8.6.5.-.$.#.Q Q Q ! o.~ o.o.#.o.X.o.#.o.o.#.o.! H _._._._._._.",
"_._._._._._.$.6.8.8.8.8.8.8.0.8.6.8.q.5.$.$.$.$.#.Q W W Q Q o.#.o.#.#.X.o.o.o.o.#.o.X.J _._._._._._.",
"_._._._._._.#.6.8.8.q.8.8.6.6.8.8.8.6.6.0.6.6.5.$.o.o.o.X.X.o.o.#.o.#.X.o.o.%.o.#.o.Q J _._._._._._.",
"_._._._._._.#.8.8.q.8.8.8.8.8.8.8.8.8.0.7.$.$.#.o.W J J Q ! ! $.o.#.o.o.o.o.#.#.#.o.X.J _._._._._._.",
"_._._._._._.#.6.8.8.8.8.8.8.8.8.8.6.7.$.#.$.$.$.$.Q W W W J Q T o.o.o.o.o.#.o.#.#.o.Q J _._._._._._.",
"_._._._._._.$.6.8.q.8.8.8.8.8.8.8.6.5.6.6.6.6.8.5.#.o.o.o.o.X.o.o.o.#.o.o.o.o.#.#.#.X.J _._._._._._.",
"_._._._._._.#.6.8.8.q.8.8.8.8.8.8.8.8.8.8.q.8.q.5.#.o.o.o.o.o.o.o.#.o.#.#.#.#.o.#.#.X.K _._._._._._.",
"_._._._._._.$.6.8.8.8.q.q.q.8.q.8.8.8.8.8.8.8.8.0.#.#.o.o.#.o.#.o.#.#.#.#.o.#.#.#.o.X.H _._._._._._.",
"_._._._._._.#.6.8.8.q.8.8.8.8.8.8.8.8.8.8.8.8.8.5.%.#.o.o.#.o.#.#.o.o.#.o.#.o.#.#.o.X.J _._._._._._.",
"_._._._._._.#.6.8.q.8.8.8.8.8.q.8.8.q.q.q.q.q.q.6.#.#.#.#.#.#.o.#.o.#.o.#.o.O.#.#.#.Q H _._._._._._.",
"_._._._._._.$.6.8.8.8.8.8.q.q.q.q.8.0.9.9.*.&.,.@.) ) ) ) +.X.O.o.#.#.U #.o.#.#.o.o.! K _._._._._._.",
"_._._._._._.$.5.8.8.q.q.q.9.&.<. .{ c v k l l l f s s s s < 2 3 6 ' / +.O.o.#.#.#.o.X.J _._._._._._.",
"_._._._._._.#.6.q.q.0.&. .v k N g u M m m m b m b 0 r 9 0 8 8 8 w e a s 2 ' ( o.#.#.X.J _._._._._._.",
"_._._._._._.$.6.9.,.h.N N m m b m m m m m m m m b 0 9 0 t t t r t r 9 9 8 e s 6 ( o.X.H _._._._._._.",
"_._._._._._.#.6.<.N M m m m m m m m m m m m m m y 9 0 0 t 8 0 0 t 0 8 9 9 9 9 w < ) X.H _._._._._._.",
"_._.. X X & ! 6.<.N m m m m m m M m m m m m m m y t 0 0 t t t t t t t 8 t 0 t r p ) ! A         _._.",
"_.X X X X @ J *.&.N m m m m m m m m m m m m m m b t 0 0 t t t t t t t t t 0 0 8 s X.` -           _.",
"X X X X X + D [ 0.v m m m m m m m m m m m m m m y r t 0 t t t t t t t t 0 0 0 w 5 +.1 o           _.",
". . . X X @ ; x 9...N m m m m m m m m m m m m m b t 8 t t t t t t t t t 0 r 0 p ) / , =           _.",
"_._._._._._._ d <.,.N M m m m m m m m m m m m m y t r 0 0 t t 0 t t t 0 t 9 8 2 +.3 i E _._._._._._.",
"_._._._._._.( g v 9.c M m m m m m m m m m m m m b r 0 r r 0 0 0 t 0 8 0 9 9 w ' ) p i E _._._._._._.",
"_._._._._._.[ N N &.<.N m m m m m m m m m m m y y 8 0 0 0 0 0 0 0 0 0 0 0 0 p ) 5 w a E _._._._._._.",
"_._._._._._.( N N h.9.N m m m M m m M N g j j j d a p p q e w 8 0 0 0 0 0 8 2 ) s t i E _._._._._._.",
"_._._._._._._ N m f &.c m M n N l v h.<.:.,.9.*.&.+.) ` ( ] 5 3 > a e w 8 e ' ] e 0 i E _._._._._._.",
"_._._._._._.( N m N ..1.z c ..,.9.0.0.q.0.q.0.0.6.#.#.o.#.o.o.o.o.) _ 5 2 s ) 2 8 0 i E _._._._._._.",
"_._._._._._._ N m m z *.9.9.8.8.q.0.q.0.q.0.q.q.5.#.#.o.#.#.o.o.#.o.o.o.+.+._ p 0 0 i E _._._._._._.",
"_._._._._._.( N m M N ,.8.8.q.8.q.q.q.q.q.q.q.q.6.#.o.o.o.o.#.o.#.#.o.o.#.#.5 w 0 0 i E _._._._._._.",
"_._._._._._.( N m m N 1.8.8.8.8.q.8.0.0.0.0.0.q.$.o.o.o.o.#.#.#.o.o.#.o.#.#.6 8 0 0 i E _._._._._._.",
"_._._._._._._ g m m N 1.8.8.8.8.1.c c v v v v v x k 2 > s 3 s s 3 +.o.#.#.o.3 8 t r i E _._._._._._.",
"_._._._._._._ g m m N 1.8.8.8.0.c M m M M M M M y 8 8 w w w w w e ' o.o.o.o.2 8 t 0 i E _._._._._._.",
"_._._._._._._ g m m N 1.8.q.0.9.l m m m m m m m y t 0 t t 8 t t 0 3 #.o.#.o.3 8 t 0 i E _._._._._._.",
"_._._._._._._ g m m n 1.8.8.8.*.l M m m m m m m m t t t t t 8 t 9 2 o.o.#.#.3 8 t 0 i E _._._._._._.",
"_._._._._._._ g m m n 1.8.8.8.*.N m m m m m m m m m t t t t t t 9 k o.o.o.#.3 8 t 0 i E _._._._._._.",
"_._._._._._._ g m m n 1.8.8.8.*.l M m m m m m m y t t t t t t t 9 2 o.o.o.o.3 t t t i E _._._._._._.",
"_._._._._._._ g m m N 1.8.q.8.*.N m m m m m m m m t t t t t t t 8 2 O.#.o.o.6 8 r 0 i E _._._._._._.",
"_._._._._._._ g m m n 1.8.q.8.*.j m m m m m m m y r 9 9 t t t t 8 2 X.#.o.o.3 t t 0 i E _._._._._._.",
"_._._._._._._ g m m n 1.8.q.8.$.f m m m m m m m y t 9 t t t t t 8 2 o.o.o.o.3 t t 0 i E _._._._._._.",
"_._._._._._._ g m m N 1.8.q.8.*.j m m m m m m m b r r t t t t t 9 2 o.o.#.o.3 8 t 0 i E _._._._._._.",
"_._._._._._._ g m m u 1.8.q.8.*.j m m m m m m m y r r t t t t t 9 2 o.o.o.o.6 9 t 0 i E _._._._._._.",
"_._._._._._./ g m m n 1.8.8.8.*.d m m m m m m m y t 8 9 t t t t 8 2 o.o.o.o.3 t r 0 i E _._._._._._.",
"_._._._._._._ g m m n <.8.8.8.9.l m m m m m m m m t 9 9 r t r t w 6 o.#.o.o.6 t t 0 i E _._._._._._.",
"_._._._._._._ g m m g 1.8.q.8.6.<.l N N n N N M y 8 8 8 w 8 e p 2 ) o.o.#.o.3 t t 0 i E _._._._._._.",
"_._._._._._._ g m m n 1.8.8.8.8.q.9.,...h.h.h.h.c 3 3 3 4 5 ] ( +.#.o.o.#.#.3 8 0 0 i E _._._._._._.",
"_._._._._._._ g m m n <.8.q.8.8.8.8.8.8.8.6.8.0.7.o.o.o.o.o.o.o.o.#.o.o.o.o.3 t t 0 i E _._._._._._.",
"_._._._._._._ g m m n 1.8.8.8.8.8.8.q.q.8.q.8.8.5.#.o.o.#.#.o.#.#.#.#.#.#.o.6 t t r i E _._._._._._.",
"_._._._._._._ g m m N 1.8.q.q.8.8.8.8.8.8.8.8.8.6.#.o.o.#.o.o.#.#.o.o.#.#.o.3 8 t t a E _._._._._._.",
"_._._._._._._ g m m N 1.8.8.8.q.8.8.q.8.q.8.8.8.7.#.#.#.o.#.#.@.#.#.#.#.#.#.3 t t 0 a E _._._._._._.",
"_._._._._._._ g m m N <.q.q.q.q.q.8.8.8.q.q.q.q.0.&.#.o.o.#.#.#.+.#.#.#.#.o.3 8 0 0 i E _._._._._._.",
"_._._._._._._ g m m N :.0.q.q.q.8.8.8.8.0.q.q.0.0.&.#.#.o.#.#.@.#.#.#.#.~ @.3 0 0 0 i E _._._._._._.",
"_._._._._._._ g m m N &.8.q.8.q.q.8.q.8.q.q.q.8.6.#.#.o.o.#.#.#.#.#.#.#.#.#.5 w 0 0 i E _._._._._._.",
"_._._._._._._ g N N <.0.8.8.8.8.0.8.8.q.q.0.q.8.6.~ #.o.o.#.o.o.#.#.#.#.#.#.) 3 w 0 i E _._._._._._.",
"_._._._._._._ g N <.0.q.q.q.q.q.q.q.q.8.8.8.8.8.0.#.o.~ @.#.#.#.#.#.#.~ #.#.~ +.6 e i E _._._._._._.",
"_._._._._._._ k <.0.q.&.h.| &.9.8.q.q.q.q.q.q.q.0.#.#.#.~ #.#.~ #.#.) ( ' 5 +.#.X.4 2 E _._._._._._.",
"_._._._._._.+.@.0.q.,.z N f l h.h.:.,.*.9.9.0.8.9.~ ! Q +.+.( / ' 6 s s e e 3 W ~ +./ E _._._._._._.",
"_._._._._._.$.8.q.:.z M m m m m N N f z v v h.h.h.4 6 6 x s s a p w 8 r t t w 3 ) #.! H _._._._._._.",
"_._._._._._.#.6.1.l M m m m m m b m m m m m m m u w 8 8 8 9 9 t r t t t t t 9 w 2 ` Q H _._._._._._.",
"_._._._._._.#.>.f m m m m m m m m m m m m m m m b t r r 9 9 t 8 0 t t t t 0 9 0 w 2 ( H _._._._._._.",
"_._._._._._.X.x m m m m m m m m m m m m m m m m y r r t t t t t t t 0 0 t 0 0 0 0 w 1 H _._._._._._.",
"_._._._._._.o.[ f M m b m m m m m m m m m m m m y r t t t t t t t 0 0 0 t r 0 9 e s ^ H _._._._._._.",
"_._._._._._.#.6.,.v N M m m m m m m m m m m m m y t t 8 t 9 8 t t t t 0 0 8 8 p 3 ) ! H _._._._._._.",
"_._._._._._.#.6.q.9...l N M m m m m m m m m m m y t 9 9 9 9 9 9 t t 0 9 w i s ] #.o.Q H _._._._._._.",
"_._._._._._.#.6.8.q.8.9.<.v j N M M m m m m m m y r 9 9 9 9 8 t 8 w e i 3 / o.#.o.#.! H _._._._._._.",
"_._._._._._.$.5.8.8.8.8.8.9.&...c z N N u u y y y t w 8 w e e a s 3 ] ) o.#.o.o.#.o.! H _._._._._._.",
"_._._._._._.#.6.8.8.8.8.q.8.8.8.0.9.,.1...h.h.h.h.c x 1 5 ] _ ) +.o.#.#.o.o.#.o.o.#.X.J _._._._._._.",
"_._._._._._.~ 6.8.8.8.8.8.8.8.q.8.8.0.q.0.0.s.q.7.~ @.o.! ! o.~ o.o.#.o.o.#.#.@.#.o.Q K _._._._._._.",
"_._._._._._.$.5.q.8.q.8.8.q.8.8.q.q.q.q.q.q.q.q.6.~ #.o.#.~ o.#.#.#.#.@.#.o.#.o.o.o.X.H _._._._._._.",
"_._._._._._.#.6.8.q.q.q.q.8.8.8.q.q.0.q.q.0.q.q.6.~ #.o.o.@.o.#.#.o.#.#.#.o.#.#.#.o.X.K _._._._._._.",
"_._._._._._.$.6.8.8.8.8.8.8.8.8.q.0.q.q.q.q.q.0.0.#.#.o.#.#.#.@.#.#.#.#.#.o.o.#.#.o.o.H _._._._._._.",
"_._._._._._.#.6.8.q.8.8.q.8.8.8.q.q.q.0.q.0.q.q.0.#.#.o.o.#.#.#.@.#.#.o.#.#.#.#.#.o.Q K _._._._._._.",
"_._._._._._.&.0.q.q.8.8.8.q.8.q.q.0.q.q.q.q.q.0.7.~ o.o.#.o.#.#.#.#.o.#.#.@.o.#.#.o.X.H _._._._._._.",
"_._._._._._.#.9.q.8.q.8.q.8.q.8.q.q.q.q.0.q.q.q.0.#.~ ~ ,.#.#.o.o.#.#.#.#.#.#.#.#.o.T K _._._._._._.",
"_._._._._._.#.5.8.8.q.8.8.8.8.8.8.q.8.8.6.q.q.8.0.~ o.o.#.#.#.@.#.#.o.#.#.@.o.o.#.o.Q H _._._._._._.",
"_._._._._._.U 7.8.6.6.8.8.8.8.8.8.8.8.8.q.q.6.8.0.~ ~ ~ @.~ o.~ #.o.o.#.#.o.o.o.o.o.W H _._._._._._.",
"_._._._._._.~ 7.6.7.$.$.0.q.q.8.q.q.8.q.q.q.q.q.0.$.~ @.~ @.#.#.#.#.#.#.o.X.Q W ! o.W H _._._._._._.",
"_._._._._._.L ~ 5.~ ! P $.5.5.5.5.5.5.5.5.5.5.5.~ ~ Q ! ! Q ! ! ! Q X.Q X.J H H J Q H _._._._._._._.",
"_._._._._._.V Z G Z Z Z G G G G G G G G G G G G A A - V - V V - V V V V - - % % & - % O _._._._._._.",
"_._._._._.X X X X + X X X X X X X X X X X X X X X                                       _._._._._._.",
"_._._._._.X X + X X X + X X X + X X + X X + X X X                                         _._._._._.",
"_._._._._.X X X X X X X X X X X + X + X X X X X X       .                                 _._._._._.",
"_._._._._.X X X X X + + + X + X + X + X X + + + X                               .         _._._._._.",
"_._._._._._.X X + C B B C # # # # & # # # # & & & X O O X X O O . O . O O $ V * +       _._._._._._.",
"_._._._._._._._._._.4.4.2.P L L L L L L L L L L J H S S H S S S F F F F K 3.4.3._._._._._._._._._._.",
"_._._._._._._._._._._._._._._._._._._._._._._._._._._._._._._._._._._._._._._._._._._._._._._._._._."
};
