/* XPM */
static char *result[] = {
/* columns rows colors chars-per-pixel */
"100 50 176 2 ",
"   c #560201",
".  c #5C0000",
"X  c #660602",
"o  c #6D0501",
"O  c #6C090B",
"+  c #6E0608",
"@  c #730603",
"#  c #7A0A06",
"$  c #7C0708",
"%  c #740B0B",
"&  c #7C0C0B",
"*  c #740806",
"=  c #6F0D10",
"-  c #7A0F11",
";  c #512E3E",
":  c #5D2F3F",
">  c #5D303F",
",  c #642F3C",
"<  c #6E2E39",
"1  c #6C2A36",
"2  c #762C36",
"3  c #7D2B34",
"4  c #712D38",
"5  c #7D343F",
"6  c #2D374E",
"7  c #27384F",
"8  c #29384F",
"9  c #32374C",
"0  c #3B3549",
"q  c #3F3447",
"w  c #273950",
"e  c #293950",
"r  c #3F3F56",
"t  c #453345",
"y  c #483042",
"u  c #423448",
"i  c #553141",
"p  c #5B3040",
"a  c #543C4F",
"s  c #5C3C4D",
"d  c #463F54",
"f  c #4B3E53",
"g  c #523D51",
"h  c #633B4B",
"j  c #693A49",
"k  c #6F3947",
"l  c #7B3742",
"z  c #733845",
"x  c #783844",
"c  c #763541",
"v  c #2F425B",
"b  c #3D4057",
"n  c #32435C",
"m  c #3B4158",
"M  c #424056",
"N  c #484054",
"B  c #860E0B",
"V  c #8B0B08",
"C  c #870A07",
"Z  c #87100E",
"A  c #8C110E",
"S  c #90120D",
"D  c #810F10",
"F  c #8A1312",
"G  c #8F1A1E",
"H  c #85191B",
"J  c #931619",
"K  c #951A1C",
"L  c #9B1D1E",
"P  c #971511",
"I  c #A51D1E",
"U  c #AC1E1D",
"Y  c #A71A16",
"T  c #9B201E",
"R  c #B4201E",
"E  c #AD321E",
"W  c #BA3D1E",
"Q  c #801D22",
"!  c #9E1E20",
"~  c #A21F21",
"^  c #AC1F21",
"/  c #B01F22",
"(  c #8E282F",
")  c #8F252A",
"_  c #9E2326",
"`  c #97272C",
"'  c #9C262B",
"]  c #91282E",
"[  c #832A32",
"{  c #8B2930",
"}  c #86353E",
"|  c #8A353E",
" . c #9D3237",
".. c #95333A",
"X. c #9B3238",
"o. c #A52123",
"O. c #AD2324",
"+. c #A42529",
"@. c #A92529",
"#. c #B02425",
"$. c #BB2525",
"%. c #B52C25",
"&. c #B42E2F",
"*. c #BC2D2D",
"=. c #A83425",
"-. c #BD3223",
";. c #AD2F32",
":. c #A52F34",
">. c #B22E31",
",. c #A33136",
"<. c #AB3032",
"1. c #B73C31",
"2. c #DD191F",
"3. c #DD1920",
"4. c #D61920",
"5. c #E11A21",
"6. c #C32625",
"7. c #CC2724",
"8. c #C62826",
"9. c #CE2A26",
"0. c #C42B2A",
"q. c #C92B29",
"w. c #D12925",
"e. c #C93E22",
"r. c #D0332A",
"t. c #BC4C3A",
"y. c #BA5637",
"u. c #C5491F",
"i. c #C3511D",
"p. c #D5671D",
"a. c #E2721E",
"s. c #C84321",
"d. c #DA5724",
"f. c #D24233",
"g. c #CD5934",
"h. c #DD6E2F",
"j. c #D8742B",
"k. c #E06020",
"l. c #823640",
"z. c #C35D43",
"x. c #C97745",
"c. c #DD744D",
"v. c #DE794B",
"b. c #DE7A51",
"n. c #ED811D",
"m. c #F48F1C",
"M. c #F28A27",
"N. c #F69A27",
"B. c #F9A822",
"V. c #F4A13B",
"C. c #DC894D",
"Z. c #DF8255",
"A. c #D58352",
"S. c #EF9241",
"D. c #F8BB41",
"F. c #E9A75C",
"G. c #D79562",
"H. c #DFA568",
"J. c #EBAF6F",
"K. c #F1B862",
"L. c #E5B473",
"P. c #F9C74F",
"I. c #F9D365",
"U. c #EEC87D",
"Y. c #FBD877",
"T. c #FBE275",
"R. c #FDE37D",
"E. c #F3D282",
"W. c #FFE781",
"Q. c #FDEA86",
"!. c #F5E28B",
"~. c #FDED89",
"^. c #FEF695",
"/. c #FEF996",
"(. c #FFFB98",
"). c None",
/* pixels */
").).).).).).).).).).).).).).).).).).).).).).).).).).).).).).).).).).  ).).).).).).).).).).).).).).).).).).).).).).).).).).).).).).).).).).).).).).).).).).).).).).).).).).).).).).).).).).).).).).).).).",
").).).).).).).).).).).).).).).).).).).).).).).).).).).).).).).).).. .   ).).).).).).).).).).).).).).).).).).).).).).).).).).).).).).).).).).).).).).).).).).).).).).).).).).).).).).).).).).).).).).).).",
").).).).).).).).).).).).).).).).).).).).).).).).).).).).).).).).. . . . ).).).).).).).).).).).).).).).).).).).).).).).).).).).).).).).).).).).).).).).).).).).).).).).).).).).).).).).).).).).).).).).).",
").).).).).).).).).).).).).).).).).).).).).).).).).).).).).).).).  . . . ).).).).).).).).).).).).).).).).).).).).).).).).).).).).).).).).).).).).).).).).).).).).).).).).).).).).).).).).).).).).).).).).",
").).).).).).).).).).).).).).).).).).).).).).).).).).).).).).).).. . . . ).).).).).).).).).).).).).).).).).).).).).).).).).).).).).).).).).).).).).).).).).).).).).).).).).).).).).).).).).).).).).).).).",
").).).).).).).).).).).).).).).).).).).).).).).).).).).).).).).).  . .   ).).).).).).).).).).).).).).).).).).).).).).).).).).).).).).).).).).).).).).).).).).).).).).).).).).).).).).).).).).  . . ).).).",
").).).).).).).).K K J J J K J K K K K K K L K K L K K K L K K K H - O = K Q Q ! Q K G G G G G G K G K Q K K G G G G G G G G G G G G G K K G J J K K K K K K K K K K K K K K K K J J J ).X . . X . . ).).",
").).).).).).K K K L =.y.x.x.y.o.o.O.o.o.o.O.O.o.o.O.o.O.o.o.O.^ o.+.2 ; y y y y y y y y y y y y y y y y y y y y y y y y y y y y y y y y y y ] @.o._ 1 _ ^ o.o.o.^ O.o.o.^ o.~ ^ +.! ! ! % . . . .   ).).",
").).).).).K K L W h.K.Y.R.W.A.O.#.#.#.#.#.#.#.#.#.#.#.#.#.#.#.' _ O.O.` < q e w w w w w e e e e e e e e w e e e e w e e w e e w e w e 7 6 2 O.#.@.p e p @.#.#.#.#.#.#.#.#.#.%.#.#.#.#.O.& . . . . . ).).",
").).).).K K T i.M.Y.^.^./.!.t.#.#.#.#.#.#.#.#.#.#.#.#.#.O.#.+.y 0 > [ +.O.+.3 i 9 w e e 7 e e e e e e e e e e e e e e e e e e e e e e e 4 O.#.O., 6 7 6 2 #.#.#.#.#.O.#.#.#.#.#.@.#.O.o.% . . . . * ).).",
").).).).K K i.M.I.^.^.^.^.G.O.#.#.#.#.#.#.@.#.#.#.#.#.#.#.#.2 8 w w e q , [ +.@.( , 0 6 7 e e 7 e w e e e w e e e 8 e e e 8 e 8 e e 6 , O.#.@., 6 7 e 7 0 ` #.O.#.#.#.#.#.@.#.#.#.#._ K % . . . . $ 3.).",
").).).K K E m.V.^.^.^./.E.1.O.#.O.#.#.#.O.%.#.#.#.#.#.#.#.+.u w e e e e e 6 u , { +.' 3 < < < 4 < < < < < < < < < < < < < < < < < < [ @.#.O.< e e 7 7 7 7 , O.#.O.#.#.#.#.#.#.#.#.#.T K % . . . . $ 5.).",
").).).K L p.B.T.(.(.(.!.z.^ #.#.#.#.#.#.#.#.%.#.#.#.@.#.#.{ 6 e e e 6 e e e e e 6 i @.#.#.#.#.#.#.#.#.#.#.#.#.#.#.#.#.#.#.#.#.#.#.#.#.#.#.[ 9 e e e e e e 0 ` #.#.#.#.#.@.#.#.#.#.O.o.o.% . . . . $ 3.).",
").).).K _ i.j.H.L.L.H.z.^ #.#.#.#.O.O.O.#.O.O.#.#.#.#.#.#.< e e e e e e e e e 6 7 : O.#.#.#.#.#.#.#.#.#.#.O.#.#.#.#.#.O.#.#.#.#.#.#.#.#.#.( 9 7 e e e e 7 7 < #.#.#.#.#.#.#.#.#.#.O.#.O.& . X . . + L ).",
").).K T K ~ @.o.@.o.o.~ ~ o.~ ~ o.o.O.O.@.O.@.#.#.#.#.#.@.t 8 8 e e e e e e e e 6 3 #.#.#.#.#.#.#.#.#.#.#.#.#.#.#.O.#.#.O.#.#.#.#.O.#.#.#.@.t e e 6 e e e 7 t @.#.#.#.#.#.O.#.#.#.#.#.#.& . . . . + J ).",
").).K K K L L L ! L ! ~ ~ ~ ^ O.O.O.O.#.O.#.#.#.#.#.#.#.' 0 e 8 e e e e e e e e 9 ` #.#.#.#./ #.#.#.O.#.#.O.#.#.#.#.#.#.#.#.#.#.#.#.#.O.#.O.p e e e e e 6 e 6 ] O.#.#.#.#.%.@.#.#.#.#.O.% . . . . X K ).",
").).G T ! L o.o.@.O.O.O.#.#.#.#.#.#.#.#.#.O.#.O.#.#.O.#.{ 9 e e 6 e e e e e e 7 t @.#.#.#.+.[ 4 , , , , , , , , , < +.#.#.#.#.#.#.#.#.#.#.#.2 e e e e e e e 8 4 %.#.#.#.#.#.#.#.O.#.#.#.& . . . . + K ).",
").).! K _ o.O.#.#.#.#.#.#.O.#.#.@.#.#.#.#.#.O.#.#.#.#.#.3 e e e e e e 6 e e e 7 p O.#.#.#.4 6 e 8 w w w e 8 7 w w 7 > #.#.#.#.#.#.@.#.#.#.#.{ 6 e e e e e 8 e i O.#.@.#.#.#.#.#.#.#.#.O.& . . . . X K ).",
").).! K K O.#.#.#.#.O.#.#.#.#.#.#.#.#.O.#.o.o.#.#.#.#.#.< e e e e e e e e 6 e e 4 #.#.#.#., e e e e e e 8 8 8 v e e 0 ' #.#.#.#.#.#.#.#.#.#.' 0 e e e e e 8 7 u +.#.#.#.&.O.#.#.#.#.#.#.& . . . . + G ).",
").).K G & O.#.O.#.#.#.#.#.#.#.#.#.#.@.O.#.~ O.#.#.O.#.#.> e e e e e e e e e e e [ #.#.#.#., e e e e e e 8 8 8 6 e e 8 ( #.O.@.%.#.#.#.#.O.#.@.u e e e 6 e e 7 9 ' #.#.#.O.#.#.#.#.#.#.O.- . X . . + K ).",
").).! - D #.#.#.#.#.#.#.#.#.#.#.#.#.~ O.o.T #.#.#.#.#.O.i e e e 6 e e e e e e 9 ] #.#.#.#., e e e e e e e e e e 8 8 8 3 #.#.#.#.#.O.#.O.#.#.O.p e e e e e e w 6 { #.#.#.#.#.#.#.#.#.#.#.- . . . . + K ).",
").).K O F #.O.#.#.#.O.#.#.O.#.o.#.o.! O.~ T O.#.#.#.#.@.y e e 8 e e e 6 e 7 e 0 ' #.#.#.#., 7 e e e e e e e e e 8 8 8 2 #.#.#.O.#.#.#.#.#.#.#.p e e w e e e 6 6 3 #.#.#.#.#.@.#.#.O.#.O.& . . . . X K ).",
").).K X J #.#.#.O.#.O.#.#.#.O.I #.~ L O.L o.#.#.#.#.#.@.y e 8 8 e e e e 7 e 7 q +.#.O.#.O., 7 e e e e e 6 e e e 8 8 8 < #.#.#.#.O.#.#.O.O.#.#., e 6 e e e e 8 8 2 #.#.O.O.#.#.#.#.@.#.O.& . . . . + K ).",
").).J X L #.#.#.#.#.#.#.O.#.@.~ O.~ o.o.L I O.#.#.#.#.@.t e 8 8 e e e e 7 7 7 u @.#.#.#.$., 7 7 8 8 8 8 e e 8 8 8 8 8 < #.#.O.#.#.#.#.#.#.#./ 4 e e e 6 e e 8 8 4 #.#.#.#.#.#.#.#.#.#.#.& . . . . X K ).",
").K G X L #.#.#.#.#.#.#.#.#.O.o.#.I ~ O.L ~ #.#.#.#.$.+.u e e 8 e e e e e e e f @.#.#.#.#., 7 7 8 6 e e e e e e 8 8 8 < O.#.#.#.#.#.#.#.#.#.$.2 e e e 6 e e e e < #.#.#.#.#.#.#.#.#.#.#.& . . . . + K ).",
").~ I * R q.9.8.8.8.8.9.8.8.$.$.8.#.#.6.@.$.8.8.9.8.7.*.a n n v n n v r n e e a 0.8.q.7.8.c n n n n n n n n n m n n n l 8.8.9.8.q.q.7.q.0.7.w.l.n n n e n n n n } 8.8.8.q.8.q.9.8.q.q.8.A o o o o % I ).",
").).I * R w.w.9.9.9.w.w.9.w.q.$.9.$.$.9.#.6.9.w.w.9.7.0.g n n n n n n n n n n g 0.q.w.9.w.l n n n n n n n n n n n n n l w.w.w.q.9.9.w.w.9.w.w.l.n n n n n n n n l.w.w.w.9.w.w.9.9.9.9.9.S o o o @ & o.).",
").).^ # U w.9.9.9.9.9.9.9.9.9.6.9.$.$.9.#.$.w.9.9.9.w.q.a n n n n n n n n n n f 0.w.9.9.w.l n n n n n n n n n n n n n } w.w.w.w.9.9.w.w.w.7.w.l.n n n n n n n m } w.w.w.9.9.w.9.w.9.w.9.S o o @ o & ^ ).",
").).O.$ Y w.9.9.9.9.9.9.w.9.9.q.9.8.$.9.$.#.7.9.9.9.w.q.s n n n m n n n n n n N *.w.w.w.w.x n n n n n n n n n n n n n l.w.w.9.w.9.9.w.w.9.9.9.x n n n n n n n n ..w.r.9.w.w.9.9.9.w.9.9.S o o o o $ O.).",
").).#.A P w.w.9.9.w.9.9.9.9.9.9.9.9.$.9.6.$.9.9.9.9.w.q.h n n n n n n n n n n M >.w.w.9.w.x n n n n n n n n n n n n n ..w.9.9.9.w.9.9.r.w.9.9.j n n n n n n n n ,.w.w.9.9.9.9.w.9.w.9.9.S o o @ @ & o.).",
").).#.L S 7.w.9.9.9.w.9.9.9.9.9.9.9.8.8.9.$.8.9.9.w.9.9.k n n n n n n n n n n n ,.w.9.9.w.x n n n n n m n n n n n n m ,.w.w.w.9.9.9.9.w.9.9.0.s n n n n n n n m >.w.9.w.9.9.w.q.w.9.9.9.S o o o o & U ).",
").).O.O.I 7.w.9.w.9.r.w.w.9.9.w.9.9.7.9.9.6.8.9.9.9.9.w.l n n n n n n n n n n n l.w.w.w.w.l n n n n n n n n n n n n M >.w.w.w.q.9.9.9.q.w.w.0.N n n n n n n n N *.w.w.9.9.9.9.w.9.9.w.9.S o o @ o & ^ ).",
").).O.#.$.9.9.9.9.9.9.9.w.9.9.9.9.9.9.w.9.9.q.w.9.w.9.w.| n n n n n n n n n n n z w.w.9.w.l n v n m n n n n v n n n h 0.w.9.9.w.w.q.w.q.w.w.<.m n n n n n n n s q.w.w.9.r.w.w.9.9.w.q.9.S o o o o & O.).",
").).O.O.$.6.8.8.9.9.9.w.9.9.w.w.w.9.9.9.9.9.w.9.9.9.w.w.,.m n n n n n n m n n n s q.9.9.w.&.z s N N s N g g N g g s ,.w.w.9.9.9.9.9.w.w.w.w.X.n n n n n n n n x 9.9.9.9.w.w.9.9.9.w.w.w.S o o @ o $ ^ ).",
").).^ #.O.O.O.$.#.$.$.6.8.8.7.9.9.r.w.9.9.9.9.9.9.w.9.w.>.d n n n n n n n n n n M *.w.q.w.w.9.q.0.0.q.0.0.0.0.0.0.q.9.w.9.9.w.9.9.w.9.9.w.9.x n n n n n n n m  .w.9.9.9.r.9.9.9.9.9.9.9.S o o o o & o.).",
").).^ #.O.$.6.6.6.$.$.$.$.$.$.$.6.8.8.9.9.9.9.w.w.q.w.q.6.g n n n n n n n n n n n ,.w.w.9.9.9.w.7.9.w.w.9.9.9.9.9.w.9.9.9.r.w.9.9.w.9.9.w.q.N m n n n n n n N 0.w.w.9.9.w.9.9.9.w.9.w.9.S o o @ o C U ).",
").).).#.#.s.d.b.b.Z.c.r.9.9.9.7.8.9.q.8.9.9.9.9.w.q.w.w.9.z n n n n n n n n n n n x 9.9.9.9.9.9.w.9.w.9.w.9.w.w.w.9.9.w.9.w.w.9.w.9.w.9.w.>.b n n n n n n n x q.w.r.9.w.w.9.9.9.w.9.9.9.A o o o o & U ).",
").).).O.#.a.B.R.(.^.^.E.f.7.9.9.7.w.w.w.9.w.9.9.w.9.w.w.w...n n n n n n n n n n v h q.w.w.w.w.w.w.w.w.w.w.w.w.w.w.w.w.w.w.w.w.w.w.w.w.9.w.X.n n n n n n n M ,.9.w.9.9.9.w.9.9.9.9.9.8.8.A o @ @ o C 4.).",
").).).O.O.s.m.P.^.^.^./.J.r.9.9.9.9.w.9.9.9.9.9.w.9.q.w.9.*.f v n n n n n n m g l <.q.&.<.<.<.<.<.<.<.<.<.<.<.<.<.<.<.<.<.<.<.<.<.<.>.9.w.*.h n n n n n n h r.9.w.w.9.w.9.9.r.w.9.9.$.O.Z o o o o V 5.).",
").).).).O.#.d.N.Y./.^./.^.b.9.w.9.w.9.9.9.9.w.9.r.w.w.w.9.9.x n n n n n g z ,.f.0. .j M m m m m b m m m m m m m m m m m m m m m m m N  .w.w.*.s n n n n m ,.9.9.9.9.9.9.9.9.w.w.w.9.$.O.B o o @ o V 3.).",
").).).).^ #.%.k.V.Q.^.^./.E.f.w.9.9.w.9.9.9.w.9.9.9.w.9.9.w.&.d n f z ,.0.9.&.} a n n n n n v n n n n n n n n n n n n n n n n n n n v M ,.w.w.*.s n n n z 8.9.9.9.9.9.9.9.9.w.w.9.q.8.#.Z o @ o o C ).).",
").).).).).O.#.%.d.S.Y.Q.Q.~.v.7.w.9.w.w.w.9.9.w.w.w.9.w.w.9.9.,.X.0.r.q.,.k d n n n n n n n n n n n n n n n n n n n n n n n n n n n n v N ,.w.w.>.g v a *.w.w.w.9.9.9.9.9.9.9.9.w.9.w.9.A o o o o @ ).).",
").).).).).).^ #.#.-.g.C.F.K.v.8.9.9.9.7.w.7.9.9.w.w.9.9.9.9.7.w.4.q.l.z d r r r r b b d b d r r b b b r b b r r b M b b M b b b r r r d M s &.9.9.;.h :.9.9.7.9.7.7.9.9.7.q.q.7.8.6.6.$.Z o o o @ X ).).",
").).).).).).).U ^ ^ ^ #.O.#.O.R #.#.#.#.#.#.%.#.#.#.#.#.#.#.#.#./ ^ Q Q ` ` ` ` ` ` ` ` ` ` ` ` ` ' ` ` ` ' ` ` ` ` ' ` ` ` ` ` ` ` ` ` ` ` +.#.#.#.O.#.#.#.#.#.#.$.#.#./ $./ #.#./ ^ ^ & o @ o o o ).).",
").).).).).).).).).).).).).).).).).).).).).).).).).).).).).).).).= + o @ ).).).).).).).).).).).).).).).).).).).).).).).).).).).).).).).).).).).).).).).).).).).).).).).).).).).).).).).).).o o o o ).).).",
").).).).).).).).).).).).).).).).).).).).).).).).).).).).).).).).X @ o X ).).).).).).).).).).).).).).).).).).).).).).).).).).).).).).).).).).).).).).).).).).).).).).).).).).).).).).).).).).).).).).).).",
").).).).).).).).).).).).).).).).).).).).).).).).).).).).).).).).X o o o ).).).).).).).).).).).).).).).).).).).).).).).).).).).).).).).).).).).).).).).).).).).).).).).).).).).).).).).).).).).).).).).).",
").).).).).).).).).).).).).).).).).).).).).).).).).).).).).).).).X @ @ X ).).).).).).).).).).).).).).).).).).).).).).).).).).).).).).).).).).).).).).).).).).).).).).).).).).).).).).).).).).).).).).).).",
").).).).).).).).).).).).).).).).).).).).).).).).).).).).).).).).).o @ X ).).).).).).).).).).).).).).).).).).).).).).).).).).).).).).).).).).).).).).).).).).).).).).).).).).).).).).).).).).).).).).).).",
").).).).).).).).).).).).).).).).).).).).).).).).).).).).).).).).).).o ).).).).).).).).).).).).).).).).).).).).).).).).).).).).).).).).).).).).).).).).).).).).).).).).).).).).).).).).).).).).).).).).)."
};
