/* XPM */
static char *result[] = {
/* columns rows colors chars-per-pixel */
"100 50 189 2 ",
"   c #29364E",
".  c #29384F",
"X  c #2A3A50",
"o  c #303F59",
"O  c #264553",
"+  c #2B4253",
"@  c #274B56",
"#  c #2C4A56",
"$  c #2D4E59",
"%  c #32425B",
"&  c #36495E",
"*  c #384D5F",
"=  c #2D535A",
"-  c #2D5A5C",
";  c #315B5E",
":  c #32535C",
">  c #374E60",
",  c #394E60",
"<  c #375261",
"1  c #3C5463",
"2  c #315E60",
"3  c #3E5A66",
"4  c #1D7866",
"5  c #2B6962",
"6  c #356364",
"7  c #386266",
"8  c #346C66",
"9  c #3A6869",
"0  c #2A7869",
"q  c #337167",
"w  c #367369",
"e  c #367A6C",
"r  c #387C6D",
"t  c #3B726A",
"y  c #7C765E",
"u  c #405C67",
"i  c #415D68",
"p  c #45656B",
"a  c #47696D",
"s  c #496B6E",
"d  c #4B6F71",
"f  c #4D7573",
"g  c #447C73",
"h  c #4E7A75",
"j  c #437370",
"k  c #517A76",
"l  c #547F78",
"z  c #7E7D62",
"x  c #E71A23",
"c  c #E91A22",
"v  c #DA2A2C",
"b  c #D03837",
"n  c #E42228",
"m  c #AD413A",
"M  c #825C4B",
"N  c #8E6754",
"B  c #A96A58",
"V  c #21865C",
"C  c #22895E",
"Z  c #16886D",
"A  c #1C8968",
"S  c #1A946B",
"D  c #16966F",
"F  c #0F9F73",
"G  c #199671",
"H  c #139E73",
"J  c #1E9B71",
"K  c #228B61",
"L  c #2E836E",
"P  c #39816F",
"I  c #2B9667",
"U  c #2B9669",
"Y  c #239B6E",
"T  c #2D996A",
"R  c #30986D",
"E  c #3A8571",
"W  c #3B8C74",
"Q  c #378571",
"!  c #259C72",
"~  c #299872",
"^  c #3D9077",
"/  c #349C72",
"(  c #3E9478",
")  c #3E9A7A",
"_  c #319274",
"`  c #0FA074",
"'  c #13A175",
"]  c #1CA376",
"[  c #1DA578",
"{  c #22A67A",
"}  c #26A97C",
"|  c #2BAA7D",
" . c #2BA57B",
".. c #3CA47C",
"X. c #32AC7F",
"o. c #3DAB7E",
"O. c #3AA275",
"+. c #6DA259",
"@. c #498979",
"#. c #55837A",
"$. c #58877C",
"%. c #57887C",
"&. c #59897D",
"*. c #409D7C",
"=. c #47937A",
"-. c #52937F",
";. c #679572",
":. c #46A466",
">. c #41A476",
",. c #41A57F",
"<. c #4EAA7F",
"1. c #56AF75",
"2. c #68AF70",
"3. c #66B67D",
"4. c #70B674",
"5. c #75A96B",
"6. c #BBAE4E",
"7. c #969B7D",
"8. c #A3826B",
"9. c #81B06C",
"0. c #82B572",
"q. c #CEB54E",
"w. c #CABC57",
"e. c #99C17C",
"r. c #95C07A",
"t. c #CDD37D",
"y. c #D0D67D",
"u. c #D5C76E",
"i. c #E0D478",
"p. c #F8E17C",
"a. c #34AD81",
"s. c #3BAD82",
"d. c #3DB183",
"f. c #35B081",
"g. c #5C8E80",
"h. c #5D9181",
"j. c #589E83",
"k. c #619784",
"l. c #639C86",
"z. c #659E88",
"x. c #42A780",
"c. c #43AC83",
"v. c #4AAE83",
"b. c #53AB81",
"n. c #56A787",
"m. c #43B285",
"M. c #49B486",
"N. c #4CB589",
"B. c #51B686",
"V. c #50B689",
"C. c #54B98B",
"Z. c #5CBA8E",
"A. c #58B887",
"S. c #5EBC90",
"D. c #67A289",
"F. c #6AA78B",
"G. c #6CAC8E",
"H. c #64A98B",
"J. c #62BC8F",
"K. c #68B58A",
"L. c #71B38A",
"P. c #6EAF90",
"I. c #6DB290",
"U. c #63BD91",
"Y. c #69BE92",
"T. c #71B592",
"R. c #74BC95",
"E. c #6DC094",
"W. c #73C397",
"Q. c #77C498",
"!. c #79C499",
"~. c #7DC498",
"^. c #79C689",
"/. c #85B58E",
"(. c #9CCF8A",
"). c #9BD28D",
"_. c #8DC994",
"`. c #88CA98",
"'. c #93CF98",
"]. c #AAD692",
"[. c #C6D887",
"{. c #E2DE85",
"}. c #C9E296",
"|. c #D8E993",
" X c #E9E182",
".X c #FAED8C",
"XX c #ECF096",
"oX c #F8F191",
"OX c None",
/* pixels */
"OXOXOXOXOXOXOXOXOXOXOXOXOXOXOXOXOXOXOXOXOXOXOXOXOXOXOXOXOXOXOXOXOXV V OXOXOXOXOXOXOXOXOXOXOXOXOXOXOXOXOXOXOXOXOXOXOXOXOXOXOXOXOXOXOXOXOXOXOXOXOXOXOXOXOXOXOXOXOXOXOXOXOXOXOXOXOXOXOXOXOXOXOXOXOXOXOXOXOX",
"OXOXOXOXOXOXOXOXOXOXOXOXOXOXOXOXOXOXOXOXOXOXOXOXOXOXOXOXOXOXOXOXV V C OXOXOXOXOXOXOXOXOXOXOXOXOXOXOXOXOXOXOXOXOXOXOXOXOXOXOXOXOXOXOXOXOXOXOXOXOXOXOXOXOXOXOXOXOXOXOXOXOXOXOXOXOXOXOXOXOXOXOXOXOXOXOXOXOX",
"OXOXOXOXOXOXOXOXOXOXOXOXOXOXOXOXOXOXOXOXOXOXOXOXOXOXOXOXOXOXOXOXV V V OXOXOXOXOXOXOXOXOXOXOXOXOXOXOXOXOXOXOXOXOXOXOXOXOXOXOXOXOXOXOXOXOXOXOXOXOXOXOXOXOXOXOXOXOXOXOXOXOXOXOXOXOXOXOXOXOXOXOXOXOXOXOXOXOX",
"OXOXOXOXOXOXOXOXOXOXOXOXOXOXOXOXOXOXOXOXOXOXOXOXOXOXOXOXOXOXOXOXV V C OXOXOXOXOXOXOXOXOXOXOXOXOXOXOXOXOXOXOXOXOXOXOXOXOXOXOXOXOXOXOXOXOXOXOXOXOXOXOXOXOXOXOXOXOXOXOXOXOXOXOXOXOXOXOXOXOXOXOXOXOXOXOXOXOX",
"OXOXOXOXOXOXOXOXOXOXOXOXOXOXOXOXOXOXOXOXOXOXOXOXOXOXOXOXOXOXOXOXC V V OXOXOXOXOXOXOXOXOXOXOXOXOXOXOXOXOXOXOXOXOXOXOXOXOXOXOXOXOXOXOXOXOXOXOXOXOXOXOXOXOXOXOXOXOXOXOXOXOXOXOXOXOXOXOXOXOXOXOXOXOXOXOXOXOX",
"OXOXOXOXOXOXOXOXOXOXOXOXOXOXOXOXOXOXOXOXOXOXOXOXOXOXOXOXOXOXOXOXK V V OXOXOXOXOXOXOXOXOXOXOXOXOXOXOXOXOXOXOXOXOXOXOXOXOXOXOXOXOXOXOXOXOXOXOXOXOXOXOXOXOXOXOXOXOXOXOXOXOXOXOXOXOXOXOXOXOXOXOXOXOXOXOXOXOX",
"OXOXOXOXOXOXOXF ' ' ' ] ' ] ] ] ] [ ] { [ { [ { { ] [ [ [ { ] [ J A A A Z Z Z Z Z Z Z Z Z Z Z Z Z Z Z Z Z Z Z Z D ] G Z Z Z Z Z Z Z Z Z Z Z Z Z G G Z Z Z Z Z Z Z Z Z Z Z Z Z Z Z ' ' ' OXOXOXOXOXOXOXOX",
"OXOXOXOXOX' ] :.+.:.| a.a.s.a.d.d.s.d.d.d.d.m.d.d.d.d.s.d.d.s.s.o.( 0 = # O O O O O O O O O O O O O O O O O O O 5 ..e O O O O O O O O O O O O @ q e @ O O O O O O O O O O O O = L  .~ Z ' ' H OXOXOXOXOX",
"OXOXOXOX' Y +.q.w.4.d.m.m.m.m.m.m.m.m.m.m.m.m.m.m.m.m.m.m.c.) Q ) c.s.=.w : X X . . . . . . . . . . X     X   X ; x.e   X   X   . . . . . .   % w e . . . . . . . . . . . . + w ,.( ; = _ | ! M c OXOXOX",
"OXOXOXOX{ 9.i..X].C.d.m.M.m.m.m.m.M.m.m.m.M.m.m.m.m.M.m.m.s.6 . @ 6 P ) x...E 2 + . . . . . . . . . . X       X 2 *.e X       X . X . . . .   O w r X . . . . . . . . . . X q ,.( ; . X 8 s.,.N c c OXOX",
"OXOXOX' 1.y.oX|.^.m.m.m.m.m.m.m.m.m.m.m.m.m.m.m.m.m.m.m.m.Q @   . . X # 6 E ) s.W 8 = + + + + + X + X + + + X # 2 x.r + X + + + X + X + + X + $ r Q + X + + X + + + + + + 8 ) =.- . . . = ^ M.z v c OXOX",
"OXOXOXH 4.p.oX).B.m.m.m.m.m.m.m.m.m.m.m.m.m.m.m.m.m.m.m.x.8 . . . . . . X X # 8 W ,.*.^ ^ ^ ^ W ( ( ^ ^ ^ ( ^ ^ ) c...^ ( ^ ^ ^ ^ ( ( ^ ^ ^ ( ( x.x.( ^ ^ ^ ^ ( ( W ( W ( ,.( ; . . . . X 8 v.;.b c OXOX",
"OXOX' ' 4.].(.A.m.m.m.m.m.m.m.m.m.m.m.m.m.m.m.c.m.d.s.f._ = . . . . . . . . . . # ) m.m.c.m.m.m.c.m.m.m.s.s.m.m.m.m.c.m.m.c.m.m.s.s.m.s.m.d.d.s.c.s.m.m.d.d.m.s.c.m.m.m.m.m.r + . . . . . : ) v.y m OXOX",
"OXOX' '  .M.1.M.m.m.m.m.m.m.m.m.d.s.s.X.a.| } } [ ] ] ' 4 @ . . . X .   . . . X = ,.m.| } } } | } } } } } a.| } } } } } | | } } } a.a.} } [ a.a.a.[ a.} } a.} a.| } | | d.m.E @ . . . . . # E m.X.U OXOX",
"OXOX' ' a.a.m.m.m.m.d.d.s.f.f.a.| | } } { } { } } } a.} 5 X     . X X X X . . X 8 c.m.a.a.a.a.a.a.a.a.a.a.a.a.a.a.a.a.a.a.a.a.a.a.a.a.a.a.a.a.a.a.a.a.a.f.f.f.f.a.a.a.a.m.m.) =   . . . . X 8 c.d.' OXOX",
"OXOX' ' a.m.m.m.m.m.m.m.d.d.d.d.d.m.d.m.m.d.m.m.m.m.s.s.6     X X X X X   . . X E c.m.m.m.m.m.m.m.m.m.m.m.m.m.m.m.m.m.m.m.m.m.m.m.m.m.m.m.m.m.m.m.m.d.s.m.m.m.m.m.m.m.m.m.m...; . . . . . . 2 x.d.] OXOX",
"OX' ' ] a.m.m.m.m.N.d.d.m.m.d.m.m.m.m.m.m.m.m.m.m.m.m.) ;     X X . . . . . . # ) m.m.M.m.m.m.m.m.m.m.m.m.m.m.m.m.m.m.m.m.N.d.N.m.m.m.m.m.m.m.m.m.m.m.m.m.m.m.m.m.m.M.m.m.m.,.6 . . . .   . = ) f.[ OXOX",
"OX' H { s.s.c.m.m.m.m.N.N.m.N.m.d.N.m.d.m.m.m.m.m.m.m.( $   X X X X . . . . . : ) m.m.m.m.m.m.m.m.m.m.m.m.m.m.m.m.m.m.m.m.m.m.d.m.m.m.m.m.m.m.m.m.m.m.m.m.m.m.m.m.m.m.m.m.m.m.8 . . . . . . @ W d.[ OXOX",
"OXH ' { / R s.m.m.m.m.m.d.N.d.d.d.m.m.N.N.d.m.m.s.s.d.Q #     X X . . . . . . 2 s.m.m.m.m.m.m.m.m.m.m.m.m.m.m.m.m.m.m.m.m.m.m.m.m.m.m.m.m.m.m.m.m.m.m.m.m.m.m.m.m.m.m.m.m.m.m.e + . . . .   + r d.[ OXOX",
"OX' ' { K U ,.m.m.m.m.d.N.d.N.d.m.d.d.d.f.f.a.f.a.} } 0 + . .   X X . . . . . 8 c.m.m.m.m.m.m.d.m.m.m.m.m.d.m.d.m.m.m.m.m.m.m.d.m.m.m.d.m.m.m.m.m.m.m.m.m.d.m.d.m.m.m.m.m.m.m.r +   . . .   + q d.} OXOX",
"OX' ' S C U o.m.m.N.d.N.m.N.m.d.d.d.d.f.a.a.a.a.a.a.a.0 o   X X . X X . . . . r c.m.m.a.} } | } a.} } } } a.} } a.[ [ a.f.} a.} | | | | | | } | f.} } } } f.} } } | | X.d.m.M.Q #     . . . X 8 s.} OXOX",
"OX' H A C U o.m.m.m.N.d.d.m.m.m.m.m.m.m.m.m.d.d.m.m.d.w X   X X X X X X . . X P m.m.m.a.a.a.a.| } a.a.a.a.} a.a.} a.f.f.f.} } f.| X.| X.X.| X.X.} f.f.f.f.} f.f.X.| | X.d.m.m.W #   .   . . X 8 s.} OXOX",
"OX' D C V U o.m.N.d.m.m.m.m.m.m.m.m.m.m.m.m.N.d.m.m.m.q X . X   . .     . . X W m.m.m.m.m.m.d.m.d.m.m.m.d.m.m.m.d.d.m.m.m.m.d.d.m.d.m.m.d.m.m.m.d.m.m.m.d.m.d.m.m.m.m.m.m.m.m.W #   . . . . X 6 s.{ OXOX",
"OX' S K V U o.m.m.m.m.m.m.m.m.m.m.m.m.m.m.m.m.m.m.m.m.q X .     . . . . . X O W m.m.m.m.m.m.m.M.m.m.m.m.d.d.m.m.m.d.m.m.m.m.m.d.m.m.m.m.m.m.m.m.d.m.m.m.d.d.m.m.m.m.m.m.m.m.m.=.$   . . . . X 2 s.{ OXOX",
"OX[ Y K C R v.B.V.V.V.V.C.C.N.V.V.V.V.V.V.V.V.V.V.V.N.t X   X X X X X X X X % =.B.B.N.V.V.B.V.V.V.C.V.V.B.V.N.B.C.V.C.N.N.C.N.V.N.V.V.V.V.V.V.V.V.N.N.B.N.B.V.N.V.V.V.V.V.B.C.*.&   X X X X X 3 x.a.OXOX",
"OXm.O.U I >.K.Q.W.W.W.W.Q.!.W.W.W.Q.W.W.W.W.W.W.W.W.R.k > o o % % % % o o o * l.W.W.W.W.W.W.W.W.Q.W.W.W.W.W.Q.W.W.W.W.W.Q.W.Q.W.W.W.Q.W.Q.W.W.W.Q.W.Q.Q.Q.Q.Q.Q.W.Q.W.W.W.W.Q.D.u o o % % o % p I.C.OXOX",
"OXm.X.T I >.Y.~.!.!.!.!.!.!.!.!.!.!.!.!.!.!.!.!.!.Q.Q.l % o % % % % % % % % * D.!.!.!.!.!.!.!.!.!.!.!.!.!.!.~.Q.!.!.!.!.!.!.Q.!.~.Q.Q.~.Q.!.!.!.!.!.!.!.!.!.!.!.!.!.!.!.~.Q.!.D.u o % % % % % d Y.C.OXOX",
"OXm.o.T I >.Y.!.!.!.!.!.!.!.!.!.!.!.!.!.!.!.!.!.!.!.Q.#.> o > % % % % % % % > ;.!.!.!.!.!.!.W.!.!.W.W.Q.Q.Q.Q.Q.!.W.!.Q.Q.Q.Q.Q.Q.Q.Q.Q.W.!.W.!.!.W.Q.Q.Q.Q.!.W.W.!.W.!.W.~.!.l.u o % % % o % f R.C.OXOX",
"OXm.m./ I >.Y.~.!.!.!.!.!.!.!.!.!.W.!.!.!.!.!.!.!.!.Q.#.> o % % > % > % % % > g.Q.!.W.U.C.C.Z.C.C.C.C.Z.C.C.Z.C.C.C.C.Z.Z.C.C.Z.C.Z.C.C.C.C.C.Z.C.C.Z.C.C.Z.Z.C.C.C.Z.U.W.!.!.k.u o o % > o > f R.C.OXOX",
"OXm.m...T >.Y.!.!.!.!.!.!.!.!.!.W.W.Y.Y.U.S.S.S.S.S.S.#.> o % % o % o % % % % #.W.~.W.E.E.E.E.E.E.E.E.E.E.E.E.E.E.E.E.E.E.E.E.E.E.E.E.E.E.E.E.E.E.E.E.E.E.E.U.E.E.E.E.E.W.!.~.h., o % % o o % k R.V.OXOX",
"OXm.m.B.O.>.Y.!.!.!.!.!.!.!.!.!.!.!.Q.Q.Q.R.W.Y.U.U.S.@.> % > % o > % % % % % h W.~.!.Q.~.~.!.!.!.!.W.!.!.!.~.!.!.!.!.!.!.!.W.W.!.!.!.!.~.Q.!.!.!.!.~.Q.!.!.!.!.W.!.!.!.!.!.!.h., o o % o o , #.W.C.OXOX",
"OXm.m.A.A.<.R.~.!.!.!.!.!.!.!.!.!.!.!.!.!.!.!.Q.!.!.!.j.1 o o % % o % % % % % p R.!.!.Q.~.Q.!.!.!.!.~.!.!.!.!.!.!.!.!.!.!.~.!.!.~.!.!.!.!.!.!.!.!.W.~.!.!.~.!.!.!.!.!.!.!.!.W.#.> o % o > o , k.W.C.OXOX",
"OXm.m.N.E.W.Q.!.!.!.!.!.!.!.!.!.!.!.!.!.!.!.!.!.!.!.!.D.3 o % % % % % % % % % u P.~.!.!.!.!.Q.~.Q.!.!.!.!.!.!.!.!.!.!.!.!.!.!.!.!.!.!.!.Q.!.!.!.!.!.!.!.Q.!.!.!.!.!.Q.!.!.!.R.k % % % % % % 1 z.W.V.OXOX",
"OXm.m.M.E.!.!.Q.!.!.!.!.!.!.!.Q.!.!.!.W.!.!.!.W.!.!.~.P.a o % % % % % > % % % , D.Q.!.!.~.!.Q.Q.Q.~.!.!.!.!.!.!.!.!.!.!.!.!.!.!.!.!.!.!.!.!.Q.Q.Q.~.Q.!.~.Q.Q.~.!.!.!.~.~.!.T.f % % % % % % i P.W.N.OXOX",
"OXOXm.M.J.Q.!.~.!.!.!.W.W.W.W.W.W.E.W.W.W.W.W.W.W.W.!.Y.j % % % % % % % % % o % g.R.!.Q.!.Q.Q.Q.Q.Q.!.!.W.!.!.!.!.!.!.!.!.!.!.!.!.!.!.!.!.Q.!.Q.Q.Q.!.!.Q.Q.Q.Q.!.Q.Q.Q.!.~.P.p % % % % o % d R.E.N.OXOX",
"OXOXm.m.A.W.~.Q.!.!.Q.W.W.Y.Y.Y.S.S.C.C.C.C.C.C.C.V.B.B.g & o % % % % % % % % % f R.Q.Y.U.S.S.U.U.S.U.S.U.Z.Z.Z.Z.J.Z.Z.Z.Z.J.Z.J.Z.Z.J.Z.J.Z.U.U.S.Z.U.J.Z.U.U.S.U.S.U.W.!.D.i o % % % o , #.!.Y.M.OXOX",
"OXOXm.m.K._.`.Q.!.!.!.!.~.!.!.!.!.W.W.W.W.E.E.S.S.C.C.V.@.< % % % % % % % % % % u G.Q.Y.U.U.U.U.U.U.U.U.E.U.U.U.U.U.U.U.U.U.U.U.U.U.U.U.U.U.U.U.U.U.U.U.U.U.U.U.U.U.U.E.W.!.k.3 o % % % o u l./.T.;.OXOX",
"OXOXm.m.r.{.}.'.!.!.!.!.!.!.!.!.!.!.!.!.!.!.W.W.W.W.W.W.H.p % % % % % % % % % % p F.Q.Q.W.!.W.!.Q.Q.W.!.Q.Q.Q.Q.Q.Q.Q.~.Q.Q.Q.Q.!.W.W.Q.!.!.W.!.Q.Q.Q.~.Q.Q.Q.Q.Q.Q.Q.!.!.!.g., o % % % o s T./.B v OXOX",
"OXOXOXm.r.p.oX}.`.!.!.!.!.!.!.!.!.!.!.!.!.!.!.!.!.!.!.!.R.#.% o % % % % % u d h.G.T.z.&.&.&.&.&.$.&.&.&.%.&.&.&.k.R.F.&.&.&.&.&.&.&.&.&.&.&.%.&.F.F.&.$.&.&.&.&.&.&.&.&.$.P.P.h & % % % * $.!./.b c OXOX",
"OXOXOXs.L.[.oXXX].!.!.!.!.!.!.!.!.!.!.!.!.!.!.!.!.!.!.!.!.z.i o % % 1 s g.G.T.G.&.p * % % % % % % % % % % % % & s T.$.& & % % % & % % & % % % 1 $.g.& % % % % & % % % % % p F.P.k % % % p F./.8.n c OXOX",
"OXOXOXOXM.9.u.p.|._.R.~.!.!.!.!.!.!.!.!.!.!.!.!.!.!.!.!.!.R.#.3 p g.F.R.T.z.k 3 % % % % % % % o o % o % % % % % s T.$.% % % % % % o % o % o o , l $.% o o % o % % % % % % % s G.I.h % , $.E.T.B c c OXOX",
"OXOXOXOXc.M.5.6.w.0.~.~.!.!.Q.!.!.!.!.!.!.!.!.!.!.!.!.!.!.!.T.P.R.R.P.g.s < % % % % % % % % % % % % % % % % % % s T.&.% % % % % % % % % % % % > l g.> % % % % % % % % % % % % f P.I.h j n.C.<.N c OXOXOX",
"OXOXOXOXOXOXv.1.2.A.C.S.U.U.Y.Y.Y.Y.Y.Y.E.E.E.E.E.E.E.Y.E.E.E.Y.I.j.f 9 7 7 7 7 7 7 7 7 7 7 7 7 7 7 7 7 7 7 7 7 g K.g.7 7 7 2 7 7 7 7 7 7 7 3 9 %.g.7 7 7 7 7 7 7 7 7 7 3 6 7 9 =.B.v.c.m.m.OXOXOXOXOXOX",
"OXOXOXOXOXOXOXOXm.m.d.N.m.m.m.N.N.N.N.N.N.m.N.N.M.M.M.M.m.N.m.m.../ _ x.x.x.x.x.x.x.x.x.x.x.x.x.x.x.,.x.x.x.x.x.x.M.s.x.x.x.x.x.,.,.x.c.x.x.c.,.c.s.x.x.x.x.x.x...,.x...,.,.s.x.x.m.OXOXOXOXOXOXOXOXOXOX",
"OXOXOXOXOXOXOXOXOXOXOXOXOXOXOXOXOXOXOXOXOXOXOXOXOXOXOXOXOXOXOXOXT T T OXOXOXOXOXOXOXOXOXOXOXOXOXOXOXOXOXOXOXOXOXOXOXOXOXOXOXOXOXOXOXOXOXOXOXOXOXOXOXOXOXOXOXOXOXOXOXOXOXOXOXOXOXOXOXOXOXOXOXOXOXOXOXOXOX",
"OXOXOXOXOXOXOXOXOXOXOXOXOXOXOXOXOXOXOXOXOXOXOXOXOXOXOXOXOXOXOXOXT U T OXOXOXOXOXOXOXOXOXOXOXOXOXOXOXOXOXOXOXOXOXOXOXOXOXOXOXOXOXOXOXOXOXOXOXOXOXOXOXOXOXOXOXOXOXOXOXOXOXOXOXOXOXOXOXOXOXOXOXOXOXOXOXOXOX",
"OXOXOXOXOXOXOXOXOXOXOXOXOXOXOXOXOXOXOXOXOXOXOXOXOXOXOXOXOXOXOXOXT U T OXOXOXOXOXOXOXOXOXOXOXOXOXOXOXOXOXOXOXOXOXOXOXOXOXOXOXOXOXOXOXOXOXOXOXOXOXOXOXOXOXOXOXOXOXOXOXOXOXOXOXOXOXOXOXOXOXOXOXOXOXOXOXOXOX",
"OXOXOXOXOXOXOXOXOXOXOXOXOXOXOXOXOXOXOXOXOXOXOXOXOXOXOXOXOXOXOXOXU U U OXOXOXOXOXOXOXOXOXOXOXOXOXOXOXOXOXOXOXOXOXOXOXOXOXOXOXOXOXOXOXOXOXOXOXOXOXOXOXOXOXOXOXOXOXOXOXOXOXOXOXOXOXOXOXOXOXOXOXOXOXOXOXOXOX",
"OXOXOXOXOXOXOXOXOXOXOXOXOXOXOXOXOXOXOXOXOXOXOXOXOXOXOXOXOXOXOXOXI T U OXOXOXOXOXOXOXOXOXOXOXOXOXOXOXOXOXOXOXOXOXOXOXOXOXOXOXOXOXOXOXOXOXOXOXOXOXOXOXOXOXOXOXOXOXOXOXOXOXOXOXOXOXOXOXOXOXOXOXOXOXOXOXOXOX",
"OXOXOXOXOXOXOXOXOXOXOXOXOXOXOXOXOXOXOXOXOXOXOXOXOXOXOXOXOXOXOXOXOXOXOXOXOXOXOXOXOXOXOXOXOXOXOXOXOXOXOXOXOXOXOXOXOXOXOXOXOXOXOXOXOXOXOXOXOXOXOXOXOXOXOXOXOXOXOXOXOXOXOXOXOXOXOXOXOXOXOXOXOXOXOXOXOXOXOXOX"
};
