/* XPM */
static char *result[] = {
/* columns rows colors chars-per-pixel */
"50 100 188 2 ",
"   c #6B5A3D",
".  c #67583F",
"X  c #725E3B",
"o  c #7D5F37",
"O  c #75603A",
"+  c #7B6439",
"@  c #726D3E",
"#  c #7A723C",
"$  c #77703D",
"%  c #27374F",
"&  c #29374F",
"*  c #2B394E",
"=  c #343D4B",
"-  c #393F4A",
";  c #3F3F47",
":  c #273650",
">  c #293750",
",  c #2A3950",
"<  c #2E3F5D",
"1  c #3C4149",
"2  c #2F405C",
"3  c #3A4757",
"4  c #3E4A55",
"5  c #32425C",
"6  c #384658",
"7  c #434247",
"8  c #4A4945",
"9  c #424348",
"0  c #4B4443",
"q  c #524D43",
"w  c #594E41",
"e  c #4D544E",
"r  c #5B5241",
"t  c #5D5E47",
"y  c #51564D",
"u  c #5F574C",
"i  c #54594B",
"p  c #5B5D48",
"a  c #434D53",
"s  c #4B5250",
"d  c #475150",
"f  c #61584B",
"g  c #665A43",
"h  c #5F6047",
"j  c #626246",
"k  c #6B6842",
"l  c #716C40",
"z  c #EC2B1F",
"x  c #E91A23",
"c  c #EA2222",
"v  c #EA2B22",
"b  c #EC3E20",
"n  c #9F772E",
"m  c #826737",
"M  c #856936",
"N  c #926E33",
"B  c #857A37",
"V  c #8A7D35",
"C  c #827539",
"Z  c #827838",
"A  c #977332",
"S  c #9B7431",
"D  c #997D31",
"F  c #A47A2F",
"G  c #AB7D2D",
"H  c #B27C2C",
"J  c #A07730",
"K  c #DC441F",
"L  c #DE491F",
"P  c #E7471E",
"I  c #E1511F",
"U  c #E4611D",
"Y  c #E86A1D",
"T  c #F26E1C",
"R  c #EF751F",
"E  c #EE781F",
"W  c #F1771C",
"Q  c #F27B1C",
"!  c #F17714",
"~  c #DC4420",
"^  c #DD4920",
"/  c #CA5627",
"(  c #EE5622",
")  c #EF5A22",
"_  c #F15A23",
"`  c #F05623",
"'  c #CF6D28",
"]  c #DB6324",
"[  c #D37626",
"{  c #D47728",
"}  c #DA7923",
"|  c #E46D23",
" . c #F16222",
".. c #F26C20",
"X. c #E77F21",
"o. c #EA7721",
"O. c #BDA01F",
"+. c #9C892E",
"@. c #948431",
"#. c #A38E2C",
"$. c #BF8827",
"%. c #B2812B",
"&. c #BD8629",
"*. c #AC9427",
"=. c #AF9825",
"-. c #A5912A",
";. c #AA9429",
":. c #B29924",
">. c #BB9B24",
",. c #BDA020",
"<. c #DE9E1D",
"1. c #F3831E",
"2. c #F48C1C",
"3. c #F38816",
"4. c #E49C1F",
"5. c #EA9F1D",
"6. c #F59314",
"7. c #F6941B",
"8. c #F79B1A",
"9. c #F89D1A",
"0. c #F79F17",
"q. c #C3A41E",
"w. c #CDAB1A",
"e. c #CAA61C",
"r. c #D0AE19",
"t. c #DDAE16",
"y. c #D7B216",
"u. c #DCB513",
"i. c #DFB813",
"p. c #F8AE09",
"a. c #E6BC0E",
"s. c #E9BE0E",
"d. c #FAB60D",
"f. c #FBBD0B",
"g. c #EBA11E",
"h. c #F9A617",
"j. c #FAAB15",
"k. c #F5A41A",
"l. c #F9A618",
"z. c #FAA91A",
"x. c #F6A617",
"c. c #E6BD10",
"v. c #E3B612",
"b. c #F9B311",
"n. c #C58B27",
"m. c #CB8D25",
"M. c #C79623",
"N. c #D49323",
"B. c #DB9621",
"V. c #DE9920",
"C. c #F18220",
"Z. c #F48C29",
"A. c #F38926",
"S. c #E19A20",
"D. c #E89221",
"F. c #F59733",
"G. c #F8AA23",
"H. c #F8B628",
"J. c #F4A53C",
"K. c #F8B836",
"L. c #EDC10D",
"P. c #FDC606",
"I. c #FFCB03",
"U. c #F2C50A",
"Y. c #FCC208",
"T. c #FDCC0A",
"R. c #F6C707",
"E. c #FBC412",
"W. c #FDD114",
"Q. c #FBDB3B",
"!. c #F7BE4A",
"~. c #F8BB58",
"^. c #F5A749",
"/. c #FBDF47",
"(. c #FAC756",
"). c #F8C548",
"_. c #F8C863",
"`. c #FAD966",
"'. c #FCD975",
"]. c #FBE76C",
"[. c #FBE47C",
"{. c #F9E072",
"}. c #FCE684",
"|. c #FCF188",
" X c #FDF694",
".X c #FEF897",
"XX c #FDF898",
"oX c None",
/* pixels */
"oXoXoXoXoXoXoXoXoXoXoXoXoXoXoXoXoXoXoXoXoXoXoXoXoXoXoXoXoXoXoXoXoXoXoXoXoXoXoXoXoXoXoXoXoXoXoXoXoXoX",
"oXoXoXoXoXoXoXoXoXoXoXoXoXoXoXoXoXoXoXoXoXoXoXoXoXoXoXoXoXoXoXoXoXoXoXoXoXoXoXoXoXoXoXoXoXoXoXoXoXoX",
"oXoXoXoXoXoXoXoXoXoXoXoXoXoXoXoXoXoXoXoXoXoXoXoXoXoXoXoXoXoXoXoXoXoXoXoXoXoXoXoXoXoXoXoXoXoXoXoXoXoX",
"oXoXoXoXoXoXoXoXoXoXoXoXoXoXoXoXoXoXoXoXoXoXoXoXoXoXoXoXoXoXoXoXoXoXoXoXoXoXoXoXoXoXoXoXoXoXoXoXoXoX",
"oXoXoXoXoXoXoXoXoXoXoXoXoXoXoXoXoXoXoXoXoXoXoXoXoXoXoXoXoXoXoXoXoXoXoXoXoXoXoXoXoXoXoXoXoXoXoXoXoXoX",
"oXoXoXoXoXoXoXoXoXoXoXoXoXoXoXoXoXoXoXoXoXoXoXoXoXoXoXoXoXoXoXoXoXoXoXoXoXoXoXoXoXoXoXoXoXoXoXoXoXoX",
"oXoXoXoXoXoXoXoXoXoXoXoXoXoX1.Q 1.1.1.C.C.C.1.1.2.z.z.z.z.x.x.z.z.z.z.l.oXoXoXoXoXoXoXoXoXoXoXoXoXoX",
"oXoXoXoXoXoXoXoXoXx x x v Q 2.7.7.7.7.8.7.8.8.8.0.d.f.f.f.f.f.f.d.d.d.b.2.c x x x oXoXoXoXoXoXoXoXoX",
"oXoXoXoXoXoXoXoXc c v b T l.z.l.l.h.h.l.l.h.l.h.j.P.I.I.I.I.I.I.I.I.I.I.R.! P z z z oXoXoXoXoXoXoXoX",
"oXoXoXoXoXoXoXoX..Q 7.9.l.l.l.l.l.l.l.l.l.h.l.l.j.I.I.I.I.I.I.I.I.I.I.I.I.I.f.p.6.3.oXoXoXoXoXoXoXoX",
"oXoXoXoXoXoXoX1.2.z.h.h.l.l.l.l.l.h.h.h.h.h.l.l.j.I.I.I.I.I.I.I.I.I.I.I.I.I.I.I.I.b.l.oXoXoXoXoXoXoX",
"oXoXoXoXoXoXoXC.9.z.h.l.h.l.l.l.h.h.h.h.h.h.h.l.j.I.I.I.I.I.I.I.I.I.I.I.I.I.I.I.I.d.l.oXoXoXoXoXoXoX",
"oXoXoXoXoXoXC.2.l.l.h.h.h.l.l.h.j.x.k.g.5.g.S.V.<.v.a.a.L.L.U.T.I.I.I.I.I.I.I.I.I.P.h.oXoXoXoXoXoXoX",
"oXoXoXoXoXoXQ 2.l.h.h.h.k.4.m.G N O . r 8 8 8 9 9 e s e y h j l Z +.:.r.L.I.I.I.I.I.j.l.oXoXoXoXoXoX",
"oXoXoXoXoXoXQ 7.z.k.N.S   8 = * : : , , , , > > > 5 5 5 5 5 5 5 2 5 5 4 i $ ;.i.R.I.b.z.oXoXoXoXoXoX",
"oXoXoXoXoXoX1.8.N.X - & % & & & , , , , % , , > , 5 5 5 5 5 5 5 5 5 5 5 2 2 5 d V c.f.l.oXoXoXoXoXoX",
"oXoXoXoXoXoXC.9.$.* > * , , * , , , , , , * * % * 5 6 5 5 5 5 5 5 5 5 5 5 5 5 5 a u.f.l.oXoXoXoXoXoX",
"oXoXoXoXoXoX} m.g.r , , * % , , , , , , * 2 , * 2 5 5 5 5 5 5 6 6 5 5 5 5 5 5 2 # R.e.5.oXoXoXoXoXoX",
"oXoXoXoXoXoX[ m g.n * > , , , , , , , , , * , % , 5 5 5 5 5 5 5 5 5 5 5 5 5 5 6 ,.s.C g.oXoXoXoXoXoX",
"oXoXoXoXoXoX[ 0 &.V.8 > % , , , , , , , , , * , , 5 5 5 5 5 5 5 5 5 5 5 5 5 5 j U.-.f g.oXoXoXoXoXoX",
"oXoXoXoXoXoX{ ; . g.M % > > : & , , , * , , , , > 5 5 5 5 5 5 5 5 5 6 5 5 5 5 -.L.p u g.oXoXoXoXoXoX",
"oXoXoXoXoXoX{ 7 = $.m.1 > * & : % , , % % % : : , 5 2 2 < 5 5 < 5 5 5 5 5 5 e c.*.5 f g.oXoXoXoXoXoX",
"oXoXoXoXoXoX{ ; :   g.  > * % % % * 1 8 w g X O + B # $ k f y a 5 5 5 5 5 5 V L.h < f g.oXoXoXoXoXoX",
"oXoXoXoXoXoX{ 7 : 1 n.%.= 9 g m F n.N.4.g.k.x.x.j.T.I.I.R.U.c.y.q.#.B j d a w.:.6 5 f g.oXoXoXoXoXoX",
"oXoXoXoXoXoX{ 7 & & X 4.m.<.8.l.h.h.j.h.h.h.h.h.j.I.I.I.I.I.I.I.I.I.I.U.u.w.L.h 2 2 f g.oXoXoXoXoXoX",
"oXoXoXoXoXoX{ 7 & & ; m.l.l.k.x.x.h.l.l.l.h.l.h.j.I.I.I.I.I.I.I.I.I.I.I.I.I.,.6 5 2 f g.oXoXoXoXoXoX",
"oXoXoXoXoXoX[ 7 > & * &.z.l.l.l.h.l.l.l.h.h.l.l.h.P.I.I.I.I.I.I.I.I.I.I.I.I.;.5 5 < f g.oXoXoXoXoXoX",
"oXoXoXoXoXoX[ 7 > & = &.j.8.0.l.l.l.l.l.l.h.l.h.j.P.I.I.I.I.I.I.I.I.I.R.R.I.;.5 5 5 f g.oXoXoXoXoXoX",
"oXoXoXoXoXoX[ 7 > > * &.j.7.9.l.j.l.l.l.l.h.l.l.j.I.I.I.I.I.I.I.I.I.I.f.Y.I.=.5 5 2 f g.oXoXoXoXoXoX",
"oXoXoXoXoXoX{ 7 > > = &.j.7.9.l.h.l.h.h.h.h.l.l.h.I.I.I.I.I.I.I.I.I.I.f.f.I.*.5 5 5 f g.oXoXoXoXoXoX",
"oXoXoXoXoXoX{ ; > > = &.z.7.9.l.h.l.l.l.l.h.l.l.j.I.I.I.I.I.I.I.I.I.I.Y.Y.I.*.5 5 2 f g.oXoXoXoXoXoX",
"oXoXoXoXoXoX{ 7 > > * &.l.7.9.l.h.z.l.l.l.h.h.l.j.I.I.I.I.I.I.I.I.I.I.f.f.I.*.5 5 5 f g.oXoXoXoXoXoX",
"oXoXoXoXoXoX[ 7 > > * &.j.7.9.l.l.l.l.l.l.l.l.z.j.P.I.I.I.T.I.I.I.I.I.f.f.I.=.5 5 5 f g.oXoXoXoXoXoX",
"oXoXoXoXoXoX[ 7 > > = &.l.7.9.l.l.l.l.l.h.l.l.h.j.P.I.I.I.I.I.I.I.I.I.Y.f.I.*.5 5 2 f g.oXoXoXoXoXoX",
"oXoXoXoXoXoX{ ; > > * &.j.7.9.l.h.l.z.l.h.x.h.h.j.I.P.I.I.I.I.I.I.I.I.f.Y.I.*.5 5 2 u g.oXoXoXoXoXoX",
"oXoXoXoXoXoX{ 7 > > = n.l.7.9.l.h.l.h.h.h.h.h.h.j.P.I.I.I.I.I.I.I.I.I.f.f.I.*.5 5 2 f g.oXoXoXoXoXoX",
"oXoXoXoXoXoX[ 7 & * = &.l.7.9.l.h.l.l.l.l.h.h.h.j.P.I.I.I.I.I.I.I.I.I.f.f.I.*.5 5 2 f g.oXoXoXoXoXoX",
"oXoXoXoXoXoXX.H G G G 4.z.7.9.l.h.l.l.l.l.h.l.h.j.I.I.I.I.I.I.I.I.I.I.f.f.I.i.:.:.:.q.k.oXoXoXoXoXoX",
"oXoXoXoXoXoXX.H G F G V.j.7.9.l.l.l.h.h.l.h.h.h.j.P.I.I.I.I.I.I.I.I.I.f.f.I.u.=.*.*.>.k.oXoXoXoXoXoX",
"oXoXoXoXoXoX[ ; % & * &.l.7.9.l.l.l.h.h.l.h.h.h.j.I.I.I.I.T.I.I.I.I.I.f.Y.I.*.2 5 2 f g.oXoXoXoXoXoX",
"oXoXoXoXoXoX{ 7 > > * &.l.7.9.l.l.l.h.h.h.h.l.l.j.I.I.I.I.I.I.I.I.I.I.Y.f.I.*.5 5 2 f g.oXoXoXoXoXoX",
"oXoXoXoXoXoX[ 7 > > = &.l.7.9.l.l.l.z.l.l.h.l.l.j.P.I.I.I.I.I.I.I.I.I.f.Y.I.*.5 5 5 f g.oXoXoXoXoXoX",
"oXoXoXoXoXoX[ ; > > * &.l.7.9.l.l.l.h.l.l.h.l.h.j.I.I.I.I.I.I.I.I.I.I.f.f.I.*.5 5 5 f g.oXoXoXoXoXoX",
"oXoXoXoXoXoX{ 7 > > = &.j.7.9.l.j.l.l.l.l.h.l.l.j.P.I.I.I.I.I.I.I.I.I.f.Y.I.*.5 5 2 u g.oXoXoXoXoXoX",
"oXoXoXoXoXoX{ 7 > > = &.z.7.9.l.l.l.h.h.l.h.l.h.j.I.I.I.I.I.I.I.I.I.I.f.f.I.*.5 5 2 f g.oXoXoXoXoXoX",
"oXoXoXoXoXoX[ 7 > > * n.l.7.0.l.l.z.h.l.l.h.h.h.j.P.I.I.I.I.I.I.I.I.I.f.Y.I.*.5 5 2 f g.oXoXoXoXoXoX",
"oXoXoXoXoXoX[ ; > > * &.j.7.9.l.l.l.l.l.h.h.h.h.j.I.I.I.I.I.I.I.I.I.I.f.f.I.=.5 5 5 f g.oXoXoXoXoXoX",
"oXoXoXoXoXoX{ 7 > * * n.z.7.9.l.h.l.l.l.z.h.h.h.h.P.I.I.I.I.I.I.I.I.I.Y.f.I.=.2 5 2 u g.oXoXoXoXoXoX",
"oXoXoXoXoXoX[ 7 > > * &.j.7.9.z.h.l.l.l.l.h.h.z.j.P.I.I.I.I.I.I.I.I.I.f.Y.I.=.5 5 2 f g.oXoXoXoXoXoX",
"oXoXoXoXoXoX[ 7 > > = &.l.7.8.h.h.l.l.l.l.h.h.h.j.I.I.I.I.I.I.I.I.I.I.f.Y.I.;.5 5 2 f g.oXoXoXoXoXoX",
"oXoXoXoXoXoX[ 7 > > * &.l.7.8.l.l.l.z.h.l.h.h.h.j.P.I.I.I.I.I.I.I.I.I.f.f.I.*.5 5 5 f g.oXoXoXoXoXoX",
"oXoXoXoXoXoX[ 7 > > = &.l.8.l.l.l.l.l.l.h.h.h.h.j.P.I.I.I.I.I.I.I.I.I.R.P.I.=.5 5 2 f g.oXoXoXoXoXoX",
"oXoXoXoXoXoX[ 7 > % 9 B.j.l.l.l.h.h.z.h.h.h.h.h.j.I.I.I.I.I.I.I.I.I.I.I.I.I.r.4 5 5 f g.oXoXoXoXoXoX",
"oXoXoXoXoXoX[ 7 > % m 4.J m.5.l.h.h.h.h.h.h.h.h.h.I.I.I.I.I.I.I.I.I.R.L.q.;.L.k 2 2 u g.oXoXoXoXoXoX",
"oXoXoXoXoXoX[ 7 > = m.%.* = q + n n.V.g.z.h.h.h.b.T.I.I.I.P.L.i.q.-.# i 3 4 r.>.5 < f g.oXoXoXoXoXoX",
"oXoXoXoXoXoX{ 7 %   k.X % > : % : 1 9 r X + N S F -.#.@.B @ t e 3 5 2 5 5 5 @.L.h < f g.oXoXoXoXoXoX",
"oXoXoXoXoXoX[ 7 * %.4.9 % , , * , , , , , : , % < 5 5 5 5 5 5 5 5 5 5 5 5 5 j U.+.5 f g.oXoXoXoXoXoX",
"oXoXoXoXoXoX[ ; q 5.%.* * % , , , , * , , , > % < 5 5 5 5 5 5 6 5 5 5 6 5 5 4 r.i.d f g.oXoXoXoXoXoX",
"oXoXoXoXoXoX[ 7 A k.O , * , , , , , , * % * , , , 5 5 5 5 5 5 5 5 5 5 5 5 5 5 @.T.C u g.oXoXoXoXoXoX",
"oXoXoXoXoXoX' w B.V.9 > , * , , , , , , > > , * , 5 5 5 5 5 5 5 5 5 5 5 5 5 < j U.w.j D.oXoXoXoXoXoX",
"~ ~ ~ K K K / N k.%.* , , , , , , , , , , , , * , 5 5 5 5 5 5 5 5 5 5 5 5 5 5 a w.U.D | _ _ _ _ ) ( ",
"~ ~ K K L ~ ] B.k.O : , , , , , , , , * , , , > , 5 5 5 5 5 5 5 5 5 5 5 5 5 5 2 @.I.t.o._ _ _ _ _ oX",
"oX~ K L L ^ E l.B.9 , , , , , , , , , , , , , * < 5 5 5 5 5 5 6 5 5 5 5 5 5 5 5 t U.R.2.) _ ) ) ) oX",
"oXoXoXoXoXoX1.h.%.* , , , * , , , , , , , , , > > 5 6 5 6 5 5 5 5 5 5 5 5 5 5 5 4 r.Y.l.oXoXoXoXoXoX",
"oXoXoXoXoXoX1.l.B.X = : : * > > > , , , > , , * > 5 5 5 5 5 5 5 5 5 5 5 5 2 2 a B L.P.j.oXoXoXoXoXoX",
"oXoXoXoXoXoX1.l.l.k.&.O 9 * : : > > > , > > * > , 5 5 5 5 5 5 5 5 5 < 5 6 y B w.I.I.Y.x.oXoXoXoXoXoX",
"oXoXoXoXoXoX1.l.l.l.l.z.B.H m r 9 1 * * % > % % > 5 2 5 < 5 5 3 4 i @ @.O.a.I.I.I.I.Y.j.oXoXoXoXoXoX",
"oXoXoXoXoXoX1.0.l.k.l.l.h.j.l.k.V.m.&.G S M m m + Z B V @.#.=.q.r.a.U.I.I.I.I.I.I.I.Y.j.oXoXoXoXoXoX",
"oXoXoXoXoXoX1.l.l.h.l.l.l.h.l.h.h.h.z.z.l.j.l.l.j.T.I.I.I.I.I.I.I.I.I.I.I.I.I.P.I.I.f.j.oXoXoXoXoXoX",
"oXoXoXoXoXoX1.l.l.l.0.9.l.x.h.l.h.h.l.l.l.z.l.l.j.I.I.I.I.I.I.I.I.P.I.I.I.I.Y.R.I.I.R.j.oXoXoXoXoXoX",
"oXoXoXoXoXoX1.l.l.h.l.8.h.h.l.l.h.h.z.z.l.h.h.z.j.I.I.I.I.I.I.I.I.I.I.I.I.I.f.I.I.I.R.j.oXoXoXoXoXoX",
"oXoXoXoXoXoX1.k.l.l.l.7.k.h.h.l.h.h.h.h.l.l.h.h.j.I.I.I.I.I.I.I.I.I.I.I.I.R.f.I.I.I.Y.j.oXoXoXoXoXoX",
"oXoXoXoXoXoX1.l.l.l.l.7.9.l.h.l.h.h.l.l.h.l.l.l.j.I.I.I.I.I.I.I.I.I.I.I.I.f.f.I.I.I.P.j.oXoXoXoXoXoX",
"oXoXoXoXoXoX2.l.l.l.l.7.8.l.h.l.z.h.h.l.h.l.l.l.j.P.I.I.I.I.I.I.I.I.I.I.I.f.f.I.I.R.P.j.oXoXoXoXoXoX",
"oXoXoXoXoXoXC.9.l.l.l.8.2.h.h.l.l.l.l.l.h.h.h.z.j.I.I.I.I.I.I.I.I.I.I.I.P.b.Y.I.I.I.P.j.oXoXoXoXoXoX",
"oXoXoXoXoXoX2.l.l.l.l.9.2.l.h.l.l.l.z.h.h.x.h.h.j.R.I.I.I.I.I.I.I.I.I.I.P.d.P.I.I.I.P.h.oXoXoXoXoXoX",
"oXoXoXoXoXoX2.l.l.h.l.k.2.9.h.h.l.h.z.l.z.l.l.h.h.P.I.I.I.I.I.I.I.I.I.I.f.b.I.I.I.I.P.j.oXoXoXoXoXoX",
"oXoXoXoXoXoX1.l.h.h.l.l.7.8.h.h.h.h.l.l.h.h.l.l.j.P.I.I.I.I.I.T.I.I.I.I.f.d.I.I.I.I.P.j.oXoXoXoXoXoX",
"oXoXoXoXoXoX1.9.h.l.h.h.7.7.l.h.z.h.l.l.h.h.h.h.j.I.I.I.I.I.I.I.I.I.I.I.b.f.I.I.I.I.P.j.oXoXoXoXoXoX",
"oXoXoXoXoXoX2.l.h.l.l.l.8.2.l.h.l.h.h.l.h.h.h.h.h.I.I.I.I.I.I.I.I.I.I.R.b.P.I.I.I.I.P.x.oXoXoXoXoXoX",
"oXoXoXoXoXoX1.l.l.l.l.l.l.2.l.h.l.l.h.h.h.h.h.h.j.I.I.I.I.I.I.I.I.I.I.P.d.P.I.I.I.I.Y.j.oXoXoXoXoXoX",
"oXoXoXoXoXoX1.9.l.l.h.h.l.2.l.h.l.l.z.h.h.k.h.h.j.T.I.I.I.I.I.I.I.I.I.P.d.I.I.I.I.I.Y.j.oXoXoXoXoXoX",
"oXoXoXoXoXoX1.l.h.h.h.h.l.7.9.h.l.l.l.l.l.l.h.h.h.I.I.I.I.I.I.I.I.I.I.Y.d.I.I.I.I.I.Y.x.oXoXoXoXoXoX",
"oXoXoXoXoXoXC.0.l.x.h.h.l.7.l.h.l.l.l.l.l.l.z.h.j.I.I.I.I.I.I.I.I.I.I.Y.f.I.I.I.I.I.f.x.oXoXoXoXoXoX",
"oXoXoXoXoXoX1.8.h.l.l.l.h.8.9.h.l.l.h.h.h.h.l.l.h.P.I.I.I.I.I.I.I.I.I.Y.P.I.I.I.I.I.f.h.oXoXoXoXoXoX",
"oXoXoXoXoXoX1.7.l.z.l.h.h.9.9.h.h.l.h.h.h.h.l.l.j.P.I.I.I.I.I.I.P.I.I.Y.P.I.I.I.R.I.d.h.oXoXoXoXoXoX",
"oXoXoXoXoXoX1.2.K.{.).k.l.l.l.l.l.h.l.l.h.h.h.l.j.I.I.I.I.I.P.I.I.I.I.R.I.I.T./.].H.b.h.oXoXoXoXoXoX",
"oXoXoXoXoXoX1.2.(.XX XK.k.l.l.l.h.l.h.h.h.h.z.l.j.P.I.I.I.I.I.I.I.I.I.R.I.I.Q. X X!.8.h.oXoXoXoXoXoX",
"oXoXoXoXoXoX1.Q _.XXXX`.l.l.h.l.h.l.h.h.l.l.h.h.j.P.I.P.I.P.P.P.I.I.I.I.I.R.].XX X~.7.h.oXoXoXoXoXoX",
"oXoXoXoXoXoXoXQ ^.}. X[.z.l.k.2.U U U I U U U I U ! ! Q Q Q Q ! ! 1.d.I.I.W.}. X[.J.l.oXoXoXoXoXoXoX",
"oXoXoXoXoXoXoXC.Z.(.'._.9.l.l.U ~ ~ K K ~ ~ ~ K L ` _ ` _ ` _ _ _ ` 3.I.I.E.`.'.~.z.k.oXoXoXoXoXoXoX",
"oXoXoXoXoXoXoXoX1.A.F.Z.C.2.7.Y ~ ~ K ~ ~ ~ ~ ~ L ` _ _ _ _ _ _ ) ) 6.d.j.h.H.H.G.k.oXoXoXoXoXoXoXoX",
"oXoXoXoXoXoXoXoXoXoXQ 1.C.Q C.Q U ( K L ~ ^ ^ ~ L ) )  ._ _ T _ ..1.l.l.l.l.h.h.oXoXoXoXoXoXoXoXoXoX",
"oXoXoXoXoXoXoXoXoXoXoXoX1.1.C.1.C.1.E E R W W R Q 7.8.7.8.7.8.9.l.l.l.l.k.l.oXoXoXoXoXoXoXoXoXoXoXoX",
"oXoXoXoXoXoXoXoXoXoXoXoXoXoXoXoXoX1.1.1.1.1.1.C.2.k.h.h.h.h.h.h.h.oXoXoXoXoXoXoXoXoXoXoXoXoXoXoXoXoX",
"oXoXoXoXoXoXoXoXoXoXoXoXoXoXoXoXoXoXoXoXoXoXoXoXoXoXoXoXoXoXoXoXoXoXoXoXoXoXoXoXoXoXoXoXoXoXoXoXoXoX",
"oXoXoXoXoXoXoXoXoXoXoXoXoXoXoXoXoXoXoXoXoXoXoXoXoXoXoXoXoXoXoXoXoXoXoXoXoXoXoXoXoXoXoXoXoXoXoXoXoXoX",
"oXoXoXoXoXoXoXoXoXoXoXoXoXoXoXoXoXoXoXoXoXoXoXoXoXoXoXoXoXoXoXoXoXoXoXoXoXoXoXoXoXoXoXoXoXoXoXoXoXoX",
"oXoXoXoXoXoXoXoXoXoXoXoXoXoXoXoXoXoXoXoXoXoXoXoXoXoXoXoXoXoXoXoXoXoXoXoXoXoXoXoXoXoXoXoXoXoXoXoXoXoX",
"oXoXoXoXoXoXoXoXoXoXoXoXoXoXoXoXoXoXoXoXoXoXoXoXoXoXoXoXoXoXoXoXoXoXoXoXoXoXoXoXoXoXoXoXoXoXoXoXoXoX"
};
