/* XPM */
static char *result[] = {
/* columns rows colors chars-per-pixel */
"100 50 176 2 ",
"   c #560201",
".  c #5C0000",
"X  c #660602",
"o  c #6D0501",
"O  c #6C090B",
"+  c #6E0608",
"@  c #730603",
"#  c #7A0A06",
"$  c #7C0708",
"%  c #740B0B",
"&  c #7C0C0B",
"*  c #740806",
"=  c #6F0D10",
"-  c #7A0F11",
";  c #512E3E",
":  c #5D2F3F",
">  c #5D303F",
",  c #642F3C",
"<  c #6E2E39",
"1  c #6C2A36",
"2  c #762C36",
"3  c #7D2B34",
"4  c #712D38",
"5  c #7D343F",
"6  c #2D374E",
"7  c #27384F",
"8  c #29384F",
"9  c #32374C",
"0  c #3B3549",
"q  c #3F3447",
"w  c #273950",
"e  c #293950",
"r  c #3F3F56",
"t  c #453345",
"y  c #483042",
"u  c #423448",
"i  c #553141",
"p  c #5B3040",
"a  c #543C4F",
"s  c #5C3C4D",
"d  c #463F54",
"f  c #4B3E53",
"g  c #523D51",
"h  c #633B4B",
"j  c #693A49",
"k  c #6F3947",
"l  c #7B3742",
"z  c #733845",
"x  c #783844",
"c  c #763541",
"v  c #2F425B",
"b  c #3D4057",
"n  c #32435C",
"m  c #3B4158",
"M  c #424056",
"N  c #484054",
"B  c #860E0B",
"V  c #8B0B08",
"C  c #870A07",
"Z  c #87100E",
"A  c #8C110E",
"S  c #90120D",
"D  c #810F10",
"F  c #8A1312",
"G  c #8F1A1E",
"H  c #85191B",
"J  c #931619",
"K  c #951A1C",
"L  c #9B1D1E",
"P  c #971511",
"I  c #A51D1E",
"U  c #AC1E1D",
"Y  c #A71A16",
"T  c #9B201E",
"R  c #B4201E",
"E  c #AD321E",
"W  c #BA3D1E",
"Q  c #801D22",
"!  c #9E1E20",
"~  c #A21F21",
"^  c #AC1F21",
"/  c #B01F22",
"(  c #8E282F",
")  c #8F252A",
"_  c #9E2326",
"`  c #97272C",
"'  c #9C262B",
"]  c #91282E",
"[  c #832A32",
"{  c #8B2930",
"}  c #86353E",
"|  c #8A353E",
" . c #9D3237",
".. c #95333A",
"X. c #9B3238",
"o. c #A52123",
"O. c #AD2324",
"+. c #A42529",
"@. c #A92529",
"#. c #B02425",
"$. c #BB2525",
"%. c #B52C25",
"&. c #B42E2F",
"*. c #BC2D2D",
"=. c #A83425",
"-. c #BD3223",
";. c #AD2F32",
":. c #A52F34",
">. c #B22E31",
",. c #A33136",
"<. c #AB3032",
"1. c #B73C31",
"2. c #DD191F",
"3. c #DD1920",
"4. c #D61920",
"5. c #E11A21",
"6. c #C32625",
"7. c #CC2724",
"8. c #C62826",
"9. c #CE2A26",
"0. c #C42B2A",
"q. c #C92B29",
"w. c #D12925",
"e. c #C93E22",
"r. c #D0332A",
"t. c #BC4C3A",
"y. c #BA5637",
"u. c #C5491F",
"i. c #C3511D",
"p. c #D5671D",
"a. c #E2721E",
"s. c #C84321",
"d. c #DA5724",
"f. c #D24233",
"g. c #CD5934",
"h. c #DD6E2F",
"j. c #D8742B",
"k. c #E06020",
"l. c #823640",
"z. c #C35D43",
"x. c #C97745",
"c. c #DD744D",
"v. c #DE794B",
"b. c #DE7A51",
"n. c #ED811D",
"m. c #F48F1C",
"M. c #F28A27",
"N. c #F69A27",
"B. c #F9A822",
"V. c #F4A13B",
"C. c #DC894D",
"Z. c #DF8255",
"A. c #D58352",
"S. c #EF9241",
"D. c #F8BB41",
"F. c #E9A75C",
"G. c #D79562",
"H. c #DFA568",
"J. c #EBAF6F",
"K. c #F1B862",
"L. c #E5B473",
"P. c #F9C74F",
"I. c #F9D365",
"U. c #EEC87D",
"Y. c #FBD877",
"T. c #FBE275",
"R. c #FDE37D",
"E. c #F3D282",
"W. c #FFE781",
"Q. c #FDEA86",
"!. c #F5E28B",
"~. c #FDED89",
"^. c #FEF695",
"/. c #FEF996",
"(. c #FFFB98",
"). c None",
/* pixels */
").).).).).).).).).).).).).).).).).).).).).).).).).).).).).).).).).).).).).).).).).).).).).).).).).).).).).).).).).).).).).).).).).o ).).).).).).).).).).).).).).).).).).).).).).).).).).).).).).).).).).",
").).).).).).).).).).).).).).).).).).).).).).).).).).).).).).).).).).).).).).).).).).).).).).).).).).).).).).).).).).).).).).).).X o o ).).).).).).).).).).).).).).).).).).).).).).).).).).).).).).).).).",
").).).).).).).).).).).).).).).).).).).).).).).).).).).).).).).).).).).).).).).).).).).).).).).).).).).).).).).).).).).).).).).).X @ @ X ).).).).).).).).).).).).).).).).).).).).).).).).).).).).).).).).",
").).).).).).).).).).).).).).).).).).).).).).).).).).).).).).).).).).).).).).).).).).).).).).).).).).).).).).).).).).).).).).).).X @ o X ).).).).).).).).).).).).).).).).).).).).).).).).).).).).).).).).",
").).).).).).).).).).).).).).).).).).).).).).).).).).).).).).).).).).).).).).).).).).).).).).).).).).).).).).).).).).).).).).).).X @ o X ).).).).).).).).).).).).).).).).).).).).).).).).).).).).).).).).",
").).).o o o o ).).).).).).).).).).).).).).).).).).).).).).).).).).).).).).).).).).).).).).).).).).).).).).).).).).).).).).).).).+ * @ % ).).).).).).).).).).).).).).).).).).).).).).).).).).).).).).).).",
").).o @ o @ o # ^ ^ / / #.#.#.#.#.#.#.#.#.#.#./ #.@.#./ #.@.` ` ` ` ` ` ` ` ` ` ` ` ` ` ` ` ` ` ` ` ` ` ` ` ` ` ` ` ` ` ` ` ` ` - Q L #.$.#.#.#.#.#.#.#.#.#.#.#.#.#.#.#.#.#.%.#.O.^ ^ ^ U ).).).).).).).",
").).X o o o o Z $.6.6.8.8.7.9.7.7.7.w.9.7.w.q.9.;.h ;.w.w.&.s r r r r r d r r r M b b M b M M m b d r r r r b d r r r r r r r d j  .q.w.7.7.9.9.9.9.w.9.w.w.w.w.9.w.9.7.7.v.F.F.C.g.-.#.#.O.).).).).).).",
").).@ @ o o o A 7.9.w.9.9.9.9.9.9.w.9.w.9.9.w.*.g n g >.r.w.:.N n n n n n n n n n n n n n n n n n n n n n n n n n n n v n N k ,.0.9.0. .,.9.9.9.9.9.9.9.9.9.9.9.w.w.9.9.7.b.~.Q.Q.Y.S.d.%.#.O.).).).).).",
").).C o o @ o Z #.6.9.w.9.9.9.9.9.w.9.r.9.w.9.z n n n s *.w.9.,.d v n n n n n n n n n n n n n n n n n n n n n n n n m g l.*.9.0.,.z N n N >.9.9.9.w.w.w.w.w.9.w.9.9.9.w.7.f.E././.^.Q.V.k.-.O.U ).).).).",
").3.V o @ o o Z O.$.9.w.9.9.9.9.w.9.9.9.9.9.,.m n n n n s *.w.9.X.N m m m m m m m m m m m m m m m m m m m m m m M j X.q.0.<.z N m n n n n z 9.9.w.9.w.9.9.9.9.9.9.w.9.9.9.7.b.^.^.^.^.T.N.d.#.O.).).).).",
").5.V o o o o Z O.$.9.9.r.9.w.r.9.9.r.q.w.9.h n n n n n n h 0.w.9.>.<.<.<.<.<.<.<.<.<.<.<.<.<.<.<.<.<.<.<.<.;.;.&.q.<.l N m n n n n n n n N *.9.w.9.w.r.9.9.w.9.9.9.9.9.9.9.r.J./.^.^.^.P.M.s.#.O.).).).",
").2.C o o @ o V 6.9.9.9.w.w.9.9.w.q.w.9.w.:.m n n n n n n n l.w.w.w.w.w.w.w.w.w.w.w.w.w.w.w.w.w.w.w.w.w.w.w.w.w.r.0.s n n n n n n n n n n n ..w.9.9.9.9.9.9.9.9.9.w.9.9.9.9.9.f.U.^.^./.R.B.a.#.#.).).).",
").^ # o o @ o A 9.w.9.9.w.w.9.9.w.w.w.w.w.z n n n n n n n M *.w.9.9.9.9.9.9.9.9.9.w.9.9.w.w.9.9.9.9.w.9.9.9.9.9.w.9.x n n m n n n n n n n n z 9.w.9.9.9.9.9.9.9.9.7.7.7.9.9.9.7.r.c.Z.b.b.d.e.#.^ ).).).",
").U # o o o o S 9.9.9.9.9.9.9.9.w.w.w.9.*.N n n n n n n n s 0.w.9.9.w.9.9.w.w.9.w.9.9.9.9.9.9.9.9.9.9.9.w.w.7.9.w.w.,.n n n n n n n n n n n g q.w.w.9.9.9.9.9.9.q.7.0.6.$.%.$.$.$.$.$.6.6.6.$.#.#.^ ).).",
").U & o o @ o S 9.9.w.w.r.w.9.9.w.9.9.w.,.n n n n n n n n l w.9.9.9.9.9.9.r.w.w.9.w.q.0.0.0.0.0.0.0.0.q.q.9.w.w.w.w.&.N n n n n n n n n n n M >.w.w.r.9.9.w.9.9.9.9.9.9.9.9.7.6.6.*.$.#./ #./ O.#.O.).).",
").o.& o @ o o S 9.9.w.w.9.9.w.q.w.w.9.9.l n n n n n n n n l.w.9.9.r.w.w.q.w.9.w.r.:.s N g g g g g g g g s k >.9.9.9.q.s n n n n n n n n n n m ,.r.w.w.w.9.9.9.9.w.w.w.w.9.9.9.9.9.9.9.9.7.8.8.#.#.O.).).",
").O.# o o o o S 9.9.9.9.9.w.w.w.w.r.9.0.s n n n n n n n M *.9.w.9.w.w.q.w.9.9.9.9.h n n n n n n v n n n n n l 9.9.w.w.l n n n n n m n n n n m l.r.w.w.9.9.9.9.9.9.9.9.9.9.9.w.9.w.9.9.9.9.9.9.$.#.O.).).",
").O.# o o @ o S 9.w.w.9.w.w.w.w.q.9.w.0.N n n n n n n n f 0.9.q.9.9.w.w.w.w.9.w.>.d n n n n n n n n n n n n x w.9.w.w.l.n n n n m n n n n n n x w.9.9.9.9.6.6.9.9.9.w.9.9.9.9.9.9.9.w.9.9.9.9.I O./ ).).",
").o.C o o o o S 9.9.9.r.w.w.w.q.9.9.w.>.M n n n n n n n s q.9.w.q.w.w.w.q.w.w.w.,.n n n n n n n n n n n n n l w.9.9.w.,.m n n n n n n n n n n k 9.9.w.9.9.8.$.7.q.8.w.9.9.w.9.9.9.9.9.9.9.9.9.P L #.).).",
").o.# o @ o o S 9.w.q.9.9.w.w.9.w.w.w.,.n n n n n n n n j 9.9.9.w.w.q.w.9.9.w.w.l.m n n n n n n n n n n n n l w.w.w.w.>.M n n n n n n n n n n j q.w.9.9.w.9.$.6.7.$.q.9.7.9.w.9.9.9.9.r.9.9.9.P A O.).).",
").U & o o o o S 9.w.9.9.9.9.9.9.w.w.w.,.n n n n n n n n x 9.w.9.w.w.w.w.w.9.9.w.l.d n n n n n n n n n n n n x w.w.q.w.&.N n n n n n n n n n n h q.w.9.9.9.9.#.$.9.$.8.9.8.9.9.w.9.9.w.w.9.w.9.Y & O.).).",
").^ B o o o o S 9.w.w.w.w.9.9.9.w.w.w.l.n n n n n n n n l.9.w.w.r.w.w.q.9.w.9.9.l.n n n n n n n n n n n n n l w.w.9.w.0.N n n n n n n n n n v N q.9.9.9.9.w.*.$.9.$.$.9.$.7.w.w.9.w.9.9.9.9.w.U # o.).).",
").O.# o o @ o S q.w.w.w.w.9.9.9.9.9.r.l.n n n n n n n m l.w.9.9.9.w.w.w.9.w.w.w.l.n n n n n n n n n n n n n l w.q.w.w.0.g n n n n n n n n n v a 0.w.w.9.9.9.$.#.7.$.$.9.6.8.w.r.9.9.9.9.9.w.w.R # I ).).",
").I # o X o X A 8.8.8.7.q.q.6.q.q.q.8.l e n n n r v v r | 8.8.8.q.q.q.8.8.q.8.7.c v n n n e n n n v r n n e l 7.q.q.6.0.g e n n n n n n n v n g *.q.7.q.7.8.$.o.6.#.O.8.$.$.q.8.q.q.q.7.q.8.7.R * L I ).",
").K + . X . . & #.#.#.#.#.#.#.#.#.#.#.4 e e e e w w w w 2 #.#.#.#.#.#.#.#.#.#.#.< e 8 e e e e e e w w e e e , #.#.#.#.@.t e e e e e 6 6 8 8 e t @.#.O.#.O.#.o.L O.o.I O.~ ^ #.#.#.#.O.#.#.#.#.L o J J ).",
").J O . . . . & O.#.#.#.#.#.#.#.#.#.#.4 8 e 8 8 e e 7 7 4 / #.#.#.#.#.#.#.#.#./ < 7 e e e e e 6 e 8 e e e e , #.#.#.#.@.u e e e e e e e 8 8 8 t @.#.#.#.#.O.~ L O.~ ! O.I @.#.#.#.#.#.#.#.#.#.L X G ).).",
").J O . . . . & #.#.#.#.#.#.O.O.#.#.#.2 8 8 e e e 7 e 7 < #.#.O.O.O.#.O.#.#.#.#.4 e 8 e e e e e e e e e e e , #.#.#.#.+.u e e e e e e e 8 8 8 t @.#.#.#.O.#.! ! O.! @.O.~ O.#.O.@.#.#.#.O.#.#.J O K ).).",
").J O . . . . - O.#.#.#.#.#.#.#.#.#.#.[ e e e e e e 8 e , O.#.#.#.@.#.#.#.#.#.#.2 e e e 6 e e e e e e e e e , #.#.#.#.' 0 e e e e e e 6 e e e y o.#.#.#.#.O.! ~ O.L @.#.O.O.#.#.#.#.#.#.#.O.#.F + K ).).",
").K O . . . . % #.#.#.#.#.O.#.#.#.#.#.{ 9 e e e e e e 7 i @.#.#.#.#.#.#.#.#.#.#.[ e e e e e e 6 e e e e e e , #.#.#.#.] e e e e 6 e e e e e w i #.#.#.#.#.O.L ^ O.I #.O.O.#.#.#.#.#.#.#.#.#.#.D - K ).).",
").K X . . X . & O.#.#.#.#.&.O.#.#.#.#.` 9 e e e e e 8 8 t @.O.O.#.#.#.#.#.#.#.#.{ 6 e e e e e e e e e e e e p #.#.#.#.[ 6 e e e e e e e e e w , O.#.O.#.#.O.~ #.O.O.O.#.#.#.#.#.#.#.#.#.#.#.O.D G L ).).",
").K O . . . . & #.#.#.O.#.#.#.O.#.#.#.+.u e e e e e e e 0 ' #.#.#.#.#.#.#.#.#.#.+.0 e 6 e e e e e e e e e e < #./ #./ 4 e e e e e e e e e e e < #.#.#.#.#.o.o.#.O.#.#.#.#.#.#.O.#.O.#.#.O.#.o.J K K ).).",
").G + . . . . & #.#.#.#.O.O.#.#.#.#.#.O.i w 8 e e e e e 6 ( #.#.#.#.#.#.#.#.O.#.O.> e w w w w w w w w w 8 6 < #.#.#.O.> 8 e 8 e e e e e e e e 3 #.#.#.#.O.O.#.#.#.#.#.#.#.#.#.#.#.#.O.#.#.#.@.I ! K ).).",
").! X . . . . & #.#.#.#.#.;.#.#.#.#.#.#.4 8 e e e e e e 8 2 #.#.#.#.#.O.#.#.#.#.O.+.< , , , , , , , , , < [ @.#.#.#.@.t e 8 e e e e e 6 e e e { #.#.#.#.O.#.#.#.#.#.#.#.#.#.#.#.O.O.O.o.o.~ ! ! G ! ).).",
").K X . . . . - @.#.#.#.#.#.#.#.#.#.O.#.( 6 e 8 e e 8 e 8 > O.#.@.#.#.#.#.#.#.#.#.#.#.#.O.#.#.#.#.#.O.#.#.#.O.#.O.#.` 9 e e e e e e e e e e 0 +.#.#.#.#.#.#.#.#.#.#.#.O.O.o.o.o.o.T T T L L L L ! G ).).",
").G + . . X . & #.#.#.#.#.#.#.#.O.#.#.#.@.t 8 8 e e 8 8 8 u @.#.#.#.#.&.#.O.#.#.O.#.O.#.#.O.#.#.O.#.#.#.#.#.#.#.#.#.3 6 e e e e e e e e 6 e t O.#.#.#.#.#.#.O.O.o.o.o.o.o.! o.! I o.o.+.@.O.! K K G ).).",
").L + . . . . & #.O.O.#.#.#.#.#.#.#.#.#.#.< 8 8 e e e 6 8 6 ( #.#.#.#.#.#.#.#.#.#.#.#.#.O.#.#.O.#.#.#.#.#.#.#.#.#.O.> e 8 8 e e e e e 8 7 7 < O.O.#.#.#.#.#.#.@.O.O.#.#.#.#.#.#.z.H.L.L.H.j.i.T K ).).).",
").3.$ . . . . % _ o.#.#.#.#.#.#.#.#.#.#.#.` 0 e e e e e 8 6 [ #.#.#.#.#.#.#.#.#.#.#.#.#.#.#.#.#.#.#.#.#.#.#.#.#.#.@.i 6 8 e e e 8 8 e e 8 6 { #.O.#.#.#.O.;.#.#.#.#.#.O.#.#.O.z.!./././.T.B.p.T K ).).).",
").5.$ . . . . % T ! O.#.#.#.#.O.#.#.#.#.#.O., 8 e e e e 8 1 O.#.@.3 < < < < c < < < < < < < < 4 < < < < < < < < 3 ' +.( , u 6 e e e 8 8 7 t @.O.#.#.#.#.#.#.#.#.#.#.O.#.#.O.1.U.^.^.^.^.V.m.E K J ).).).",
").2.$ . . . . % K ! #.#.#.#.#.#.#.#.#.#.O.#.` 0 8 6 8 6 < @.#.@., 6 w e e w w w e e e e e e w e e e e e 8 7 8 e 6 0 , ] @.+.[ , 0 6 7 e 8 2 #.#.#.#.#.#.#.#.#.#.#.#.#.#.#.O.G./.^.^.^.I.M.i._ K ).).).).",
").).* . . . . % o.o.#.#.#.#.#.#.#.#.#.#.#.#.#.4 8 7 8 , @.O.O.4 9 e e e e e e e e e e e w e e e e e e e e e e e 8 e w 6 i 3 +.O.+.[ : 0 y +.#.#.#.#.#.#.#.#.#.#.#.#.#.#.#.t.!.^.^.^.Y.M.u.T L J ).).).).",
").).. . . X . & O.O.O.#.#.#.#.O.#.@.#.#.#.#.#.@.: 8 : @.#.O.4 8 w e e e w e e e e w e e w w w w e w e w e w e e e e w w w e 0 < ` @.@.' ' O.#.#.#.#.#.#.#.#.#.#.#.#.#.#.O.A.W.R.Y.K.h.-.T K K ).).).).).",
").).. . . . . % L L _ o.@.o.o.U @.o.o.^ o.^ ^ o._ 1 _ o.^ ) ; ; y y y y y y y y y y y y y ; y y y y y y y y y y y y y y y y y y ; 2 +.o.o.o.O.O.o.O.O.o.o.O.@.o.o.o.o.o.U y.x.x.y.=.T T K K ).).).).).).",
").).  . . . . X ).J J K K J K K K K K K K K K K K K K K K G G G G G G G G G G G G G G G G G G G G G G G G G G G G G G G ! K Q G = O - H K K K K K K K K K K L K K K K T K J K J G J J G ).).).).).).).).",
").).).. .   ).).).).).).).).).).).).).).).).).).).).).).).).).).).).).).).).).).).).).).).).).).).).).).).).).).).).).).).).).).  . . . ).).).).).).).).).).).).).).).).).).).).).).).).).).).).).).).).",
").).).).).).).).).).).).).).).).).).).).).).).).).).).).).).).).).).).).).).).).).).).).).).).).).).).).).).).).).).).).).).).).. . . . ).).).).).).).).).).).).).).).).).).).).).).).).).).).).).).).).",
").).).).).).).).).).).).).).).).).).).).).).).).).).).).).).).).).).).).).).).).).).).).).).).).).).).).).).).).).).).).).).).).  . . . ).).).).).).).).).).).).).).).).).).).).).).).).).).).).).).).).",
").).).).).).).).).).).).).).).).).).).).).).).).).).).).).).).).).).).).).).).).).).).).).).).).).).).).).).).).).).).).).).).).. . . . ).).).).).).).).).).).).).).).).).).).).).).).).).).).).).).).).",
").).).).).).).).).).).).).).).).).).).).).).).).).).).).).).).).).).).).).).).).).).).).).).).).).).).).).).).).).).).).).).).).  . . ).).).).).).).).).).).).).).).).).).).).).).).).).).).).).).).).).",
").).).).).).).).).).).).).).).).).).).).).).).).).).).).).).).).).).).).).).).).).).).).).).).).).).).).).).).).).).).).).).).).).  ).).).).).).).).).).).).).).).).).).).).).).).).).).).).).).).).).)."
};
