/* XPM */
static char *result[] = {
/* columns rows colors chars-per-pixel */
"100 50 188 2 ",
"   c #6B5A3D",
".  c #67583F",
"X  c #725E3B",
"o  c #7D5F37",
"O  c #75603A",
"+  c #7B6439",
"@  c #726D3E",
"#  c #7A723C",
"$  c #77703D",
"%  c #27374F",
"&  c #29374F",
"*  c #2B394E",
"=  c #343D4B",
"-  c #393F4A",
";  c #3F3F47",
":  c #273650",
">  c #293750",
",  c #2A3950",
"<  c #2E3F5D",
"1  c #3C4149",
"2  c #2F405C",
"3  c #3A4757",
"4  c #3E4A55",
"5  c #32425C",
"6  c #384658",
"7  c #434247",
"8  c #4A4945",
"9  c #424348",
"0  c #4B4443",
"q  c #524D43",
"w  c #594E41",
"e  c #4D544E",
"r  c #5B5241",
"t  c #5D5E47",
"y  c #51564D",
"u  c #5F574C",
"i  c #54594B",
"p  c #5B5D48",
"a  c #434D53",
"s  c #4B5250",
"d  c #475150",
"f  c #61584B",
"g  c #665A43",
"h  c #5F6047",
"j  c #626246",
"k  c #6B6842",
"l  c #716C40",
"z  c #EC2B1F",
"x  c #E91A23",
"c  c #EA2222",
"v  c #EA2B22",
"b  c #EC3E20",
"n  c #9F772E",
"m  c #826737",
"M  c #856936",
"N  c #926E33",
"B  c #857A37",
"V  c #8A7D35",
"C  c #827539",
"Z  c #827838",
"A  c #977332",
"S  c #9B7431",
"D  c #997D31",
"F  c #A47A2F",
"G  c #AB7D2D",
"H  c #B27C2C",
"J  c #A07730",
"K  c #DC441F",
"L  c #DE491F",
"P  c #E7471E",
"I  c #E1511F",
"U  c #E4611D",
"Y  c #E86A1D",
"T  c #F26E1C",
"R  c #EF751F",
"E  c #EE781F",
"W  c #F1771C",
"Q  c #F27B1C",
"!  c #F17714",
"~  c #DC4420",
"^  c #DD4920",
"/  c #CA5627",
"(  c #EE5622",
")  c #EF5A22",
"_  c #F15A23",
"`  c #F05623",
"'  c #CF6D28",
"]  c #DB6324",
"[  c #D37626",
"{  c #D47728",
"}  c #DA7923",
"|  c #E46D23",
" . c #F16222",
".. c #F26C20",
"X. c #E77F21",
"o. c #EA7721",
"O. c #BDA01F",
"+. c #9C892E",
"@. c #948431",
"#. c #A38E2C",
"$. c #BF8827",
"%. c #B2812B",
"&. c #BD8629",
"*. c #AC9427",
"=. c #AF9825",
"-. c #A5912A",
";. c #AA9429",
":. c #B29924",
">. c #BB9B24",
",. c #BDA020",
"<. c #DE9E1D",
"1. c #F3831E",
"2. c #F48C1C",
"3. c #F38816",
"4. c #E49C1F",
"5. c #EA9F1D",
"6. c #F59314",
"7. c #F6941B",
"8. c #F79B1A",
"9. c #F89D1A",
"0. c #F79F17",
"q. c #C3A41E",
"w. c #CDAB1A",
"e. c #CAA61C",
"r. c #D0AE19",
"t. c #DDAE16",
"y. c #D7B216",
"u. c #DCB513",
"i. c #DFB813",
"p. c #F8AE09",
"a. c #E6BC0E",
"s. c #E9BE0E",
"d. c #FAB60D",
"f. c #FBBD0B",
"g. c #EBA11E",
"h. c #F9A617",
"j. c #FAAB15",
"k. c #F5A41A",
"l. c #F9A618",
"z. c #FAA91A",
"x. c #F6A617",
"c. c #E6BD10",
"v. c #E3B612",
"b. c #F9B311",
"n. c #C58B27",
"m. c #CB8D25",
"M. c #C79623",
"N. c #D49323",
"B. c #DB9621",
"V. c #DE9920",
"C. c #F18220",
"Z. c #F48C29",
"A. c #F38926",
"S. c #E19A20",
"D. c #E89221",
"F. c #F59733",
"G. c #F8AA23",
"H. c #F8B628",
"J. c #F4A53C",
"K. c #F8B836",
"L. c #EDC10D",
"P. c #FDC606",
"I. c #FFCB03",
"U. c #F2C50A",
"Y. c #FCC208",
"T. c #FDCC0A",
"R. c #F6C707",
"E. c #FBC412",
"W. c #FDD114",
"Q. c #FBDB3B",
"!. c #F7BE4A",
"~. c #F8BB58",
"^. c #F5A749",
"/. c #FBDF47",
"(. c #FAC756",
"). c #F8C548",
"_. c #F8C863",
"`. c #FAD966",
"'. c #FCD975",
"]. c #FBE76C",
"[. c #FBE47C",
"{. c #F9E072",
"}. c #FCE684",
"|. c #FCF188",
" X c #FDF694",
".X c #FEF897",
"XX c #FDF898",
"oX c None",
/* pixels */
"oXoXoXoXoXoXoXoXoXoXoXoXoXoXoXoXoXoXoXoXoXoXoXoXoXoXoXoXoXoXoXoXoXoXoXoXoXoXoXoXoXoXoXoXoXoXoXoXoXoXoXoXoXoXoXoXoXoXoXoX( oXoXoXoXoXoXoXoXoXoXoXoXoXoXoXoXoXoXoXoXoXoXoXoXoXoXoXoXoXoXoXoXoXoXoXoXoXoXoX",
"oXoXoXoXoXoXoXoXoXoXoXoXoXoXoXoXoXoXoXoXoXoXoXoXoXoXoXoXoXoXoXoXoXoXoXoXoXoXoXoXoXoXoXoXoXoXoXoXoXoXoXoXoXoXoXoXoXoXoXoX) _ ) oXoXoXoXoXoXoXoXoXoXoXoXoXoXoXoXoXoXoXoXoXoXoXoXoXoXoXoXoXoXoXoXoXoXoXoXoX",
"oXoXoXoXoXoXoXoXoXoXoXoXoXoXoXoXoXoXoXoXoXoXoXoXoXoXoXoXoXoXoXoXoXoXoXoXoXoXoXoXoXoXoXoXoXoXoXoXoXoXoXoXoXoXoXoXoXoXoXoX_ _ ) oXoXoXoXoXoXoXoXoXoXoXoXoXoXoXoXoXoXoXoXoXoXoXoXoXoXoXoXoXoXoXoXoXoXoXoXoX",
"oXoXoXoXoXoXoXoXoXoXoXoXoXoXoXoXoXoXoXoXoXoXoXoXoXoXoXoXoXoXoXoXoXoXoXoXoXoXoXoXoXoXoXoXoXoXoXoXoXoXoXoXoXoXoXoXoXoXoXoX_ _ ) oXoXoXoXoXoXoXoXoXoXoXoXoXoXoXoXoXoXoXoXoXoXoXoXoXoXoXoXoXoXoXoXoXoXoXoXoX",
"oXoXoXoXoXoXoXoXoXoXoXoXoXoXoXoXoXoXoXoXoXoXoXoXoXoXoXoXoXoXoXoXoXoXoXoXoXoXoXoXoXoXoXoXoXoXoXoXoXoXoXoXoXoXoXoXoXoXoXoX_ _ ) oXoXoXoXoXoXoXoXoXoXoXoXoXoXoXoXoXoXoXoXoXoXoXoXoXoXoXoXoXoXoXoXoXoXoXoXoX",
"oXoXoXoXoXoXoXoXoXoXoXoXoXoXoXoXoXoXoXoXoXoXoXoXoXoXoXoXoXoXoXoXoXoXoXoXoXoXoXoXoXoXoXoXoXoXoXoXoXoXoXoXoXoXoXoXoXoXoXoX_ _ ) oXoXoXoXoXoXoXoXoXoXoXoXoXoXoXoXoXoXoXoXoXoXoXoXoXoXoXoXoXoXoXoXoXoXoXoXoX",
"oXoXoXoXoXoXoXoXoXoXoXoXoXl.l.l.l.5.4.g.g.g.g.g.g.g.g.k.g.g.g.g.g.g.g.g.g.k.k.g.g.g.g.g.g.g.g.g.g.g.g.g.g.g.g.g.g.g.S.7.| o.A.l.j.l.x.j.j.x.h.j.j.x.j.j.j.x.j.x.j.j.j.l.j.x.l.j.l.oXoXoXoXoXoXoXoXoXoXoX",
"oXoXoXoXoXoXoXoXoXoXl.l.j.j.b.f.f.e.C f f f f p f f f f f f f f f f f f t M.>.f f f f f f f f f f f f f f f f u u u f j D t.P.P.P.Y.Y.Y.P.P.Y.Y.P.Y.P.P.P.P.P.P.Y.Y.Y.f.f.d.j.8.7.k.l.oXoXoXoXoXoXoXoXoX",
"oXoXoXoXoXoXoXoXv 2.j.f.P.I.I.a.y.T.L.-.h 2 2 2 2 5 2 2 5 2 2 5 5 2 5 2 5 =.*.< 2 2 5 2 2 2 5 2 5 2 2 5 2 2 < < 5 s Z q.R.T.L.r.L.I.I.I.I.I.I.I.I.I.I.I.I.I.I.I.I.I.I.I.I.I.H.!.~.J.k.k.oXoXoXoXoXoXoXoX",
"oXoXoXoXoXoXoXx c 6.I.I.I.I.I.B a # ,.U.L.;.h 6 2 5 5 5 5 5 5 5 5 5 5 5 5 =.=.5 5 5 5 5 5 5 5 5 5 5 5 5 5 < 5 h +.i.T.U.w.@.h 4 V R.I.I.I.I.I.I.I.I.I.I.I.I.I.I.I.I.I.I.I.T.]. X X[.(.z.oXoXoXoXoXoXoXoX",
"oXoXoXoXoXoXoXx z p.I.I.I.I.u.d 2 2 3 j -.L.L.=.j 6 5 5 5 5 5 5 5 5 5 5 5 =.;.5 5 5 5 5 5 5 5 5 5 5 5 5 4 l ,.L.U.w.@.j 4 2 2 5 a w.I.I.I.P.P.I.I.I.I.I.I.I.I.I.I.I.I.P.I.R./.|. X X'.H.l.oXoXoXoXoXoXoX",
"oXoXoXoXoXoXoXx P f.I.I.I.I.;.5 5 5 5 5 5 e V w.c.O.*.*.*.*.*.*.*.;.*.*.*.i.i.;.*.*.*.*.*.*.*.;.;.;.;.;.w.L.r.+.j 4 5 5 5 5 5 5 2 B I.I.I.R.f.f.d.U.Y.P.I.I.I.I.I.I.I.I.I.I.T.Q.].|.`.G.l.oXoXoXoXoXoXoX",
"oXoXoXoXoXoXoXz ! I.I.I.I.I.$ 2 5 5 5 5 5 5 2 a w.I.I.I.I.I.I.I.I.I.I.I.I.I.I.I.I.I.I.I.I.I.I.I.I.I.I.I.I.=.4 2 5 5 5 5 5 5 5 5 5 y a.I.I.I.I.P.Y.d.b.b.b.b.f.P.I.I.I.I.I.I.I.I.T.W.E.l.l.l.oXoXoXoXoXoX",
"oXoXoXoXoXoXoX2.R.I.I.I.I.s.i 2 5 5 5 5 5 5 5 d u.I.I.I.f.f.Y.Y.f.Y.f.f.Y.Y.f.f.f.f.f.f.Y.Y.f.f.Y.Y.f.I.I.q.3 5 6 5 5 5 5 5 5 5 5 6 O.I.I.I.I.I.I.I.I.T.Y.d.b.b.b.b.d.f.R.I.I.I.I.I.I.b.l.k.oXoXoXoXoXoX",
"oXoXoXoXoXoXl.b.I.I.I.I.I.y.4 5 5 6 5 5 5 5 2 j L.I.I.Y.f.f.f.d.f.Y.f.f.f.f.Y.f.f.Y.f.f.Y.f.f.Y.f.f.Y.Y.I.L.i 5 5 5 5 5 5 5 6 5 5 < V I.I.I.I.I.I.I.I.I.I.I.I.I.I.Y.Y.Y.Y.Y.P.P.I.I.I.d.l.k.oXoXoXoXoXoX",
"oXoXoXoXoXoXl.d.I.I.I.I.I.:.5 5 5 5 5 5 5 5 2 B I.I.I.I.I.I.I.I.I.I.I.I.I.I.I.I.I.I.I.I.I.I.I.I.I.I.I.I.I.T.l 5 5 5 5 5 5 5 5 5 5 < @ U.I.I.I.I.I.I.I.I.I.I.I.I.I.I.I.I.I.I.I.I.I.d.3.6.k.l.oXoXoXoXoXoX",
"oXoXoXoXoXoXl.d.I.I.I.I.I.+.5 5 5 5 5 5 5 5 5 -.I.I.I.I.I.I.I.I.I.I.I.I.I.I.I.I.I.I.I.I.I.I.I.I.I.I.I.I.I.I.-.5 5 5 5 5 5 5 5 5 5 5 i L.I.I.I.I.I.I.I.I.I.I.I.I.I.I.I.I.I.I.I.I.P.3._ ( 1.l.oXoXoXoXoXoX",
"oXoXoXoXoXoXz.f.I.I.I.I.I.Z 2 5 5 5 5 5 5 5 6 q.I.I.I.I.I.I.I.I.I.I.I.I.I.I.I.I.I.I.I.I.I.I.I.I.I.I.I.I.I.I.q.4 5 5 6 5 5 6 5 5 5 5 4 y.I.I.I.I.I.I.I.I.I.I.I.I.I.I.I.P.I.I.I.I.I.Q _ _ T l.l.oXoXoXoXoX",
"oXoXoXoXoXoXl.f.I.I.I.I.P.@ 2 5 5 5 6 5 6 5 a y.I.I.I.I.I.I.I.I.I.I.I.I.I.I.I.I.I.I.I.I.I.I.I.I.I.I.I.I.I.I.i.s 2 5 5 5 5 5 5 5 5 5 6 q.I.I.I.I.I.I.I.I.I.I.T.I.I.I.I.I.I.I.I.I.I.W ` _  .9.l.oXoXoXoXoX",
"oXoXoXoXoXoXk.f.I.I.I.I.U.j 5 5 5 5 5 6 5 5 s c.I.I.I.I.I.I.I.I.I.I.I.I.I.I.I.I.I.I.I.I.I.I.I.I.T.I.I.I.I.I.L.h 5 5 5 5 5 5 5 5 5 5 5 :.I.I.I.I.I.I.I.I.I.I.I.I.I.I.I.I.I.I.I.I.I.W _ _  .7.l.oXoXoXoXoX",
"oXoXoXoXoXoXz.f.I.I.I.I.U.p 5 5 5 5 5 5 5 2 h U.I.I.I.I.I.I.I.I.I.I.I.I.I.I.I.I.P.I.I.I.I.I.I.I.I.I.I.I.I.I.I.k 5 5 5 5 5 6 5 5 5 5 5 +.I.I.I.I.I.I.I.I.I.I.I.I.I.I.I.I.I.I.I.I.I.Q ( `  .7.j.oXoXoXoXoX",
"oXoXoXoXoXoXz.f.I.I.I.I.s.y 5 5 5 5 5 5 5 < k R.I.I.I.I.I.I.I.I.I.I.I.I.I.I.I.I.I.I.I.I.I.I.I.I.I.I.I.I.I.I.I.B 5 5 5 5 5 5 5 5 5 5 5 @.I.I.I.I.I.I.I.I.I.I.I.I.I.I.I.I.I.I.I.I.P.! ` _ _ 8.x.oXoXoXoXoX",
"oXoXoXoXoXoXz.f.I.I.I.I.c.y 5 5 5 5 5 5 5 2 l T.I.I.I.I.I.I.I.I.I.I.I.I.I.I.I.I.I.I.I.I.I.I.I.I.I.I.I.I.I.I.I.@.5 5 5 5 5 5 5 5 5 5 2 V I.I.I.I.I.I.I.I.I.I.I.I.I.I.I.I.I.I.I.I.I.Q _ _  .7.l.oXoXoXoXoX",
"oXoXoXoXoXoXk.Y.I.I.I.I.c.s 5 5 5 5 5 5 6 2 Z I.I.I.I.I.I.I.I.I.I.I.I.I.I.I.I.I.I.I.I.I.I.I.I.I.I.I.I.I.I.I.I.#.5 5 5 5 5 5 5 6 5 5 2 V I.I.I.I.I.I.I.I.I.I.I.I.I.I.I.I.I.I.I.I.I.! ` _ _ 7.z.oXoXoXoXoX",
"oXoXoXoXoXoXz.d.I.P.I.P.v.s < 5 5 6 5 5 5 2 Z T.P.I.P.P.I.I.P.I.P.P.I.P.I.P.I.P.I.I.P.I.P.P.I.I.P.I.P.I.P.I.I.#.5 5 5 5 5 5 5 5 5 5 5 Z T.P.I.P.P.I.I.I.P.I.P.I.P.P.I.I.I.I.P.I.P.W ` ( ) 7.k.oXoXoXoXoX",
"oXoXoXoXoXoX1.k.j.j.j.j.t.9 > > 5 , , , , , + j.j.j.j.j.j.j.j.j.j.j.j.j.j.j.j.j.j.j.j.j.j.j.j.j.j.j.j.j.j.j.j.F , 2 , , , , < , , , : + j.j.j.j.j.j.j.j.j.j.j.j.j.h.j.j.h.j.j.h.j.U P K L Q 2.oXoXoXoXoX",
"oXoXoXoXoXoXC.7.l.l.j.l.V.9 , % , , , , > : O l.l.l.j.l.l.l.l.l.l.l.l.l.l.z.l.l.j.l.l.l.l.l.l.l.l.l.z.l.l.l.j.S , , , , * % * % * > : m l.l.l.l.l.l.l.l.l.l.l.l.l.l.l.l.l.l.l.l.l.U K K L E 1.oXoXoXoXoX",
"oXoXoXoXoXoXC.8.l.l.l.l.V.8 : , , , , , , : X l.l.l.l.l.l.j.l.l.l.l.l.l.l.l.l.l.l.l.l.l.l.l.l.l.l.l.l.l.l.l.z.N , , , , , , * * , > % M z.l.l.l.l.l.l.l.l.l.x.j.l.l.l.l.l.l.l.l.l.U K K L E Q oXoXoXoXoX",
"oXoXoXoXoXoXC.8.l.l.h.h.4.0 > * , , , , , , . l.l.j.l.l.x.l.l.h.j.l.x.l.l.j.x.l.x.l.l.x.h.l.x.l.l.x.l.l.x.l.l.m , , , , , , , , , , > M l.x.j.l.x.l.l.x.h.h.h.h.x.h.l.j.h.h.h.h.l.I L K ~ W 1.oXoXoXoXoX",
"oXoXoXoXoXoXC.8.l.l.h.h.g.q : , , , , , , , q g.l.l.j.l.l.l.l.l.l.l.l.l.l.l.l.l.j.l.l.l.l.l.l.l.l.j.l.l.x.l.l.  : , * , , , , , , , & A h.l.l.l.l.l.l.l.l.l.l.l.l.l.l.l.l.l.l.h.l.U K K ~ W 1.oXoXoXoXoX",
"oXoXoXoXoXoXC.7.l.l.l.h.g.r % * , , , , , % 8 4.l.l.l.l.l.l.l.l.l.l.l.l.l.l.l.l.l.l.l.l.l.l.j.l.l.l.l.l.l.l.g.r % , * , , , , , > > & G z.h.l.l.l.l.l.l.l.l.l.j.l.l.l.l.l.l.l.j.z.U K ~ P E 1.oXoXoXoXoX",
"oXoXoXoXoXoX1.8.l.l.h.h.x.  % , , , , , % , 1 N.l.l.l.l.l.l.j.l.l.l.l.l.j.l.l.l.l.l.l.l.j.l.l.l.l.l.l.l.l.j.V.9 , % , , , , * , * * * &.h.h.l.l.l.j.l.l.l.l.l.l.l.l.l.h.l.l.l.l.z.I K ~ I E C.oXoXoXoXoX",
"oXoXoXoXoXoX1.7.l.l.l.l.z.O : , , , , , * & = &.h.h.h.h.l.l.l.l.l.l.l.l.l.l.l.l.l.l.l.l.l.l.l.l.l.l.l.l.l.j.n.= & & , , , , , , , , = m.z.l.l.l.l.l.l.l.j.l.l.l.l.l.l.l.l.l.h.l.x.U K K I Q 1.oXoXoXoXoX",
"oXoXoXoXoXoXQ 7.l.x.l.l.x.N % , * , , , * & & F h.l.h.h.l.h.h.h.l.l.l.l.l.l.h.h.h.h.l.l.l.l.l.l.h.h.h.h.l.z.F * & * , , , , , , & > 8 V.l.l.j.l.l.l.j.l.l.l.l.l.l.l.l.l.l.x.l.h.x.U K K U C.oXoXoXoXoXoX",
"oXoXoXoXoXoXQ 7.l.l.l.l.j.G * , , , , , * , % + h.h.l.h.l.h.h.h.l.l.l.l.l.l.l.l.h.h.h.h.l.l.l.l.l.l.l.h.l.l.O : , * , , , , , , > > r k.l.l.l.l.l.x.l.l.l.l.l.l.l.l.l.l.l.l.l.l.l.2.U Y Q 1.oXoXoXoXoXoX",
"oXoXoXoXoXoX1.7.l.l.l.l.l.m.= , * , , , , : % g k.h.l.9.9.9.0.9.0.8.0.8.8.8.0.0.0.9.9.9.9.9.9.0.8.0.9.9.l.5.q : , , , , , , , * , > m l.l.l.l.l.l.h.l.l.l.l.l.l.l.l.l.0.0.0.0.l.l.l.x.7.C.C.oXoXoXoXoXoX",
"oXoXoXoXoXoXoXQ l.l.l.l.l.V.8 % , * , , , * > 9 B.h.h.9.7.7.7.7.7.7.7.7.7.7.7.7.7.7.7.7.7.7.7.7.7.7.2.0.h.m.= * , * , * , , , , & & H h.h.l.l.x.l.l.l.l.9.7.6.2.2.2.7.8.8.l.l.l.l.l.l.2.1.1.oXoXoXoXoXoX",
"oXoXoXoXoXoXoXc T l.l.h.l.l.. , , , , , & > : = n.z.h.h.h.l.z.z.h.h.h.l.h.h.h.z.h.h.h.h.z.z.z.h.h.h.l.l.h.J * % % , % * , , , * > 7 B.j.l.l.l.l.l.7.7.2.2.7.7.8.9.l.l.l.l.l.l.l.z.z.9.1.C.1.oXoXoXoXoXoX",
"oXoXoXoXoXoXoXx b 9.l.h.l.l.S > % % , : & -   %.5.m.n.&.&.&.&.&.n.&.&.n.&.4.S.n.&.&.n.&.n.&.&.&.n.n.&.n.B.4.%.X 9 * % , , % , , : X k.l.x.l.7.7.7.7.8.0.l.l.l.h.l.j.l.l.l.l.l.K.`.[._.Z.Q oXoXoXoXoXoXoX",
"oXoXoXoXoXoXoXx v 6.j.l.l.l.N.; , , % 8 m N.5.n.X - * = = * = * * = * = * G G * = * * * * = = * * * * = 7 m m.k.4.%.O 9 * , , , = n.l.l.l.0.l.l.l.x.l.l.l.l.l.l.l.l.l.l.l.k.).|.XX X'.F.1.oXoXoXoXoXoXoX",
"oXoXoXoXoXoXoXx c Q l.l.l.l.k.X * r J S.k.&.  = & & > > > > > > > > > , & G F & > > > , > , > , > > > > , % = . %.g.l.V.G O 9 * X k.l.l.l.l.l.l.l.l.l.l.l.l.l.l.l.l.x.l.l.z.{.XXXX}.~.Z.oXoXoXoXoXoXoXoX",
"oXoXoXoXoXoXoXoXc ..2.9.l.l.l.B.$.g.k.%.g = % & > > > > > > > > > > > > & G G % > > > > > > > > > > > : > , * : * 8 A B.z.l.B.%.B.l.l.l.l.l.l.l.l.l.l.l.l.l.l.l.l.l.l.l.l.l.K.(._.^.Z.1.oXoXoXoXoXoXoXoX",
"oXoXoXoXoXoXoXoXoXoX1.1.1.2.7.8.k.m.o 0 ; 7 7 7 7 7 7 7 7 7 7 7 7 7 7 7 7 H H 7 7 7 7 7 7 ; 7 7 7 7 7 7 7 7 7 7 9 9 7 w N B.l.l.l.l.l.l.k.l.l.l.l.l.l.l.l.l.l.l.9.k.l.8.8.7.7.1.Q Q 1.oXoXoXoXoXoXoXoXoX",
"oXoXoXoXoXoXoXoXoXoXoXoXC.1.1.C.1.} [ [ [ [ [ [ [ [ [ [ [ [ [ [ [ [ [ [ [ X.X.[ [ [ [ [ [ [ [ [ [ [ [ [ [ [ [ { { { [ ' / ] o.1.1.1.1.1.1.1.1.1.1.1.C.2.1.1.2.C.1.1.1.1.1.1.1.1.C.oXoXoXoXoXoXoXoXoXoXoX",
"oXoXoXoXoXoXoXoXoXoXoXoXoXoXoXoXoXoXoXoXoXoXoXoXoXoXoXoXoXoXoXoXoXoXoXoXoXoXoXoXoXoXoXoXoXoXoXoXoXoXoXoXoXoXoXoXoXoXoXoXP ~ ~ oXoXoXoXoXoXoXoXoXoXoXoXoXoXoXoXoXoXoXoXoXoXoXoXoXoXoXoXoXoXoXoXoXoXoXoXoX",
"oXoXoXoXoXoXoXoXoXoXoXoXoXoXoXoXoXoXoXoXoXoXoXoXoXoXoXoXoXoXoXoXoXoXoXoXoXoXoXoXoXoXoXoXoXoXoXoXoXoXoXoXoXoXoXoXoXoXoXoXK K K oXoXoXoXoXoXoXoXoXoXoXoXoXoXoXoXoXoXoXoXoXoXoXoXoXoXoXoXoXoXoXoXoXoXoXoXoX",
"oXoXoXoXoXoXoXoXoXoXoXoXoXoXoXoXoXoXoXoXoXoXoXoXoXoXoXoXoXoXoXoXoXoXoXoXoXoXoXoXoXoXoXoXoXoXoXoXoXoXoXoXoXoXoXoXoXoXoXoXK K K oXoXoXoXoXoXoXoXoXoXoXoXoXoXoXoXoXoXoXoXoXoXoXoXoXoXoXoXoXoXoXoXoXoXoXoXoX",
"oXoXoXoXoXoXoXoXoXoXoXoXoXoXoXoXoXoXoXoXoXoXoXoXoXoXoXoXoXoXoXoXoXoXoXoXoXoXoXoXoXoXoXoXoXoXoXoXoXoXoXoXoXoXoXoXoXoXoXoXK K K oXoXoXoXoXoXoXoXoXoXoXoXoXoXoXoXoXoXoXoXoXoXoXoXoXoXoXoXoXoXoXoXoXoXoXoXoX",
"oXoXoXoXoXoXoXoXoXoXoXoXoXoXoXoXoXoXoXoXoXoXoXoXoXoXoXoXoXoXoXoXoXoXoXoXoXoXoXoXoXoXoXoXoXoXoXoXoXoXoXoXoXoXoXoXoXoXoXoXK ~ ~ oXoXoXoXoXoXoXoXoXoXoXoXoXoXoXoXoXoXoXoXoXoXoXoXoXoXoXoXoXoXoXoXoXoXoXoXoX",
"oXoXoXoXoXoXoXoXoXoXoXoXoXoXoXoXoXoXoXoXoXoXoXoXoXoXoXoXoXoXoXoXoXoXoXoXoXoXoXoXoXoXoXoXoXoXoXoXoXoXoXoXoXoXoXoXoXoXoXoXK K oXoXoXoXoXoXoXoXoXoXoXoXoXoXoXoXoXoXoXoXoXoXoXoXoXoXoXoXoXoXoXoXoXoXoXoXoXoX"
};
