/* XPM */
static char *result[] = {
/* columns rows colors chars-per-pixel */
"50 100 120 2 ",
"   c #28374E",
".  c #29384F",
"X  c #2B3A51",
"o  c #303F56",
"O  c #313F59",
"+  c #304057",
"@  c #33435C",
"#  c #37485D",
"$  c #384A5E",
"%  c #364760",
"&  c #374860",
"*  c #3B4C63",
"=  c #3E5166",
"-  c #3E5168",
";  c #405463",
":  c #435A64",
">  c #42556C",
",  c #455A6D",
"<  c #485E6C",
"1  c #465B71",
"2  c #495E73",
"3  c #4B626D",
"4  c #4E6575",
"5  c #4E6379",
"6  c #506774",
"7  c #506976",
"8  c #50667A",
"9  c #546C7B",
"0  c #57707D",
"q  c #58727E",
"w  c #7E7366",
"e  c #60777E",
"r  c #777E76",
"t  c #E61C25",
"y  c #EB1A22",
"u  c #D4242C",
"i  c #DB2B34",
"p  c #E5222A",
"a  c #BB3942",
"s  c #D33A44",
"d  c #AA414B",
"f  c #AD545F",
"g  c #BA545F",
"h  c #B37D48",
"j  c #C5424C",
"k  c #91825E",
"l  c #A08A73",
"z  c #B8AB75",
"x  c #DBAF53",
"c  c #E5BE5A",
"v  c #F6B751",
"b  c #CD9F65",
"n  c #DFB063",
"m  c #D7C379",
"M  c #DBC67F",
"N  c #FDD46B",
"B  c #FBE17E",
"V  c #556D81",
"C  c #5B7483",
"Z  c #5E7986",
"A  c #5B7489",
"S  c #5E7A8E",
"D  c #607A87",
"F  c #637E8B",
"G  c #637D92",
"H  c #897782",
"J  c #917784",
"K  c #A67583",
"L  c #A47C8A",
"P  c #65818F",
"I  c #668292",
"U  c #698594",
"Y  c #6C8997",
"T  c #6A869A",
"R  c #6E8B9A",
"E  c #718E9C",
"W  c #798F9C",
"Q  c #72919F",
"!  c #7A969F",
"~  c #6F8DA0",
"^  c #718EA1",
"/  c #7494A1",
"(  c #7798A6",
")  c #7899A7",
"_  c #7796A8",
"`  c #7897A9",
"'  c #7C9DAC",
"]  c #7E9EB0",
"[  c #7FA0AF",
"{  c #7FA0B1",
"}  c #8A9389",
"|  c #858493",
" . c #818C91",
".. c #839495",
"X. c #829C9D",
"o. c #9FA583",
"O. c #B3AE86",
"+. c #ACBB9C",
"@. c #819EA6",
"#. c #8D9CAB",
"$. c #809FB1",
"%. c #8CA4A8",
"&. c #93ACAC",
"*. c #85A6B7",
"=. c #88A8B5",
"-. c #85A7B8",
";. c #85A8B8",
":. c #95B1B1",
">. c #B7C49C",
",. c #C5C28E",
"<. c #D1D79A",
"1. c #EDE48D",
"2. c #FEEA85",
"3. c #FFF28D",
"4. c #E7E594",
"5. c #EFED99",
"6. c #FDF694",
"7. c #FFF996",
"8. c #D2DAA2",
"9. c None",
/* pixels */
"9.9.9.9.9.9.9.9.9.9.9.9.9.9.9.9.9.Q Q / Q Q Q Q E Z 0 0 q q q q q 0 9.9.9.9.9.9.9.9.9.9.9.9.9.9.9.9.",
"9.9.9.9.9.9.9.9.9.9.9.9.9.Q / / / / R I P F Z Z Z 3 3 3 3 3 7 0 q q q q q q 9.9.9.9.9.9.9.9.9.9.9.9.",
"9.9.9.9.9.9.9.9.9.9.E / E / / E R Y G D C q q 0 7 3 3 : 3 3 3 3 7 0 0 q q Z q q 9.9.9.9.9.9.9.9.9.9.",
"9.9.9.9.9.9.9.9.9./ ! ! / / ( ( / R E R R R R R R P Z Z Z Z P P P Z P q Z q q q q q 9.9.9.9.9.9.9.9.",
"9.9.9.9.9.9.9.9...O.M ,.@.] *.*.*.*.*.*.*.*.*.;.=.( / / / ( / / Q / / Q R P o.m z r 9 9.9.9.9.9.9.9.",
"9.9.9.9.9.9.9.W b B 3.5.:.*.*.*.*.*.;.*.*.*.*.*.*.( / Q Q Q / Q / / / / Q ! <.6.2.c w 9.9.9.9.9.9.9.",
"9.9.9.9.9.9.9.l v 6.6.8.*.*.*.*.*.*.*.*.*.;.;.*.*./ Q Q / / / / / / / / / Q >.6.7.N k q 9.9.9.9.9.9.",
"9.9.9.9.9.9./ } x 1.8.:.*.*.*.*.*.*.;.;.*.*.*.*.*.( Q ! / / / / / / Q / Q Q Q >.1.v k q 9.9.9.9.9.9.",
"9.9.9.9.9.9.Q / %.&.-.*.*.*.*.*.*.*.*.*.*.*.;.*.*.( Q / / / / / / / Y / / / Q / ! ! P 0 9.9.9.9.9.9.",
"9.9.9.9.9.9./ ' *.*.*.*.*.*.*.' *.*.*.*.*.*.*.*.*.( / / / / / / / / Y Q / / / / / / U 0 9.9.9.9.9.9.",
"9.9.9.9.9.9.E ' *.*.*.*.*.*.*.' *.*.*.;.*.*.;.*.{ ( Q / / / / / Q Q I Q / / / / / ! Y q 9.9.9.9.9.9.",
"9.9.9.9.9.9./ ' *.*.*.*.*.*.*.' *.*.*.*.*.*.*.*.*.( ! / / Q Q / / Q P Y / / / / / ! E q 9.9.9.9.9.9.",
"9.9.9.9.9.9./ ] *.*.*.*.*.*.{ ' *.;.*.*.*.*.{ *.{ / Q Q Q Q / / [ / P U / / Q Q / / R q 9.9.9.9.9.9.",
"9.9.9.9.9.9./ ] *.*.*.*.*.;.' R ^ U S V 5 5 1 1 > = * * = > 4 4 9 P q P / / / / / / R 0 9.9.9.9.9.9.",
"9.9.9.9.9.9./ { *.*.*.{ ~ A 2 * % @ @ + + @ @ O @ . . .           + + # 3 C Y / / / Q P 9.9.9.9.9.9.",
"9.9.9.9.9.9./ { *.] G 1 % @ @ @ @ @ @ @ @ @ @ @ @ X . X X . . X           + @ 4 P / Q e 9.9.9.9.9.9.",
"9.9.9.9.9.9./ *._ 1 @ @ @ @ @ % @ @ @ @ % % O @ @ .   . X . X . . X . . X       @ C Q Z 9.9.9.9.9.9.",
"9.9.9.9.9.9.E *._ * @ @ @ @ @ @ @ @ @ @ O @ O % @ X . X . X . X X . X   X   X     C / Z 9.9.9.9.9.9.",
"9.9.9.9.9.9./ ' *.5 @ @ @ @ % @ @ @ @ @ @ @ @ @ @ X   X X . X   . X . X   X X   @ Y Q Z 9.9.9.9.9.9.",
"9.9.9.9.9.9.E R -.G @ @ @ @ @ @ @ @ % @ @ @ @ % @ X . . . X . X X . X . X   X   > / I 9 9.9.9.9.9.9.",
"9.9.9.9.9.9.E V ] ` - @ @ @ @ @ @ @ @ @ @ @ % O @ X   X X . X . . X . X X . . X C / 4 4 9.9.9.9.9.9.",
"9.9.9.9.9.9.R 1 T -.5 O @ @ % @ @ @ % @ % O @ @ @ X   . . X . X X . X . . . . @ R Y & 4 9.9.9.9.9.9.",
"9.9.9.9.9.9.E > 5 -.G % @ @ @ @ @ @ @ @ @ @ % O @ . . X . . X . . X . X . X   < ( V X 7 9.9.9.9.9.9.",
"9.9.9.9.9.9.E > % / ] - @ @ @ @ @ @ @ O @ @ @ @ @ X       . . . X . X . X . X D E * X 7 9.9.9.9.9.9.",
"9.9.9.9.9.9.~ > @ A *.9 O @ @ @ @ % O @ % % - - > & % @ + + . .     .   X   $ E Z X + 7 9.9.9.9.9.9.",
"9.9.9.9.9.9.R 1 @ - ] T @ O @ % - 5 A G ~ _ ` ] ] ^ R T U P C 7 < * +       2 E >   + 4 9.9.9.9.9.9.",
"9.9.9.9.9.9.R > @ @ G ] 2 V G / ] *.-.;.;.-.-.*.*._ / / ( Q ( ( ^ E U C 2 $ F U @   X 7 9.9.9.9.9.9.",
"9.9.9.9.9.9.R > O @ 2 *.] *.-.;.*.-.*.*.*.*.*.*.*._ / / Q Q Q Q / Q ( / ! E Q 8 X X X 4 9.9.9.9.9.9.",
"9.9.9.9.9.9.R , @ @ % ~ *.*.*.*.*.*.*.-.*.*.*.-.*./ / / / / / / / / / Q / / R $   . X 4 9.9.9.9.9.9.",
"9.9.9.9.9.9.R , O @ @ S *.*.*.*.*.*.*.-.-.*.*.-.*._ Q / / / / / / / / / / / I X . . X 7 9.9.9.9.9.9.",
"9.9.9.9.9.9.E > O @ @ S ;.*.*.*.*.*.*.*.*.*.*.*.*.( Q Q / / / / / / Q Q Q / P X X . X 4 9.9.9.9.9.9.",
"9.4 6 6 6 7 I > @ @ @ S ;.{ ' *.*.*.-.*.*.-.-.*.*./ Q ! Q / / / Q / ! Q I / P + . . + 4 : : : : ; 9.",
"9.7 7 7 7 6 C > @ @ + S ;.' ' *.*.*.*.*.*.*.*.*.[ / Q Q / / / / / / Q R P Q P + . . + 3 = 3 : : 3 : ",
"6 7 7 7 7 6 q > @ @ @ S ;.' ' *.*.*.-.-.*.;.*.*.{ [ Q [ / / / / / / Q R P Q P + . . X , : = = 3 = = ",
"9.9.9.9.9.9.I > @ @ @ S ;.' ' *.*.*.*.*.*.*.*.;.;./ / Q / Q / / / Q / R P Q P + . . X 4 9.9.9.9.9.9.",
"9.9.9.9.9.9.E > @ + @ S ;.[ ' ;.*.*.-.*.*.-.*.*.[ [ Q / / / / Q / Q / R P Q P . . . X 4 9.9.9.9.9.9.",
"9.9.9.9.9.9.R > O @ @ S ;.' ' *.*.*.*.*.*.*.*.*.=.( Q / / / / / / / Q Y P Q P + . . X 7 9.9.9.9.9.9.",
"9.9.9.9.9.9.^ > @ @ @ S ;.' ' *.*.*.*.*.*.;.;.*.{ ( Q / / / / / / / ! R P E P + . . X 8 9.9.9.9.9.9.",
"9.9.9.9.9.9.~ 1 O @ O S ;.' ' *.*.-.;.*.*.*.;.;.{ / / Q / / / / / / Q Y P Q P + . . X 4 9.9.9.9.9.9.",
"9.9.9.9.9.9.R - @ @ @ S *.' ' *.*.*.*.*.*.=.;.;.;.[ Q / / / Q / / / Q Y P Q P . . X + 4 9.9.9.9.9.9.",
"9.9.9.9.9.9.Q > @ @ @ S ;.] ' *.*.*.*.-.*.*.*.*.*./ Q ( Q Q / / / / / Y P Q P       + 3 9.9.9.9.9.9.",
"9.9.9.9.9.9.E > O O O S *.] ' *.*.*.*.-.*.-.*.-.*.( Q Q Q ( / / / Q / Y P / P +     + 4 9.9.9.9.9.9.",
"9.9.9.9.9.9.R 5 - > - G *.' ' *.*.*.*.*.*.*.*.-.*.( / Q Q Q ( / / / / R P Q I * # $ # 7 9.9.9.9.9.9.",
"9.9.9.9.9.9.Q ' ] ] ] *.*.] ' *.*.*.*.*.-.-.*.*.;.( / / ( Q Q ! / / / Y P Q / Y R Y Y q 9.9.9.9.9.9.",
"9.9.9.9.9.9.Q V 5 5 2 T *.' ' *.*.*.*.-.*.*.*.-.*.( Q Q / / / Q / Q / Y P / Y 4 3 3 3 V 9.9.9.9.9.9.",
"9.9.9.9.9.9.E > O O O S *.' ' *.*.-.*.*.*.-.*.*.*.( Q / / / / / / / / R P / P # + @ % 7 9.9.9.9.9.9.",
"9.9.9.9.9.9.R > @ @ @ S *.$.' =.=.*.-.*.*.*.*.-.*./ Q ( / / / / / Q / Y P Q P # @ + % 7 9.9.9.9.9.9.",
"9.9.9.9.9.9.R , O @ @ G *.' ' -.=.-.*.*.-.-.*.*.=.( Q Q / / / / / / / Y P Q P # @ @ % 5 9.9.9.9.9.9.",
"9.9.9.9.9.9.R > @ @ @ S *.' ' *.=.=.*.*.*.*.*.-.*._ E / / / / / / / Q R Z / I # @ @ % 7 9.9.9.9.9.9.",
"9.9.9.9.9.9.E 1 O @ @ S *.] ' *.*.*.*.*.*.*.*.-.*._ / / / Q / / / Q / Y P / I % @ @ % 7 9.9.9.9.9.9.",
"9.9.9.9.9.9.R > @ @ @ S ;.' ' *.*.*.*.-.*.*.-.*.*.) Q / / / / / / Q / R P / I # @ O % 7 9.9.9.9.9.9.",
"9.9.9.9.9.9.E > O @ @ S ;.' ' *.*.-.*.*.-.*.*.-.*._ / Q / / / / / / / Y F / I % @ @ % 6 9.9.9.9.9.9.",
"9.9.9.9.9.9.R 1 @ @ @ S ;.' ' *.*.*.*.*.*.*.*.*.*.( Q / / / / / / / / R F / I # @ O @ 7 9.9.9.9.9.9.",
"9.9.9.9.9.9.E > @ @ + S ;.[ ' *.*.*.*.-.*.*.=.-.*.( / Q / / / / / Q Q R F / I # @ @ % 7 9.9.9.9.9.9.",
"9.9.9.9.9.9.R > + @ @ S ;.[ ' *.*.-.;.*.*.;.*.*.*.( Q ! / / / ! / / Q R F ! I % @ @ % 5 9.9.9.9.9.9.",
"9.9.9.9.9.9.^ > @ @ + S ;.' ' *.*.-.*.*.*.*.-.*.$.( Q Q / / / / / Q Q R P / I @ @ @ % 7 9.9.9.9.9.9.",
"9.9.9.9.9.9.R > @ + @ S { { ' { *.*.*.*.*.-.-.*.{ / Q / / / / / / Q Q E P Q P $ + @ % 7 9.9.9.9.9.9.",
"9.9.9.9.9.9.R > @ @ @ S ;.{ ] ;.*.*.*.-.*.*.*.*.;.( / / / / / / / Q Q R P Q I # @ @ % 8 9.9.9.9.9.9.",
"9.9.9.9.9.9.R 1 O @ @ S ;.' ' { *.*.-.*.*.*.-.-.;./ / / / / / / / Q / R P / I # @ @ % 7 9.9.9.9.9.9.",
"9.9.9.9.9.9.R 1 @ @ O S ;.] ] ;.*.*.*.*.-.*.*.*.[ [ Q / Q / Q / / / / R P / I # @ @ @ 7 9.9.9.9.9.9.",
"9.9.9.9.9.9.R > @ @ @ S ;.' ' *.*.*.*.*.*.;.;.;.{ ( Q Q / / / / / / / Y P Q P # @ @ @ 7 9.9.9.9.9.9.",
"9.9.9.9.9.9.^ > @ + @ S ;.{ ' *.*.*.*.*.*.*.*.;.;.( Q Q / / / / / / / Y P Q P # @ @ # 8 9.9.9.9.9.9.",
"9.9.9.9.9.9.R 1 @ @ @ S ;.[ ' *.*.*.*.*.*.*.;.;.;.Q / Q / / / / / / / Y P / I # @ @ # 7 9.9.9.9.9.9.",
"9.9.9.9.9.9.R - @ @ @ S ;.' ' *.*.;.*.*.*.;.{ =.=.[ Q ( / / / / / / / Y P / I & @ @ # 0 9.9.9.9.9.9.",
"9.9.9.9.9.9./ I I T ~ ' -.] ' *.*.*.*.*.-.*.*.-.*._ ! ! / / / / / / / Y P / Q P P Z C 0 9.9.9.9.9.9.",
"9.9.9.9.9.9./ ' ] ] ] { { ] ' *.*.*.*.*.*.-.-.*.*._ Q Q / / / / / / / Y P / / Y Y R R C 9.9.9.9.9.9.",
"9.9.9.9.9.9.R 5 - - - G ;.] ' *.*.*.*.*.-.*.*.-.*.( Q ( / / / / / / / Y P / P # @ @ # 7 9.9.9.9.9.9.",
"9.9.9.9.9.9.~ - O @ @ S ;.] ' *.*.*.*.;.*.*.-.*.*./ Q Q / / Q / / / / Y Z Q P + .   X 7 9.9.9.9.9.9.",
"9.9.9.9.9.9.R 1 @ @ @ S ;.' ' *.*.*.*.*.*.*.-.*.;.( / / / / / / / / / Y P Q P + . . + 3 9.9.9.9.9.9.",
"9.9.9.9.9.9.R > + @ @ S ;.' ' *.*.*.;.*.*.;.*.-.*.( Q Q / / / / / Q / Y P E P + . . + 4 9.9.9.9.9.9.",
"9.9.9.9.9.9.R 1 @ @ + S ;.' ' *.*.*.*.*.*.*.;.*.*.( Q / / / / Q / / Q Y P E P . . . + 4 9.9.9.9.9.9.",
"9.9.9.9.9.9.R > @ @ @ S ;.[ ' *.*.*.*.*.*.*.*.-.*.( / Q / / / / / Q ! Y P Q P + . . + 3 9.9.9.9.9.9.",
"9.9.9.9.9.9.R 1 O @ @ S ;.' ' ;.*.*.*.-.*.*.*.-.*./ Q / / / / / / Q / R P / P . . . X 4 9.9.9.9.9.9.",
"9.9.9.9.9.9.E > O @ @ S ;.' ' *.*.-.*.*.-.-.*.*.*.( / ! / / Q / / / / R P / P + .   + 4 9.9.9.9.9.9.",
"9.9.9.9.9.9.R > O @ @ S ;.[ ' *.*.*.*.*.*.*.-.*.*./ / / / / / / / Q Q R P Q P + . . + 4 9.9.9.9.9.9.",
"9.9.9.9.9.9.~ > O @ @ S ;.' ' *.*.*.-.*.*.-.*.*.*./ Q / / / / / / Q Q R P E P + . . X 4 9.9.9.9.9.9.",
"9.9.9.9.9.9.R 1 @ @ @ S *.] ' *.*.*.*.*.*.*.*.-.;.( Q / / / / Q / Q / R Z / I X . . X 8 9.9.9.9.9.9.",
"9.9.9.9.9.9.R > O @ @ S ;.' ' *.*.*.*.*.;.*.*.*.=.( / Q / / / / / / / R P / I + . . + 4 9.9.9.9.9.9.",
"9.9.9.9.9.9.R > @ @ @ S ;.' ' ;.*.*.-.*.*.*.*.*.*./ / / / / / / / Q Q R P Q P X . . X 7 9.9.9.9.9.9.",
"9.9.9.9.9.9.E 1 O @ @ S ;.] ' { *.-.*.*.*.*.;.;.*.( Q Q / / / / / Q / Y P / P + . . X 4 9.9.9.9.9.9.",
"9.9.9.9.9.9.R > @ @ @ S ;.' ' *.*.*.*.*.*.*.-.-.*._ / / / / / Q / Q / R F / P X X . + 4 9.9.9.9.9.9.",
"9.9.9.9.9.9.^ > @ @ + S ;.' ' *.*.*.*.*.-.*.*.*.*._ ! / / / / / / Q / Y F / P X . . X 4 9.9.9.9.9.9.",
"9.9.9.9.9.9.R 1 @ @ @ T *.] ' *.*.-.=.*.-.*.*.*.*._ / Q / / / / / / / R P / R #   . + 4 9.9.9.9.9.9.",
"9.9.9.9.9.9.R > O @ A *.*.*.*.*.*.*.*.*.*.*.-.*.$._ Q / / / / / / / / / R Q Q Z +   X 4 9.9.9.9.9.9.",
"9.9.9.9.9.9.R > O 5 ] *.;.;.*.*.*.*.*.*.*.*.*.*.*.( Q Q / / / / / ! / / / / / ^ 8 . X 7 9.9.9.9.9.9.",
"9.9.9.9.9.9.^ > - ` ;.{ ~ _ ] *.-.-.;.*.*.*.*.*.*.( / / / Q / / / / / R T F R / Q , X 4 9.9.9.9.9.9.",
"9.9.9.9.9.9.R 2 ~ *.*.A % * 1 5 A G R / ` ] ] ] [ / Q R Y Y I Z C 8 < * # X > T Q Y = 4 9.9.9.9.9.9.",
"9.9.9.9.9.9.R T *.{ A % @ @ @ + @ @ @ & * - > > > * $ # @ @ + X             . - R / P 7 9.9.9.9.9.9.",
"9.9.9.9.9.9./ ' *.A @ @ @ @ @ @ @ @ @ @ @ @ O @ @ .     . . . . . . X X . X . . ; R U q 9.9.9.9.9.9.",
"9.9.9.9.9.9.Q / A % @ @ @ @ % @ @ @ @ @ @ @ @ @ @ X . . X . X . . . . . X . . . . ; Z q 9.9.9.9.9.9.",
"9.9.9.9.9.9.9.Y > + @ @ @ @ @ @ @ @ @ @ @ @ @ @ @ X . X . X . X . X . . . . X . . X 4 q 9.9.9.9.9.9.",
"9.9.9.9.9.9.9./ ~ V % O @ @ @ @ @ @ @ % @ @ @ @ @ . . . X . X . X . X . . .   X > A C 9.9.9.9.9.9.9.",
"9.9.9.9.9.9.9./ ' *.~ V - % @ O @ @ @ @ @ @ @ @ @ X . X . . . X . . . . . X = C E I q 9.9.9.9.9.9.9.",
"9.9.9.9.9.9.9.9./ $.*.*.` G 5 - % @ O @ @ + @ @ @ . . .         X X @ - 9 I Q ( Q Z q 9.9.9.9.9.9.9.",
"9.9.9.9.9.9.9.9.f g L #.*.*.*.] ^ T A 5 2 1 > - * $ # @ & = > 4 9 D Y ^ / / Q J f d 9.9.9.9.9.9.9.9.",
"9.9.9.9.9.9.9.9.t y t s K *.*.*.*.;.;.*.{ *.' ' ' E U E E E Q / / / / / R H j p y y 9.9.9.9.9.9.9.9.",
"9.9.9.9.9.9.9.9.9.t y y i | ( ( ) ) ' ) ' ' ' ' ' U P P P P P P D D D Z C a y y y 9.9.9.9.9.9.9.9.9.",
"9.9.9.9.9.9.9.9.9.9.9.y t 9.9.9.9.Q Q Q Q Q Q / E Z q 7 q q 7 q q q 9.9.9.u y 9.9.9.9.9.9.9.9.9.9.9.",
"9.9.9.9.9.9.9.9.9.9.9.9.9.9.9.9.9.9.9.9.9.9.9.9.9.9.9.9.9.9.9.9.9.9.9.9.9.9.9.9.9.9.9.9.9.9.9.9.9.9.",
"9.9.9.9.9.9.9.9.9.9.9.9.9.9.9.9.9.9.9.9.9.9.9.9.9.9.9.9.9.9.9.9.9.9.9.9.9.9.9.9.9.9.9.9.9.9.9.9.9.9."
};
