/* XPM */
static char *_09e3c9709574e21c184a492fdf3d25fpVgIMZqZmB2Oz0Fj[] = {
/* columns rows colors chars-per-pixel */
"50 100 189 2 ",
"   c None",
".  c #29364E",
"X  c #29384F",
"o  c #2A3A50",
"O  c #303F59",
"+  c #264553",
"@  c #2B4253",
"#  c #274B56",
"$  c #2C4A56",
"%  c #2D4E59",
"&  c #32425B",
"*  c #36495E",
"=  c #384D5F",
"-  c #2D535A",
";  c #2D5A5C",
":  c #315B5E",
">  c #32535C",
",  c #374E60",
"<  c #394E60",
"1  c #375261",
"2  c #3C5463",
"3  c #315E60",
"4  c #3E5A66",
"5  c #1D7866",
"6  c #2B6962",
"7  c #356364",
"8  c #386266",
"9  c #346C66",
"0  c #3A6869",
"q  c #2A7869",
"w  c #337167",
"e  c #367369",
"r  c #367A6C",
"t  c #387C6D",
"y  c #3B726A",
"u  c #7C765E",
"i  c #405C67",
"p  c #415D68",
"a  c #45656B",
"s  c #47696D",
"d  c #496B6E",
"f  c #4B6F71",
"g  c #4D7573",
"h  c #447C73",
"j  c #4E7A75",
"k  c #437370",
"l  c #517A76",
"z  c #547F78",
"x  c #7E7D62",
"c  c #E71A23",
"v  c #E91A22",
"b  c #DA2A2C",
"n  c #D03837",
"m  c #E42228",
"M  c #AD413A",
"N  c #825C4B",
"B  c #8E6754",
"V  c #A96A58",
"C  c #21865C",
"Z  c #22895E",
"A  c #16886D",
"S  c #1C8968",
"D  c #1A946B",
"F  c #16966F",
"G  c #0F9F73",
"H  c #199671",
"J  c #139E73",
"K  c #1E9B71",
"L  c #228B61",
"P  c #2E836E",
"I  c #39816F",
"U  c #2B9667",
"Y  c #2B9669",
"T  c #239B6E",
"R  c #2D996A",
"E  c #30986D",
"W  c #3A8571",
"Q  c #3B8C74",
"!  c #378571",
"~  c #259C72",
"^  c #299872",
"/  c #3D9077",
"(  c #349C72",
")  c #3E9478",
"_  c #3E9A7A",
"`  c #319274",
"'  c #0FA074",
"]  c #13A175",
"[  c #1CA376",
"{  c #1DA578",
"}  c #22A67A",
"|  c #26A97C",
" . c #2BAA7D",
".. c #2BA57B",
"X. c #3CA47C",
"o. c #32AC7F",
"O. c #3DAB7E",
"+. c #3AA275",
"@. c #6DA259",
"#. c #498979",
"$. c #55837A",
"%. c #58877C",
"&. c #57887C",
"*. c #59897D",
"=. c #409D7C",
"-. c #47937A",
";. c #52937F",
":. c #679572",
">. c #46A466",
",. c #41A476",
"<. c #41A57F",
"1. c #4EAA7F",
"2. c #56AF75",
"3. c #68AF70",
"4. c #66B67D",
"5. c #70B674",
"6. c #75A96B",
"7. c #BBAE4E",
"8. c #969B7D",
"9. c #A3826B",
"0. c #81B06C",
"q. c #82B572",
"w. c #CEB54E",
"e. c #CABC57",
"r. c #99C17C",
"t. c #95C07A",
"y. c #CDD37D",
"u. c #D0D67D",
"i. c #D5C76E",
"p. c #E0D478",
"a. c #F8E17C",
"s. c #34AD81",
"d. c #3BAD82",
"f. c #3DB183",
"g. c #35B081",
"h. c #5C8E80",
"j. c #5D9181",
"k. c #589E83",
"l. c #619784",
"z. c #639C86",
"x. c #659E88",
"c. c #42A780",
"v. c #43AC83",
"b. c #4AAE83",
"n. c #53AB81",
"m. c #56A787",
"M. c #43B285",
"N. c #49B486",
"B. c #4CB589",
"V. c #51B686",
"C. c #50B689",
"Z. c #54B98B",
"A. c #5CBA8E",
"S. c #58B887",
"D. c #5EBC90",
"F. c #67A289",
"G. c #6AA78B",
"H. c #6CAC8E",
"J. c #64A98B",
"K. c #62BC8F",
"L. c #68B58A",
"P. c #71B38A",
"I. c #6EAF90",
"U. c #6DB290",
"Y. c #63BD91",
"T. c #69BE92",
"R. c #71B592",
"E. c #74BC95",
"W. c #6DC094",
"Q. c #73C397",
"!. c #77C498",
"~. c #79C499",
"^. c #7DC498",
"/. c #79C689",
"(. c #85B58E",
"). c #9CCF8A",
"_. c #9BD28D",
"`. c #8DC994",
"'. c #88CA98",
"]. c #93CF98",
"[. c #AAD692",
"{. c #C6D887",
"}. c #E2DE85",
"|. c #C9E296",
" X c #D8E993",
".X c #E9E182",
"XX c #FAED8C",
"oX c #ECF096",
"OX c #F8F191",
/* pixels */
"                                                                                                    ",
"                                M.M.M.M.M.M.M.M.f.{ ] ] ] ] ] ] ] J                                 ",
"                        M.M.M.M.M.M.M.M.M.M.O.X.+.T D F J ] ] ] ] ] ] ] ] J                         ",
"                    M.M.M.M.M.M.N.C.Z.V.X.( R R Y L Z L S D ~ | } [ ] ] ] ] ] '                     ",
"                M.M.4.t.r.L.A.Y.T.W.S.+.R U U U U Z C C C Z L ( d.d.o.| ..5.q.2.[ J                 ",
"                b.q.y..X}.`.Q.!.~.Q.n.,.,.,.,.,.+.E Y Y Y Y Y E d.M.M.f.N.{..Xu.0.T ]               ",
"              M.6.i.XXOX|.'.~.~.~.!.T.T.T.T.T.T.K.b.O.O.O.O.O.O.M.M.M.M.N.).oXOXp.@.[               ",
"              2.7.a.oX|.].~.~.~.~.~.~.~.~.~.~.~.!.C.M.M.M.M.M.M.M.M.M.M.M.S._. XXXw.>.J             ",
"            M.3.e.{.[.'.~.~.~.~.~.~.~.~.~.~.~.~.!.C.M.M.M.M.M.M.M.M.M.M.M.M.V./.[.e.@.]             ",
"            M.4.r.`.~.!.~.~.~.~.~.~.~.~.~.~.~.~.!.C.M.M.M.M.M.M.M.M.M.M.M.M.M.M.S.5.>.]             ",
"            M.Z.!.!.~.~.~.~.~.!.~.~.~.~.~.~.~.~.!.C.M.M.M.M.M.M.M.M.M.M.M.M.M.M.M.f. .]             ",
"            M.A.~.~.~.~.~.~.!.!.~.~.~.~.~.~.~.~.!.C.M.M.M.M.M.M.M.M.M.f.M.M.M.M.M.M.o.]             ",
"            M.Y.~.~.~.~.~.~.Q.Q.~.~.~.~.~.~.~.~.!.C.M.M.M.M.M.M.M.M.M.d.M.M.M.M.M.M.s.]             ",
"            M.Y.~.~.~.~.~.~.W.Q.~.~.~.~.~.~.~.~.!.C.M.M.M.M.M.M.M.M.f.s.M.M.M.M.M.M.d.[             ",
"            M.Y.~.~.~.~.~.~.T.Q.~.~.~.~.~.~.~.~.!.C.M.M.M.M.M.M.M.M.f.s.M.M.M.M.M.M.d.[             ",
"            M.T.~.~.~.~.~.~.Y.Q.~.~.~.~.~.~.~.~.!.C.M.M.M.M.M.M.M.M.M.o.M.M.M.M.M.M.f.[             ",
"            N.T.~.~.~.~.~.!.Y.Q.~.~.~.~.!.!.~.~.!.C.M.M.M.f.M.M.M.M.M. .f.M.M.M.M.M.f.[             ",
"            N.T.~.~.~.~.~.!.A.Q.~.~.~.~.Q.!.~.~.!.C.M.M.M.f.M.M.M.M.M. .d.M.M.M.M.M.f.{             ",
"            N.T.~.~.~.~.~.!.A.Q.~.~.~.!.W.!.~.~.!.C.M.M.M.d.f.M.M.M.M.| d.M.M.M.M.M.f.{             ",
"            N.W.~.~.~.~.~.Q.Z.Q.~.~.~.!.T.!.~.~.Q.C.M.M.M.s.f.M.M.M.M.| s.M.M.M.M.M.f.{             ",
"            N.W.~.~.~.~.~.W.C.Q.~.~.~.!.Y.!.~.~.!.C.M.M.M.s.f.M.M.M.M.| o.M.M.M.M.M.f.{             ",
"            N.W.~.~.~.~.~.T.C.Q.~.~.~.Q.Y.!.~.~.!.C.M.M.M.s.s.M.M.M.M.|  .M.M.M.M.M.f.}             ",
"            N.W.~.~.~.~.~.Y.C.Q.~.~.~.W.K.!.~.~.!.C.M.M.M.s.o.M.M.M.M.| | M.M.M.M.M.f.}             ",
"            N.W.~.~.~.~.~.K.C.Q.~.~.~.W.A.~.~.~.!.C.M.M.M.s. .M.M.M.M.| } M.M.M.M.M.f.}             ",
"            N.W.~.~.~.~.~.A.B.Q.~.~.~.Y.A.~.~.~.!.C.M.M.M.o. .M.M.M.M.| { f.M.M.M.M.f.{             ",
"            N.W.~.~.~.~.!.Z.C.Q.~.~.~.Y.A.~.~.~.!.C.M.M.M.o.| M.M.M.M. .[ d.M.M.M.M.f.{             ",
"            N.W.~.~.~.~.!.C.C.!.~.~.~.D.D.~.~.~.E.B.v.v.M.s.} f.M.M.M. .[ d.M.M.M.M.f.{             ",
"            N.T.~.~.~.~.Q.B.C.U.H.F.l.#.#.$.$.z j y e e e q q ! Q _ <...] g.M.M.M.M.f.{             ",
"            N.T.~.~.~.E.J.#.h g a p 2 1 , * * * * o o o @ @ + $ % : 7 6 5 ` c.M.M.M.f.{             ",
"            N.T.~.E.z.z a 1 * & & O & & & & & & O o . . . . . . . . X o + - 9 W <.M.f.{             ",
"            N.T.R.$.i * & & & & & & & & & & & & & o X X o o o X o o X . . . X $ 7 _ d.{             ",
"            M.T.H.2 O & & & & & & & & & & & & & & o X X o o o o o o o X X X . . o W d.[             ",
"  U Y R R R X.Y.E.s & & & & & & & & & & & & & & & o X X o o o o o o o o o o o X $ _ d.K Z C C C C   ",
"  Y Y Y Y R ( k.E.*.* & & & & & & & & & & & & & & o X X o o o o o o o o o X X X 7 v.) S Z C C C C C ",
"  U Y Y Y Y ( h U.G.2 & & & & & & & & & & & & & & o X X o o o o o o o o o X X o I v.w S C C C C C C ",
"            X.0 j.E.d & & & & & & & & & & & & & & o X X o o X X X o o o X X X $ _ ) - A             ",
"            c.8 d R.h.* & & & & & & & & & & & & & o X X X X X X X o o o X X o 7 v.e # A             ",
"            <.8 < x.G.2 & & & & & & & & & & & & & o X . . . . X X X X o X X o W <.- + A             ",
"            <.8 & l R.f & & & & & & & & * * = , = $ @ @ o o o X X X X X X X % =.W o + A             ",
"            <.8 & 2 H.j.* & & * < 4 a g $.h.l.z.z.-.Q Q I r 9 : - $ o X X X 9 <.3 X + A             ",
"            c.8 & * *.H.a i g *.F.H.E.E.~.~.~.~.Q.B.M.M.M.v.v.v.<.) W 9 - $ Q / $ X + A             ",
"            c.8 & & a R.G.U.E.!.~.~.~.~.~.~.~.~.!.C.M.M.M.M.M.M.M.M.M.v.<.) <.9 X X + A             ",
"            c.8 & & = l.~.!.!.~.~.~.~.~.!.Q.~.~.!.C.M.M.M.f.M.M.M.M.M.M.f.M._ % X X + A             ",
"            c.8 & & & *.~.T.Y.~.~.~.~.~.W.Y.!.~.!.C.M.M.s.o.M.M.M.M.M.s. .M.) @ X X + A             ",
"            c.8 & & & *.!.Y.K.~.~.~.~.~.T.A.!.~.!.C.M.M. . .M.M.M.M.M.s. .M./ @ X X + A             ",
"            c.8 & & * *.!.Y.A.~.~.~.~.~.T.A.!.~.!.C.M.M. . .M.M.M.M.M.s. .M./ @ X X + A             ",
"            c.8 & & * *.!.Y.A.~.~.~.~.~.T.A.!.~.!.C.M.M. . .M.M.M.M.M.s. .M./ @ X X + A             ",
"            c.8 & & * *.!.Y.A.~.~.~.~.~.T.A.!.~.!.C.M.M. . .M.M.M.M.M.s. .M./ @ X X + A             ",
"            c.8 & & * *.!.Y.A.~.~.~.~.~.T.A.!.~.!.C.M.M. . .M.M.M.M.M.s. .M./ @ X X + A             ",
"            <.8 & & * *.!.Y.A.~.~.~.~.~.T.A.!.~.Q.C.M.M. . .M.M.M.M.M.s. .M./ @ X X + A             ",
"            <.8 & & * *.!.Y.A.~.~.~.~.~.T.A.!.~.!.C.M.M. . .M.M.M.M.M.s. .M./ @ X X + A             ",
"            <.8 & & * *.!.Y.A.~.~.~.~.~.T.A.!.~.!.C.M.M. . .M.M.M.M.M.s. .M./ @ X X + A             ",
"            <.8 & & * *.!.Y.A.~.~.~.~.~.T.A.!.~.!.C.M.M. . .M.M.M.M.M.s. .M./ @ X X + A             ",
"            <.8 & & * *.!.Y.A.~.~.~.~.~.T.A.!.~.!.C.M.M. . .M.M.M.M.M.s. .M./ @ X X + A             ",
"            <.8 & & & *.!.Y.A.~.~.~.~.~.T.A.!.~.!.C.M.M. . .M.M.M.M.M.s. .M./ @ . . + A             ",
"            c.8 * & * *.!.Y.A.~.~.~.~.~.T.A.!.~.!.C.M.M. . .M.M.M.M.M.s. .M./ + o o + A             ",
"            v.h d s d l.~.Y.A.~.~.~.~.~.T.A.!.~.!.C.M.M. . .M.M.M.M.M.s. .M._ 7 : : 6 F             ",
"            M.L.R.R.R.E.~.Y.A.~.~.~.~.~.T.A.!.~.!.C.M.M. . .M.M.M.M.M.s.| M.v.<.<.<.X.[             ",
"            v.;.%.%.%.G.~.Y.A.~.~.~.~.~.T.A.!.~.!.C.M.M. . .M.M.M.M.M.s.| M.<.t r r r H             ",
"            <.8 * & * *.~.Y.A.~.~.~.~.~.T.A.!.~.!.C.M.M. . .M.M.M.M.M.s. .M./ + o o + A             ",
"            <.8 & & * &.~.Y.A.~.~.~.~.~.T.A.!.~.!.C.M.M. . .M.M.M.M.M.s. .M./ @ X X + A             ",
"            <.8 & & * *.!.Y.A.~.~.~.~.~.T.A.!.~.!.C.M.M. . .M.M.M.M.M.s. .M./ @ X X + A             ",
"            <.8 & & * *.!.Y.A.~.~.~.~.~.T.A.!.~.!.C.M.M. . .M.M.M.M.M.s. .M./ @ X X + A             ",
"            <.8 & & * *.!.Y.A.~.~.~.~.~.T.A.!.~.Q.C.M.M. . .M.M.M.M.M.s.| M./ @ X X + A             ",
"            <.8 & & * *.!.Y.A.~.~.~.~.~.T.A.!.~.!.C.M.M. . .M.M.M.M.M.s. .M./ @ X X + A             ",
"            <.8 & & * *.!.Y.A.~.~.~.~.~.T.A.!.~.!.C.M.M. . .M.M.M.M.M.s. .M./ @ X X + A             ",
"            <.8 & & * *.!.Y.A.~.~.~.~.~.T.A.!.~.Q.B.M.M. . .M.M.M.M.M.s. .M./ @ X X + A             ",
"            <.8 & & * *.!.Y.A.~.~.~.~.~.T.A.!.~.!.B.M.M. . .M.M.M.M.M.s. .M./ @ X X + A             ",
"            <.8 & & * *.!.Y.A.~.~.~.~.~.T.A.!.~.!.C.M.M. . .M.M.M.M.M.s. .M./ @ X X + A             ",
"            <.8 & & * *.!.Y.A.~.~.~.~.~.T.A.!.~.!.C.M.M. . .M.M.M.M.M.s.| M./ @ X X + A             ",
"            <.8 & & & &.~.Y.A.~.~.~.~.~.T.A.!.~.!.C.M.M. . .M.M.M.M.M.s.| M./ o . . + A             ",
"            c.0 < < 2 j.~.Y.A.~.~.~.~.~.T.A.!.~.!.C.M.M. . .M.M.M.M.M.s.| M.) % @ + # A             ",
"            v.#.z $.%.G.~.Y.A.~.~.~.~.~.T.A.!.~.!.C.M.M. . .M.M.M.M.M.s. .M.<.t e e w H             ",
"            v.;.*.*.*.G.~.Y.A.~.~.~.~.~.T.A.!.~.!.C.M.M. . .M.M.M.M.M.s.| M.<.I t t r H             ",
"            c.8 * * * *.~.Y.A.~.~.~.~.~.T.A.!.~.!.C.M.M. . .M.M.M.M.M.s.| M.) @ o X + A             ",
"            <.8 & & & &.!.Y.A.~.~.~.~.~.T.A.!.~.!.C.M.M. . .M.M.M.M.M.s. .M./ @ X . + A             ",
"            <.8 & & * *.!.Y.A.~.~.~.~.~.Y.A.!.~.!.C.M.M. . .M.M.M.M.M.s. .M./ @ X X + A             ",
"            <.8 & & * *.!.Y.A.~.~.~.~.~.T.A.!.~.!.C.M.M. . .M.M.M.M.M.s. .M./ @ X X + A             ",
"            <.8 & & * *.!.Y.A.~.~.~.~.~.T.A.!.~.!.C.M.M. . .M.M.M.M.M.s. .M./ @ X X + A             ",
"            <.8 & & * *.!.Y.A.~.~.~.~.~.T.A.!.~.!.C.M.M. . .M.M.M.M.M.s. .M./ @ X X + A             ",
"            <.8 & & * *.!.Y.A.~.~.~.~.~.T.A.!.~.!.C.M.M. . .M.M.M.M.M.s. .M./ @ X X + A             ",
"            <.8 & & * *.!.Y.A.~.~.~.~.~.T.A.!.~.!.C.M.M. . .M.M.M.M.M.s.| M./ @ X X + A             ",
"            <.8 & & * *.!.Y.A.~.~.~.~.~.T.A.!.~.!.C.M.M. . .M.M.M.M.M.s.| M./ @ X X + A             ",
"            <.8 & & * &.!.Y.Y.~.~.~.~.~.W.Y.!.~.!.C.M.M.o.o.M.M.M.M.M.d. .M./ @ X X + A             ",
"            <.8 & & & *.~.!.Q.~.~.~.~.~.!.Q.~.~.!.C.M.M.f.f.M.M.M.M.M.M.f.M./ @ . X + A             ",
"            <.8 & & a H.~.~.~.~.~.~.~.~.~.~.~.~.!.C.M.M.M.M.M.M.M.M.M.M.M.M.c.9 o . + A             ",
"            <.8 & d G.I.*.j.F.H.R.E.~.~.~.~.~.~.!.C.M.M.M.M.M.M.v.v.X.) W t / =.w @ + A             ",
"            <.0 g H.I.g 2 2 i a f j $.*.j.l.z.z.z.-.Q Q Q W t e 9 7 : - $ @ : / <.e - A             ",
"            v.-.H.U.g * & & O & & * * < 2 2 4 i 4 > - % $ $ @ @ o X . . . . o : ) c.P F             ",
"            M.C.U.j * & & & & & & & & & O O O O O . . . . . . . . X X X o X . X : ) ..J             ",
"              b.j * & & & & & & & & & & & & & & & o X X X X X X X o o o o X X . X : ~ ]             ",
"              c.k < & & & & & & & & & & & & & & & o X X o o X X X X X X X X . . o ; A G             ",
"              M.m.%.a < & & & & & & & & & & & & & o X X o o X X X . . . . . o - 9 ` J               ",
"              M.Z.W.G.*.d 2 , * & & & & & & & & & o . . . . . . . . o o $ - w / d.| ]               ",
"                n.P.E.~.R.z.$.f a 2 2 * * * * & & o o o o o @ + $ - 3 9 W _ v.N.<.^ J               ",
"                B V 9.8.(.~.~.E.H.z.j.$.l g f d s 7 : 7 7 9 e t Q _ c.v.M.1.:.x B N                 ",
"                c v m n V P.T.W.Q.Q.Q.Q.Q.E.T.U.U.v.O.d.d.d.d.f.f.f.f.s.O.u n b v v                 ",
"                  c v v b :.N.N.B.C.C.C.Z.Z.Z.Z.C.o.| } } } } } { { [ [ ^ M v v v                   ",
"                                                                                                    ",
"                                                                                                    "
};
