/* XPM */
static char *result[] = {
/* columns rows colors chars-per-pixel */
"50 100 188 2 ",
"   c #6B5A3D",
".  c #67583F",
"X  c #725E3B",
"o  c #7D5F37",
"O  c #75603A",
"+  c #7B6439",
"@  c #726D3E",
"#  c #7A723C",
"$  c #77703D",
"%  c #27374F",
"&  c #29374F",
"*  c #2B394E",
"=  c #343D4B",
"-  c #393F4A",
";  c #3F3F47",
":  c #273650",
">  c #293750",
",  c #2A3950",
"<  c #2E3F5D",
"1  c #3C4149",
"2  c #2F405C",
"3  c #3A4757",
"4  c #3E4A55",
"5  c #32425C",
"6  c #384658",
"7  c #434247",
"8  c #4A4945",
"9  c #424348",
"0  c #4B4443",
"q  c #524D43",
"w  c #594E41",
"e  c #4D544E",
"r  c #5B5241",
"t  c #5D5E47",
"y  c #51564D",
"u  c #5F574C",
"i  c #54594B",
"p  c #5B5D48",
"a  c #434D53",
"s  c #4B5250",
"d  c #475150",
"f  c #61584B",
"g  c #665A43",
"h  c #5F6047",
"j  c #626246",
"k  c #6B6842",
"l  c #716C40",
"z  c #EC2B1F",
"x  c #E91A23",
"c  c #EA2222",
"v  c #EA2B22",
"b  c #EC3E20",
"n  c #9F772E",
"m  c #826737",
"M  c #856936",
"N  c #926E33",
"B  c #857A37",
"V  c #8A7D35",
"C  c #827539",
"Z  c #827838",
"A  c #977332",
"S  c #9B7431",
"D  c #997D31",
"F  c #A47A2F",
"G  c #AB7D2D",
"H  c #B27C2C",
"J  c #A07730",
"K  c #DC441F",
"L  c #DE491F",
"P  c #E7471E",
"I  c #E1511F",
"U  c #E4611D",
"Y  c #E86A1D",
"T  c #F26E1C",
"R  c #EF751F",
"E  c #EE781F",
"W  c #F1771C",
"Q  c #F27B1C",
"!  c #F17714",
"~  c #DC4420",
"^  c #DD4920",
"/  c #CA5627",
"(  c #EE5622",
")  c #EF5A22",
"_  c #F15A23",
"`  c #F05623",
"'  c #CF6D28",
"]  c #DB6324",
"[  c #D37626",
"{  c #D47728",
"}  c #DA7923",
"|  c #E46D23",
" . c #F16222",
".. c #F26C20",
"X. c #E77F21",
"o. c #EA7721",
"O. c #BDA01F",
"+. c #9C892E",
"@. c #948431",
"#. c #A38E2C",
"$. c #BF8827",
"%. c #B2812B",
"&. c #BD8629",
"*. c #AC9427",
"=. c #AF9825",
"-. c #A5912A",
";. c #AA9429",
":. c #B29924",
">. c #BB9B24",
",. c #BDA020",
"<. c #DE9E1D",
"1. c #F3831E",
"2. c #F48C1C",
"3. c #F38816",
"4. c #E49C1F",
"5. c #EA9F1D",
"6. c #F59314",
"7. c #F6941B",
"8. c #F79B1A",
"9. c #F89D1A",
"0. c #F79F17",
"q. c #C3A41E",
"w. c #CDAB1A",
"e. c #CAA61C",
"r. c #D0AE19",
"t. c #DDAE16",
"y. c #D7B216",
"u. c #DCB513",
"i. c #DFB813",
"p. c #F8AE09",
"a. c #E6BC0E",
"s. c #E9BE0E",
"d. c #FAB60D",
"f. c #FBBD0B",
"g. c #EBA11E",
"h. c #F9A617",
"j. c #FAAB15",
"k. c #F5A41A",
"l. c #F9A618",
"z. c #FAA91A",
"x. c #F6A617",
"c. c #E6BD10",
"v. c #E3B612",
"b. c #F9B311",
"n. c #C58B27",
"m. c #CB8D25",
"M. c #C79623",
"N. c #D49323",
"B. c #DB9621",
"V. c #DE9920",
"C. c #F18220",
"Z. c #F48C29",
"A. c #F38926",
"S. c #E19A20",
"D. c #E89221",
"F. c #F59733",
"G. c #F8AA23",
"H. c #F8B628",
"J. c #F4A53C",
"K. c #F8B836",
"L. c #EDC10D",
"P. c #FDC606",
"I. c #FFCB03",
"U. c #F2C50A",
"Y. c #FCC208",
"T. c #FDCC0A",
"R. c #F6C707",
"E. c #FBC412",
"W. c #FDD114",
"Q. c #FBDB3B",
"!. c #F7BE4A",
"~. c #F8BB58",
"^. c #F5A749",
"/. c #FBDF47",
"(. c #FAC756",
"). c #F8C548",
"_. c #F8C863",
"`. c #FAD966",
"'. c #FCD975",
"]. c #FBE76C",
"[. c #FBE47C",
"{. c #F9E072",
"}. c #FCE684",
"|. c #FCF188",
" X c #FDF694",
".X c #FEF897",
"XX c #FDF898",
"oX c None",
/* pixels */
"oXoXoXoXoXoXoXoXoXoXoXoXoXoXoXoXoXoXoXoXoXoXoXoXoXoXoXoXoXoXoXoXoXoXoXoXoXoXoXoXoXoXoXoXoXoXoXoXoXoX",
"oXoXoXoXoXoXoXoXoXoXoXoXoXoXoXoXoXoXoXoXoXoXoXoXoXoXoXoXoXoXoXoXoXoXoXoXoXoXoXoXoXoXoXoXoXoXoXoXoXoX",
"oXoXoXoXoXoXoXoXoXoXoXoXoXoXoXoXoXoXoXoXoXoXoXoXoXoXoXoXoXoXoXoXoXoXoXoXoXoXoXoXoXoXoXoXoXoXoXoXoXoX",
"oXoXoXoXoXoXoXoXoXoXoXoXoXoXoXoXoXoXoXoXoXoXoXoXoXoXoXoXoXoXoXoXoXoXoXoXoXoXoXoXoXoXoXoXoXoXoXoXoXoX",
"oXoXoXoXoXoXoXoXoXoXoXoXoXoXoXoXoXoXoXoXoXoXoXoXoXoXoXoXoXoXoXoXoXoXoXoXoXoXoXoXoXoXoXoXoXoXoXoXoXoX",
"oXoXoXoXoXoXoXoXoXoXoXoXoXoXoXoXoXl.z.h.h.h.z.z.l.2.1.1.1.1.1.C.1.oXoXoXoXoXoXoXoXoXoXoXoXoXoXoXoXoX",
"oXoXoXoXoXoXoXoXoXoXoXoXl.l.h.h.h.l.8.8.8.7.7.7.7.E R R W o.W Q Q C.C.C.1.1.oXoXoXoXoXoXoXoXoXoXoXoX",
"oXoXoXoXoXoXoXoXoXoXl.h.l.l.h.k.1.T  . . ._ U _ ` P L L ~ ^ L L I  .Q C.Q 1.1.Q oXoXoXoXoXoXoXoXoXoX",
"oXoXoXoXoXoXoXoXk.z.H.G.l.b.b.7.) ` ` _ _ _ _ _ ) P K L ~ ~ K K P ~ Y 7.2.1.Z.F.Z.E oXoXoXoXoXoXoXoX",
"oXoXoXoXoXoXoXk.G.(.'.`.E.P.I.3.` ( ` ` _ ` ` _ ( K K L K K K K ~ ~ U k.k.9.(.'.(.Z.C.oXoXoXoXoXoXoX",
"oXoXoXoXoXoXoXk.J.'. X|.W.I.I.d.3.! Q ! Q Q Q ! W Y U I U I I Y U U 2.h.x.z.[. X}.^.C.oXoXoXoXoXoXoX",
"oXoXoXoXoXoXh.7.~. XXX].T.I.I.I.I.P.I.P.I.I.P.I.P.x.x.z.h.z.l.l.h.k.l.h.h.h.`..XXX_.Q C.oXoXoXoXoXoX",
"oXoXoXoXoXoXh.0.!. X XQ.I.I.I.I.I.I.I.I.I.I.I.I.P.j.h.h.h.h.h.h.h.h.l.l.l.l.K. XXX(.1.1.oXoXoXoXoXoX",
"oXoXoXoXoXoXh.j.b.]./.R.I.I.R.I.P.I.I.I.I.I.I.I.P.j.h.h.x.z.h.h.h.l.l.l.l.l.k.).'.K.7.C.oXoXoXoXoXoX",
"oXoXoXoXoXoXk.f.P.T.I.I.I.P.Y.I.I.I.I.I.I.I.I.I.I.j.h.h.h.l.l.l.l.x.l.9.8.h.h.l.z.h.8.Q oXoXoXoXoXoX",
"oXoXoXoXoXoXh.f.I.T.I.I.I.R.Y.I.I.I.I.I.I.I.I.I.P.j.z.h.h.l.h.l.h.h.h.9.8.h.h.l.z.z.8.1.oXoXoXoXoXoX",
"oXoXoXoXoXoXh.Y.I.I.P.I.I.f.Y.I.I.I.I.I.I.I.I.I.P.j.l.h.h.z.h.h.l.l.l.l.7.h.h.l.l.l.8.1.oXoXoXoXoXoX",
"oXoXoXoXoXoXh.Y.I.I.I.I.I.f.Y.I.I.I.I.I.I.I.I.I.I.j.l.l.h.h.z.l.l.l.l.9.7.h.h.h.l.l.k.1.oXoXoXoXoXoX",
"oXoXoXoXoXoXh.Y.I.I.I.I.I.d.Y.I.I.P.I.I.I.I.I.I.P.j.l.l.h.l.l.h.l.h.h.l.7.l.l.h.l.l.l.1.oXoXoXoXoXoX",
"oXoXoXoXoXoXj.Y.I.I.I.I.P.d.I.I.I.I.I.I.I.I.I.I.I.j.l.h.h.h.l.l.h.h.h.h.2.9.l.h.l.l.l.1.oXoXoXoXoXoX",
"oXoXoXoXoXoXj.P.I.I.I.I.Y.d.P.I.I.I.I.I.I.I.I.I.P.j.h.l.l.l.l.l.l.l.h.l.7.7.h.h.k.h.l.1.oXoXoXoXoXoX",
"oXoXoXoXoXoXj.Y.I.I.I.I.f.d.I.I.I.I.I.I.I.I.I.I.I.j.h.h.h.l.l.z.h.l.l.h.7.7.l.h.h.h.l.1.oXoXoXoXoXoX",
"oXoXoXoXoXoXj.P.I.R.I.I.d.f.I.I.I.I.I.I.I.I.I.I.P.j.l.h.h.h.h.h.l.h.l.h.8.2.l.l.l.l.l.1.oXoXoXoXoXoX",
"oXoXoXoXoXoXj.Y.I.I.I.I.b.f.I.I.I.I.I.I.I.I.I.I.P.j.l.h.h.h.h.l.l.l.l.h.8.2.l.l.l.l.l.2.oXoXoXoXoXoX",
"oXoXoXoXoXoXj.Y.I.I.I.I.b.Y.I.I.I.I.I.I.I.I.I.I.I.j.h.z.h.z.l.l.l.l.h.h.l.2.l.l.h.l.l.1.oXoXoXoXoXoX",
"oXoXoXoXoXoXj.Y.I.I.I.Y.d.P.I.I.I.I.I.I.I.I.I.I.I.h.h.h.h.h.l.l.l.l.l.h.l.2.8.l.h.l.8.2.oXoXoXoXoXoX",
"oXoXoXoXoXoXj.I.I.I.I.U.f.I.I.I.P.I.I.I.I.I.I.I.I.j.z.h.h.h.l.l.h.l.l.h.l.7.7.l.l.l.l.1.oXoXoXoXoXoX",
"oXoXoXoXoXoXj.Y.I.I.I.f.f.I.I.I.I.I.I.I.I.I.I.I.P.j.l.h.h.h.l.z.l.l.l.h.l.k.7.l.l.l.l.2.oXoXoXoXoXoX",
"oXoXoXoXoXoXj.Y.I.I.I.d.I.I.I.I.I.I.I.I.I.I.I.I.P.j.l.l.x.l.h.h.l.h.x.l.h.h.7.k.l.l.l.1.oXoXoXoXoXoX",
"oXoXoXoXoXoXj.Y.I.I.I.f.I.I.I.I.I.I.I.I.I.I.I.I.I.j.h.h.h.h.z.h.l.h.h.l.h.l.7.l.l.h.l.1.oXoXoXoXoXoX",
"oXoXoXoXoXoXh.Y.I.I.P.Y.I.I.I.I.I.I.I.I.I.I.I.I.P.j.h.h.l.h.h.h.h.l.l.l.l.l.l.9.l.l.l.2.oXoXoXoXoXoX",
"oXoXoXoXoXoXj.Y.I.I.I.I.I.I.I.R.I.T.I.I.I.I.I.I.I.h.z.z.z.h.z.h.z.h.h.h.l.l.l.l.l.l.8.1.oXoXoXoXoXoX",
"oXoXoXoXoXoXh.Y.I.I.I.I.I.I.T.T.L.y.q.=.@.@.@.@.# + m m M A F &.m.4.k.l.z.l.l.l.l.l.k.1.oXoXoXoXoXoX",
"oXoXoXoXoXoXj.Y.I.I.I.R.c.,.@.k e a 6 5 < < < 5 5 , : & , : & = - 7 r m %.B.k.z.x.z.l.1.oXoXoXoXoXoX",
"oXoXoXoXoXoXh.P.I.R.r.@.i 6 5 5 < 5 5 5 5 5 5 5 5 , & , , , , , & > : & * 9 O n.8.k.l.1.oXoXoXoXoXoX",
"oXoXoXoXoXoXj.Y.L.V 4 2 2 2 5 5 5 5 5 5 5 5 6 5 5 , & & , , , , , & & & & : % = X B.l.2.oXoXoXoXoXoX",
"oXoXoXoXoXoXl.Y.w.3 2 2 5 5 5 5 5 5 5 5 5 6 5 5 5 , * , , , , , , , , , & & , , & %.l.C.oXoXoXoXoXoX",
"oX) ) ) ) _ 2.Y.L.h 2 6 5 6 5 5 5 5 5 5 5 5 5 5 5 , * , * , , , , , , , , , , & 9 V.l.R ^ K K K ~ oX",
"oX_ ` _ _ _ E y.I.@.2 5 5 5 5 5 5 6 5 5 5 5 5 5 5 , , , , , , , , , , , * , & , X l.V.] ~ K K K ~ K ",
") _ _ _ ) _ } @.R.w.4 5 5 5 5 5 5 5 5 5 5 5 5 5 5 , * , , , , , , , , , , , & & H l.N / K K K K K K ",
"oXoXoXoXoXoXD.g q.R.h 5 5 5 5 5 5 5 5 5 5 5 5 6 5 , * , , , , , , , , , * , , 9 <.B.w ' oXoXoXoXoXoX",
"oXoXoXoXoXoXg.f Z T.@.5 5 5 5 5 5 5 5 5 5 5 5 5 5 , & , & * & , , * , , & & , O k.A 9 { oXoXoXoXoXoX",
"oXoXoXoXoXoXg.f d i.r.4 5 5 5 5 5 5 5 5 5 5 5 5 5 , , , , , , , * , , , % , & %.5.q ; { oXoXoXoXoXoX",
"oXoXoXoXoXoXg.f 2 +.U.h 5 5 5 5 5 5 5 5 5 5 5 5 5 , & > > > % > , , , , , % 8 V.H * 7 { oXoXoXoXoXoX",
"oXoXoXoXoXoXg.f 2 h L.@.2 2 2 2 2 3 d h l B @.#.-.F S N +   w 8 1 , % % , , O k.. : 7 { oXoXoXoXoXoX",
"oXoXoXoXoXoXg.f 2 6 ,.w.4 6 h # -.e.i.U.W.T.T.T.I.j.z.h.h.k.g.V.n.n + 8 = & %.m.- > 7 [ oXoXoXoXoXoX",
"oXoXoXoXoXoXg.f 2 2 @ L.;.q.L.R.I.I.I.I.I.I.I.I.P.j.h.l.h.j.l.h.z.h.z.g.n.J 4.m : > 9 [ oXoXoXoXoXoX",
"oXoXoXoXoXoXg.f 2 5 4 r.I.I.I.I.I.I.I.I.I.I.I.I.I.j.l.h.h.z.l.l.h.h.h.h.j.j.B.7 , : 9 [ oXoXoXoXoXoX",
"oXoXoXoXoXoXg.f < 5 5 =.T.Y.Y.I.I.P.I.I.I.I.I.I.Y.j.z.h.h.l.h.h.h.h.h.9.8.l.n.* > & 7 [ oXoXoXoXoXoX",
"oXoXoXoXoXoXg.f 5 5 5 ;.I.Y.f.I.I.I.I.I.I.I.I.I.I.h.l.l.x.h.l.l.h.h.z.9.7.l.&.* > & 7 [ oXoXoXoXoXoX",
"oXoXoXoXoXoXg.f < 5 5 ;.I.Y.f.I.I.I.I.I.I.I.I.I.I.j.l.h.h.l.h.h.h.h.h.8.7.h.&.* > > 9 [ oXoXoXoXoXoX",
"oXoXoXoXoXoXg.f 5 5 5 ;.I.f.f.I.I.I.I.I.I.I.I.I.P.j.h.z.h.l.l.z.l.h.h.8.7.h.n.= > > 9 [ oXoXoXoXoXoX",
"oXoXoXoXoXoXg.f 2 5 5 ;.I.Y.f.I.I.I.I.I.I.I.I.I.P.j.h.l.h.l.h.l.l.l.h.8.7.z.n.* > > 7 [ oXoXoXoXoXoX",
"oXoXoXoXoXoXg.f 2 2 5 =.I.Y.f.T.I.I.I.I.I.I.I.I.I.j.h.z.h.z.l.l.l.l.h.8.7.j.&.* , > 7 [ oXoXoXoXoXoX",
"oXoXoXoXoXoXg.f 5 5 5 =.I.f.f.I.I.I.I.I.I.I.I.I.P.j.h.h.h.h.h.l.l.h.h.8.7.h.&.* > > 7 [ oXoXoXoXoXoX",
"oXoXoXoXoXoXg.f 2 5 5 *.I.f.Y.I.I.I.I.I.I.I.I.I.P.j.h.h.h.h.l.l.l.h.z.8.7.h.&.= > > 7 [ oXoXoXoXoXoX",
"oXoXoXoXoXoXg.f 2 5 5 *.I.f.f.I.I.I.I.I.I.I.I.I.P.j.l.l.h.h.l.l.l.l.h.9.7.h.n.= > > 7 [ oXoXoXoXoXoX",
"oXoXoXoXoXoX5.f 2 5 5 *.I.Y.f.I.I.I.I.I.I.I.I.I.P.j.h.l.h.l.l.l.l.l.l.9.7.h.&.* > > 7 [ oXoXoXoXoXoX",
"oXoXoXoXoXoXg.f 5 5 5 *.I.f.f.I.I.I.I.I.I.I.I.I.P.j.z.l.h.h.h.z.l.h.l.9.7.h.&.= > > 7 [ oXoXoXoXoXoX",
"oXoXoXoXoXoXg.f 2 5 5 *.I.f.Y.I.I.I.I.I.I.I.I.I.I.j.h.l.h.h.h.h.l.l.l.9.7.l.&.* > % 7 [ oXoXoXoXoXoX",
"oXoXoXoXoXoXg.f 2 5 5 =.I.Y.f.I.I.I.I.I.I.I.I.I.P.j.h.h.l.l.l.h.l.h.h.9.7.h.n.* & & 7 [ oXoXoXoXoXoX",
"oXoXoXoXoXoXk.>.=.*.*.u.I.Y.f.I.I.I.I.I.I.I.I.I.P.j.h.h.l.l.l.h.l.h.z.8.7.h.4.G G F G X.oXoXoXoXoXoX",
"oXoXoXoXoXoXx.>.*.=.=.u.I.f.f.I.I.I.I.I.I.I.I.I.I.j.h.h.h.z.h.h.l.l.h.8.7.h.4.G G G H X.oXoXoXoXoXoX",
"oXoXoXoXoXoXg.g 5 5 2 =.I.f.Y.I.I.I.I.I.I.I.I.I.P.j.z.h.h.h.h.l.l.h.h.8.7.h.&.* & & 7 [ oXoXoXoXoXoX",
"oXoXoXoXoXoXg.f 2 5 5 *.I.f.f.I.I.I.I.I.I.I.I.I.P.j.h.h.h.l.l.h.l.l.l.9.7.h.&.* * > 7 [ oXoXoXoXoXoX",
"oXoXoXoXoXoXg.f 2 5 5 *.I.f.f.I.T.I.I.I.I.I.I.I.I.j.z.h.h.l.h.z.l.l.l.9.7.h.&.= > > 7 [ oXoXoXoXoXoX",
"oXoXoXoXoXoXg.f 5 5 5 *.I.Y.f.I.I.I.I.I.I.I.I.I.P.j.h.h.h.h.h.l.l.l.h.8.7.h.n.= > > 7 [ oXoXoXoXoXoX",
"oXoXoXoXoXoXg.f 5 5 5 *.I.Y.f.I.I.I.I.I.I.I.I.I.P.j.h.h.h.l.l.l.z.h.h.8.7.j.&.* > > ; [ oXoXoXoXoXoX",
"oXoXoXoXoXoXg.f 2 5 5 *.I.f.f.I.I.I.I.I.I.I.I.I.I.j.l.l.h.z.h.h.l.l.h.8.7.h.&.= > > 7 [ oXoXoXoXoXoX",
"oXoXoXoXoXoXg.f 2 5 5 *.I.f.f.I.I.I.I.I.I.I.I.I.I.j.l.h.x.l.l.l.l.h.h.8.7.h.&.* > > 7 [ oXoXoXoXoXoX",
"oXoXoXoXoXoXg.f 2 5 2 =.I.Y.f.T.I.I.I.I.I.I.I.I.P.h.l.l.h.z.l.l.l.h.h.9.7.z.&.= > > 7 [ oXoXoXoXoXoX",
"oXoXoXoXoXoXg.f 2 5 5 =.I.Y.Y.I.I.I.I.I.I.I.T.I.I.j.h.h.h.l.l.h.l.h.z.9.7.h.&.* > > 7 [ oXoXoXoXoXoX",
"oXoXoXoXoXoXg.f 5 5 5 *.I.R.P.I.I.I.I.I.I.I.I.I.I.h.z.h.h.l.h.l.l.h.z.0.8.h.&.= > > 7 [ oXoXoXoXoXoX",
"oXoXoXoXoXoXg.f 2 5 5 ;.I.I.I.I.I.I.I.I.I.I.I.I.I.j.l.h.h.h.l.l.l.h.l.l.h.h.&.* > > 7 [ oXoXoXoXoXoX",
"oXoXoXoXoXoXg.f 2 5 6 >.I.I.I.I.I.I.I.I.I.I.I.I.P.j.h.h.h.l.l.l.h.h.k.h.h.h.N.; > > 7 [ oXoXoXoXoXoX",
"oXoXoXoXoXoXg.f 5 2 j L.e.u.U.I.I.I.I.I.I.I.I.I.I.h.z.h.h.h.h.h.j.h.z.k.S.n.4.X > > 7 [ oXoXoXoXoXoX",
"oXoXoXoXoXoXg.f 2 6 :.r.a d j Z -.O.u.a.U.R.T.I.P.j.l.k.k.g.4.N.$.F + r 7 - %.n.- > 7 [ oXoXoXoXoXoX",
"oXoXoXoXoXoXg.f 2 h L.V 5 5 5 2 5 3 a e h k $ # B + +   . w 8 1 = & % , , >   g.  : 7 [ oXoXoXoXoXoX",
"oXoXoXoXoXoXg.f 5 ;.c.e 5 5 5 5 5 5 5 5 5 2 < 2 5 , : : : , & & , % , & & , - m.&.= 7 [ oXoXoXoXoXoX",
"oXoXoXoXoXoXg.f p L.-.5 5 5 5 5 5 5 5 5 5 5 5 5 5 , % , , , , , , , & , , & % m k.. ; [ oXoXoXoXoXoX",
"oXoXoXoXoXoXg.f -.U.j 5 5 5 5 5 5 5 6 5 5 5 5 6 5 2 , , , , , , , , , , , * , 9 <.&.8 [ oXoXoXoXoXoX",
"oXoXoXoXoXoXg.M L.,.3 5 5 5 5 5 5 5 5 5 5 5 5 5 5 , * , , , , , , , , , , , , & F g.o [ oXoXoXoXoXoX",
"oXoXoXoXoXoX5.e.R.l 2 5 5 5 5 5 5 5 5 5 5 5 5 5 5 , * , , , , , & , , , * * , , r g.m.} oXoXoXoXoXoX",
"oXoXoXoXoXoXk.f.u.d 2 6 5 5 5 5 5 5 5 5 5 5 5 5 5 , , , , , , * , , , & , , & , * &.9.Q oXoXoXoXoXoX",
"oXoXoXoXoXoXz.f.L.@.a 2 2 2 2 5 5 5 5 5 5 5 5 5 2 , % , * , , , , , , % > > * 1 O N.8.C.oXoXoXoXoXoX",
"oXoXoXoXoXoXl.b.T.R.u.=.$ y 4 6 5 5 2 2 2 5 5 2 2 , , , , , : , % % & = 8   S N.k.z.7.Q oXoXoXoXoXoX",
"oXoXoXoXoXoXl.b.R.I.I.I.I.L.r.:.+.B @ j h i e s s 9 9 8 8 q r . + N G m.S.k.h.h.h.l.2.1.oXoXoXoXoXoX",
"oXoXoXoXoXoXoXh.P.I.I.I.I.I.I.I.T.I.I.U.L.L.L.c.v.t.V.4.4.g.g.k.l.z.l.h.l.l.h.h.h.l.1.1.oXoXoXoXoXoX",
"oXoXoXoXoXoXoXz.d.T.I.I.I.I.I.I.I.I.I.I.I.I.I.I.Y.j.l.h.h.h.h.h.l.l.l.h.l.h.h.h.l.8.1.oXoXoXoXoXoXoX",
"oXoXoXoXoXoXoXh.b.I.I.I.I.I.I.I.P.I.I.I.I.I.I.I.I.j.h.l.h.h.l.h.l.l.l.h.l.l.h.h.l.2.1.oXoXoXoXoXoXoX",
"oXoXoXoXoXoXoXoX3.6.p.f.I.I.I.I.I.I.I.I.I.I.I.I.Y.j.z.l.h.l.l.l.l.l.l.z.h.h.9.7.Q ..oXoXoXoXoXoXoXoX",
"oXoXoXoXoXoXoXoXz c z P ! Y.I.I.I.I.I.I.I.I.I.I.I.j.l.l.h.h.h.h.l.l.l.z.0.T b v c c oXoXoXoXoXoXoXoX",
"oXoXoXoXoXoXoXoXoXx x x c 2.d.b.d.f.f.f.f.f.f.Y.d.k.8.8.8.8.8.7.8.7.7.7.Q c x x x oXoXoXoXoXoXoXoXoX",
"oXoXoXoXoXoXoXoXoXoXoXoXoXoXz.l.l.l.l.k.z.z.z.k.l.1.1.C.Q C.C.C.C.C.Q Q oXoXoXoXoXoXoXoXoXoXoXoXoXoX",
"oXoXoXoXoXoXoXoXoXoXoXoXoXoXoXoXoXoXoXoXoXoXoXoXoXoXoXoXoXoXoXoXoXoXoXoXoXoXoXoXoXoXoXoXoXoXoXoXoXoX",
"oXoXoXoXoXoXoXoXoXoXoXoXoXoXoXoXoXoXoXoXoXoXoXoXoXoXoXoXoXoXoXoXoXoXoXoXoXoXoXoXoXoXoXoXoXoXoXoXoXoX",
"oXoXoXoXoXoXoXoXoXoXoXoXoXoXoXoXoXoXoXoXoXoXoXoXoXoXoXoXoXoXoXoXoXoXoXoXoXoXoXoXoXoXoXoXoXoXoXoXoXoX",
"oXoXoXoXoXoXoXoXoXoXoXoXoXoXoXoXoXoXoXoXoXoXoXoXoXoXoXoXoXoXoXoXoXoXoXoXoXoXoXoXoXoXoXoXoXoXoXoXoXoX",
"oXoXoXoXoXoXoXoXoXoXoXoXoXoXoXoXoXoXoXoXoXoXoXoXoXoXoXoXoXoXoXoXoXoXoXoXoXoXoXoXoXoXoXoXoXoXoXoXoXoX",
"oXoXoXoXoXoXoXoXoXoXoXoXoXoXoXoXoXoXoXoXoXoXoXoXoXoXoXoXoXoXoXoXoXoXoXoXoXoXoXoXoXoXoXoXoXoXoXoXoXoX"
};
