/* XPM */
static char *result[] = {
/* columns rows colors chars-per-pixel */
"100 50 181 2 ",
"   c #29374F",
".  c #2A384F",
"X  c #2A3A50",
"o  c #313F5A",
"O  c #274252",
"+  c #2B4354",
"@  c #2C4A57",
"#  c #2E4E59",
"$  c #32425B",
"%  c #364A5E",
"&  c #384D5F",
"*  c #2F515A",
"=  c #315B5E",
"-  c #2D605F",
";  c #394E61",
":  c #3C5463",
">  c #345E60",
",  c #3F5A66",
"<  c #1A7F69",
"1  c #286D64",
"2  c #356264",
"3  c #386166",
"4  c #346C66",
"5  c #3A6C6A",
"6  c #37736A",
"7  c #347C6C",
"8  c #387A6C",
"9  c #3B736A",
"0  c #415C67",
"q  c #415C68",
"w  c #45656B",
"e  c #496B6E",
"r  c #42746F",
"t  c #4B6E70",
"y  c #4C7373",
"u  c #447D73",
"i  c #517B76",
"p  c #537F79",
"a  c #7F7E63",
"s  c #B53B37",
"d  c #EB1A23",
"f  c #E71B23",
"g  c #D92B2D",
"h  c #E1282D",
"j  c #8F5346",
"k  c #9F5D4E",
"l  c #90604F",
"z  c #80735C",
"x  c #A86151",
"c  c #B66153",
"v  c #22865D",
"b  c #22885E",
"n  c #1E8B64",
"m  c #168D6F",
"M  c #1C8769",
"N  c #19956C",
"B  c #178E70",
"V  c #0F9F73",
"C  c #149E72",
"Z  c #1A9B72",
"A  c #179470",
"S  c #258B61",
"D  c #288F65",
"F  c #21806B",
"G  c #35826F",
"H  c #2B9267",
"J  c #2C9769",
"K  c #2D986A",
"L  c #21996E",
"P  c #389E64",
"I  c #3B8571",
"U  c #3C8D75",
"Y  c #239573",
"T  c #339D71",
"R  c #399F71",
"E  c #3E9479",
"W  c #359E7B",
"Q  c #3F9A7B",
"!  c #3A9177",
"~  c #0FA175",
"^  c #13A175",
"/  c #1BA477",
"(  c #1DA578",
")  c #1EA879",
"_  c #23A477",
"`  c #21A67A",
"'  c #26A87C",
"]  c #2BAA7D",
"[  c #3AA072",
"{  c #32AC7F",
"}  c #3CA97C",
"|  c #36A377",
" . c #709C58",
".. c #72A24F",
"X. c #4C8D7B",
"o. c #57847B",
"O. c #598A7D",
"+. c #419C7C",
"@. c #49947D",
"#. c #52937E",
"$. c #5E9D77",
"%. c #629774",
"&. c #42A86E",
"*. c #42A47E",
"=. c #40A97D",
"-. c #44AB72",
";. c #4DB07F",
":. c #5BB47F",
">. c #6CAB6C",
",. c #7EAB68",
"<. c #7AAE72",
"1. c #66B477",
"2. c #78B671",
"3. c #A5816B",
"4. c #8DBE7B",
"5. c #94BF7B",
"6. c #C0A947",
"7. c #D9B247",
"8. c #E3B744",
"9. c #E5C555",
"0. c #DBD57C",
"q. c #E2C469",
"w. c #F1D778",
"e. c #E6D97A",
"r. c #FEE57F",
"t. c #34AE81",
"y. c #3AAF82",
"u. c #3DB184",
"i. c #35B081",
"p. c #5C8E81",
"a. c #5E9382",
"s. c #589D83",
"d. c #639B86",
"f. c #659F89",
"g. c #609582",
"h. c #42A680",
"j. c #43AD82",
"k. c #4AA983",
"l. c #44B386",
"z. c #4CB485",
"x. c #4FB689",
"c. c #4FB88A",
"v. c #5EB782",
"b. c #51B78A",
"n. c #54B98B",
"m. c #5BBA8E",
"M. c #5DB48D",
"N. c #5EBD90",
"B. c #67A48A",
"V. c #69A68B",
"C. c #6CAC8E",
"Z. c #61BB8E",
"A. c #6DB78E",
"S. c #6FB191",
"D. c #62BD91",
"F. c #69BE93",
"G. c #72B593",
"H. c #75BB96",
"J. c #7CBF97",
"K. c #6CC188",
"L. c #6AC093",
"P. c #72C296",
"I. c #76C498",
"U. c #7AC59A",
"Y. c #7BC89C",
"T. c #91A383",
"R. c #91C185",
"E. c #9FD38E",
"W. c #85C999",
"Q. c #94C991",
"!. c #A0D48E",
"~. c #A4D499",
"^. c #B4DD90",
"/. c #CDE498",
"(. c #D6E694",
"). c #FBE381",
"_. c #FFF38F",
"`. c #EBF096",
"'. c #FEF795",
"]. c #F7F598",
"[. c None",
/* pixels */
"[.[.[.[.[.[.[.[.[.[.[.[.[.[.[.[.[.[.[.[.[.[.[.[.[.[.[.[.[.[.[.[.[.[.[.[.[.[.[.[.[.[.[.[.[.[.[.[.[.[.[.[.[.[.[.[.[.[.[.[.[.[.[.[.[.[.[.[.[.[.[.[.[.[.[.[.[.[.[.[.[.[.[.[.[.[.[.[.[.[.[.[.[.[.[.[.[.[.[.[.",
"[.[.[.[.[.[.[.[.[.[.[.[.[.[.[.[.[.[.[.[.[.[.[.[.[.[.[.[.[.[.[.[.[.[.[.[.[.[.[.[.[.[.[.[.[.[.[.[.[.[.[.[.[.[.[.[.[.[.[.[.[.[.[.[.[.K K K [.[.[.[.[.[.[.[.[.[.[.[.[.[.[.[.[.[.[.[.[.[.[.[.[.[.[.[.[.[.[.[.",
"[.[.[.[.[.[.[.[.[.[.[.[.[.[.[.[.[.[.[.[.[.[.[.[.[.[.[.[.[.[.[.[.[.[.[.[.[.[.[.[.[.[.[.[.[.[.[.[.[.[.[.[.[.[.[.[.[.[.[.[.[.[.[.[.[.K K K [.[.[.[.[.[.[.[.[.[.[.[.[.[.[.[.[.[.[.[.[.[.[.[.[.[.[.[.[.[.[.[.",
"[.[.[.[.[.[.[.[.[.[.[.[.[.[.[.[.[.[.[.[.[.[.[.[.[.[.[.[.[.[.[.[.[.[.[.[.[.[.[.[.[.[.[.[.[.[.[.[.[.[.[.[.[.[.[.[.[.[.[.[.[.[.[.[.[.K K K [.[.[.[.[.[.[.[.[.[.[.[.[.[.[.[.[.[.[.[.[.[.[.[.[.[.[.[.[.[.[.[.",
"[.[.[.[.[.[.[.[.[.[.[.[.[.[.[.[.[.[.[.[.[.[.[.[.[.[.[.[.[.[.[.[.[.[.[.[.[.[.[.[.[.[.[.[.[.[.[.[.[.[.[.[.[.[.[.[.[.[.[.[.[.[.[.[.[.K K K [.[.[.[.[.[.[.[.[.[.[.[.[.[.[.[.[.[.[.[.[.[.[.[.[.[.[.[.[.[.[.[.",
"[.[.[.[.[.[.[.[.[.[.[.[.[.[.[.[.[.[.[.[.[.[.[.[.[.[.[.[.[.[.[.[.[.[.[.[.[.[.[.[.[.[.[.[.[.[.[.[.[.[.[.[.[.[.[.[.[.[.[.[.[.[.[.[.[.J K K [.[.[.[.[.[.[.[.[.[.[.[.[.[.[.[.[.[.[.[.[.[.[.[.[.[.[.[.[.[.[.[.",
"[.[.[.[.[.[.[.[.[.[.l.j.j.j.j.j.j.j.j.j.j.j.j.j.j.j.l.u.j.l.j.j.j.j.j.j.j.j.j.j.j.j.l.j.j.j.j.j.j.j.j.j.j.j.j.j.j.j.j.j.j.j.j.j.y.T W y.l.l.l.l.l.l.l.l.l.l.l.z.l.l.x.l.l.l.l.l.l.l.u.u.[.[.[.[.[.[.[.[.",
"[.[.[.[.[.[.l.l.h.z.n.X.2 3 2 2 3 3 3 3 3 3 3 3 3 3 p.#.3 3 3 3 3 3 3 3 3 3 3 3 > #.F.u 3 3 3 3 3 3 3 3 3 3 3 3 3 3 3 3 3 3 3 3 , r s.F.L.P.F.F.P.F.P.P.P.P.L.L.P.P.F.L.F.F.D.D.N.n.v.>.;.l.[.[.[.[.[.[.",
"[.[.[.d k l.c.m.5 y H.H.t o $ $ o $ $ o $ o $ $ o o O.p.o $ o $ $ $ $ $ $ o $ o o o.U.w o $ o $ $ o $ o o $ $ $ ; o $ o o o % w p.G.Y.H.S.H.U.U.U.U.U.U.U.U.U.U.I.U.U.U.U.U.U.U.U.U.T.9.6.>.j.j.[.[.[.[.",
"[.[.f d x D.I.p.$ $ y H.G.w o $ $ $ $ $ o ; $ $ o o O.g.$ $ $ $ $ $ $ $ $ $ $ $ $ o.U.w o $ $ $ $ $ $ $ $ $ $ $ $ o o o : i V.H.U.S.p.w ; i U.U.U.U.U.U.U.U.U.U.U.U.U.U.U.U.U.U.U.U.Y.(.r.q.<.l.[.[.[.[.",
"[.[.f d 3.Y.G., $ $ $ y H.S.q $ $ $ o o o o o $ $ o O.d.$ $ o $ o $ o $ o $ $ $ o o.J.w $ $ $ $ $ o $ $ $ $ $ o o % q p.G.U.G.p.e ; $ o o ; C.U.U.U.U.U.U.U.U.U.U.U.Y.U.Y.U.U.U.U.U.I.~.].'.0.:.l.[.[.[.",
"[.[.f h T.Y.a.$ $ $ $ $ y H.C.O.O.O.O.p.p.o.p.o.O.p.V.G.O.O.O.O.O.O.O.O.O.O.O.o.O.V.U.d.o.O.O.o.o.p.O.O.o.p.O.o.p.f.H.G.g.t ; $ o $ $ $ $ o p Y.U.U.U.U.U.U.U.U.U.U.U.U.U.U.U.I.U.I.U.Y./.'.r.4.l.[.[.[.",
"[.[.h c T.Y.5 $ $ $ $ $ $ a.Y.Y.U.U.Y.U.U.U.Y.Y.W.U.U.U.Y.Y.Y.U.Y.U.U.Y.Y.Y.Y.Y.U.Y.U.Y.U.U.Y.Y.Y.Y.Y.Y.Y.U.Y.Y.Y.Y.S.: o $ $ $ $ $ ; $ $ o , G.I.Y.Y.I.Y.I.U.U.U.U.U.U.U.U.U.U.U.U.U.U.Q.(.r.4.l.u.[.[.",
"[.[.%.F.Y.V.; $ $ $ % $ % f.Y.P.D.D.D.D.D.D.F.D.D.D.D.F.D.D.D.D.D.D.D.D.D.D.D.D.D.D.D.D.D.D.D.D.D.D.D.D.D.D.D.D.F.I.G.: o $ $ $ $ $ o $ $ o ; h.x.b.n.m.N.D.F.P.I.U.U.I.U.U.U.I.U.U.U.U.I.W.Q.v.l.l.[.[.",
"[.[.l.F.U.O.$ $ $ $ $ $ ; C.Y.I.D.N.N.N.N.N.N.M.N.N.M.N.D.m.m.M.D.m.m.Z.m.D.m.D.D.m.m.D.m.D.m.D.m.D.D.m.N.N.N.N.D.I.U.t $ $ $ ; $ $ ; $ $ $ o 8 b.x.x.x.x.x.x.x.c.b.m.N.D.F.L.P.I.I.U.U.U.U.I.b.l.l.[.[.",
"[.[.l.I.Y.e $ $ $ $ $ $ 0 H.U.U.U.U.U.U.U.U.U.U.U.U.U.U.U.U.U.U.Y.U.U.U.U.U.U.U.U.U.U.U.U.U.U.U.U.U.U.U.U.U.U.U.U.U.U.p.$ $ o o $ $ o $ $ $ o t I.I.I.I.I.I.I.I.I.P.I.P.P.P.P.I.I.I.U.U.Y.I.Y.L.l.l.[.[.",
"[.[.l.I.H.: o ; $ $ $ $ e I.Y.U.U.U.U.U.J.U.U.U.U.U.I.U.J.U.U.U.U.U.U.J.U.U.U.Y.U.U.J.U.U.U.U.I.U.U.U.U.U.U.U.U.U.U.U.V.% $ $ $ $ $ $ $ $ $ o , H.Y.Y.I.U.U.U.U.U.U.U.U.U.U.U.U.U.U.U.U.U.U.U.F.l.l.l.[.",
"[.[.x.I.C.; o o $ $ $ $ i U.Y.U.U.U.U.U.U.U.I.U.U.U.U.U.U.U.U.U.U.U.U.U.U.I.U.U.U.U.I.U.U.U.I.Y.U.U.U.U.U.U.U.U.U.U.U.G.& $ $ $ $ o ; o $ $ o ; S.Y.U.U.U.I.U.U.U.U.U.U.U.U.U.U.U.U.U.U.U.U.I.U.z.l.l.[.",
"[.[.c.I.a.; o o $ $ $ $ o.U.U.U.I.U.U.U.U.U.U.U.U.U.U.Y.U.U.U.U.U.U.U.U.U.U.U.U.U.U.J.U.U.U.U.U.J.U.U.U.U.U.U.U.U.U.U.H.w $ $ $ ; o $ o $ $ $ ; V.U.U.U.U.Y.U.U.U.U.U.U.U.U.U.U.U.U.U.U.U.H.-.Z.n.l.l.[.",
"[.[.b.Y.p.o o ; $ $ $ $ a.Y.U.U.U.U.U.U.U.U.U.U.U.U.U.Y.U.U.U.U.U.U.U.U.U.U.U.U.U.U.W.U.U.U.I.Y.U.U.U.U.U.U.U.U.U.U.U.U.i $ $ $ $ $ $ o $ $ $ ; p.N.N.D.F.H.I.I.U.U.U.U.U.U.U.U.U.U.Y.U.Y.P.R [ b.l.l.[.",
"[.[.x.Y.i o ; o $ $ $ % f.U.U.I.L.L.L.F.F.L.L.L.L.L.L.K.L.L.L.K.F.L.L.L.Z.L.L.K.F.F.D.L.K.L.L.L.F.F.L.L.L.L.Z.L.F.U.U.Y.o.o $ $ o $ $ ; o o $ $ p.c.N.M.N.N.N.D.D.D.I.I.U.I.U.U.U.U.U.U.U.P.R J } l.l.[.",
"[.[.b.I.y o o o $ $ $ % V.U.U.H.m.n.n.M.M.n.m.n.M.m.b.n.n.m.n.m.M.n.n.n.m.M.m.n.n.m.m.m.n.m.n.m.m.n.n.M.n.n.m.m.D.I.U.Y.%.$ o ; o ; $ $ ; o ; $ p.Y.U.U.I.I.U.U.U.U.U.U.I.U.U.U.U.U.U.U.U.P.R J T l.l.[.",
"[.[.b.I.t o ; o $ $ $ % C.U.U.U.U.U.I.U.U.I.Y.I.U.U.I.Y.I.I.I.U.I.U.Y.I.U.U.U.I.U.I.I.Y.U.U.U.U.Y.U.I.U.I.I.U.U.Y.U.U.Y.d.o o $ $ $ ; $ o o o o p.I.I.I.U.U.U.U.U.U.U.U.U.U.U.U.U.U.U.U.Y.P.[ J K } l.[.",
"[.[.b.I.e o $ o $ $ $ ; S.U.U.U.U.U.U.U.U.U.U.U.U.U.U.U.U.U.U.I.U.U.U.U.U.U.U.U.U.U.U.I.U.U.I.I.U.U.U.U.U.U.U.U.U.U.U.U.B.; $ $ $ o o $ $ $ o o i I.Y.Y.U.U.U.U.H.U.U.U.U.U.U.U.U.J.U.U.Y.P.[ J K } l.[.",
"[.[.b.I.w o $ $ $ $ o ; C.I.I.I.I.I.I.I.I.I.I.I.I.I.I.I.I.I.I.I.I.I.I.I.I.I.I.I.I.I.I.I.I.I.P.I.I.I.I.I.I.I.I.I.I.I.I.I.B.% $ $ o ; o o o $ ; o p I.I.U.I.I.I.I.I.I.U.I.I.I.I.I.I.I.I.I.I.P.R J K } u.[.",
"[.[.t.x.> X X X X X X + k.b.x.x.b.b.b.z.c.c.c.c.z.c.b.z.c.c.c.c.x.b.b.b.b.z.b.b.c.c.c.c.c.c.c.c.b.x.b.z.c.b.z.c.x.x.x.c.+.X X X X X   X X X X X 6 x.x.b.x.x.c.c.c.c.x.x.x.x.x.x.x.x.x.b.x.z.H b b L ) [.",
"[.[.C u.=       . X . + y.j.l.l.l.l.l.l.l.l.l.l.l.l.l.l.l.l.l.l.j.l.l.l.l.j.l.l.l.l.l.l.l.l.l.l.l.l.l.l.l.l.l.l.j.l.l.l.E X X X         X       6 l.l.l.j.l.l.l.l.l.l.l.l.l.j.l.l.l.l.l.l.l.S v b N ^ [.",
"[.[.t.l.>   X   X X X X Q l.l.l.l.l.l.l.l.l.l.l.l.l.l.l.l.l.l.l.l.l.l.l.l.l.l.l.l.l.l.l.l.l.l.l.l.l.l.l.l.l.l.l.l.l.l.l.U X   . X X X   X X     7 l.u.l.l.l.l.l.l.u.l.l.l.l.u.l.l.l.l.l.l.j.H v b C ^ [.",
"[.[.^ u.2   X X . X . X E l.l.l.{ ] ] ] { ] { ] ] { { ] { ] { ] { ] { { ] { { ] ] ] { ] ] { { ] ] { { ] ] ] { ] { l.l.l.I . . X X X X X   X     7 l.l.l.u.j.l.l.l.l.l.l.l.l.l.l.l.l.l.l.l.j.H v S ^ ^ [.",
"[.[.t.l.6   X X X . . X E l.l.u.{ ] ] ] ' ' ' ' ' ' ' ] ] ' ' ] ] ] ' ' ' ' ] ' ' ] ] ' ] ' ] ] ' ' ' ' ] ' ] ] { l.l.l.8 .   X X X   X X X X X 7 t.t.t.t.t.t.t.t.u.u.u.l.l.l.l.l.l.l.l.l.j.D b N ^ ^ [.",
"[.[.( l.7   X   . X . . I l.l.l.l.l.l.l.z.l.l.l.l.l.l.l.l.l.l.l.u.l.l.z.l.l.l.l.l.;.l.l.l.l.l.l.l.l.z.l.l.z.l.l.l.l.l.l.4   X .   X X X X X X X F ( t.( t.t.t.u.u.u.l.l.l.l.l.l.l.l.l.l.l.l.D S _ ^ ^ [.",
"[.[.( l.I   X X X . . . 8 l.l.l.l.l.l.l.l.l.l.;.l.l.l.z.l.l.l.l.l.l.l.l.l.l.l.l.l.l.l.l.l.l.l.l.l.l.l.l.l.l.l.l.l.l.l.j.=   X . X X X X X   X X ! u.l.j.l.l.l.l.l.l.l.l.l.l.l.l.l.l.l.l.l.j.H T ' ^ ^ [.",
"[.[.( u.E X   X . . . . 6 l.l.l.l.l.l.l.l.l.l.l.l.l.l.l.l.l.l.l.l.l.l.l.l.l.l.l.l.l.l.l.l.l.l.l.l.l.l.l.l.l.l.l.l.l.u.h.# X   X X . X . X .   + Q l.l.l.l.l.l.l.l.l.l.l.l.l.l.l.l.l.l.l.l.l.y.l.( ^ ^ [.",
"[.[.( u.*.@   . X . . . 2 l.l.l.l.l.l.l.l.l.l.l.l.l.l.l.l.l.l.l.l.l.l.l.l.l.l.l.l.l.l.l.l.l.l.l.l.l.l.l.l.l.l.l.l.l.j.h.+ X X X . . . X . X   @ h.l.l.l.l.l.l.l.l.l.l.l.l.l.l.l.l.l.l.l.l.l.l.i./ ^ C [.",
"[.[./ u.j.=   . . X X   * y.l.l.l.l.l.l.l.l.u.u.l.l.l.l.l.l.l.l.l.l.l.l.l.l.l.l.l.l.l.l.l.l.l.l.l.l.l.l.l.l.l.u.l.l.l.I     X X X X X X X . . > l.l.l.l.l.l.l.l.l.l.l.l.l.u.l.l.l.l.l.l.l.l.l.{ ^ ~ [.[.",
"[.[.^ y.l.6 . . X . X   + *.l.l.t.t.t.t.t.t.t.t.t.t.t.t.t.t.i.i.i.i.i.i.t.t.t.t.t.t.t.{ t.t.t.t.t.t.t.t.t.t.t.t.t.l.l.5     X   X   X . . . . 1 t.' ' ' ' ' ` ` ` ' ' ' t.t.t.y.} l.l.l.l.l.l.' ^ ^ [.[.",
"[.[.Z t.l.! X . X X X   X E l.u.t.t.t.t.t.( t.t.t.t.( t.' ' ' ' ( t.) t.t.t.( ` ' ' ' ' ' ' ' ' t.t.t.) t.( t.( t.l.j.*     X X X X . X . . . < ^ / ( ( ( ' t.t.t.t.u.l.y.l.l.l.l.l.l.l.l.l.;._ ^ ^ [.[.",
"[.[.s z l.j.% X . X . . . I l.l.u.l.t.t.l.l.u.u.u.l.u.t.l.l.l.l.u.l.l.l.u.u.l.l.l.l.l.l.l.l.l.l.l.t.l.l.l.u.l.l.u.l.E X     X   . . X X .   @ | t.i.u.l.l.l.l.l.l.l.l.l.l.l.l.l.l.l.l.l.b.!.0.1.~ ^ [.[.",
"[.[.d g $.l.6 . . . . . # +.y.E ! h.h.I E E E E ! @.y.h.Q E E E E E E E E E E E +.*.l.+.+.E +.E ! ! E E E E E Q E h.j.! 4 $ X   . . . . .   2 l.l.l.l.l.l.l.l.l.l.l.l.l.l.l.l.l.l.l.l.l.!.'.r.2.^ [.[.[.",
"[.[.d h a l.Q + . .   # +.j.2 X X X X X X + X X X X 8 U X O X X + X X X + X X + X 6 l.= . X X X X o X X X + X X X @ 4 E j.y.I 2 @ . . . . X U l.l.l.l.l.l.l.l.l.l.l.l.l.l.l.l.l.l.l.l.K.`.'.e.-.~ [.[.[.",
"[.[.d d k i.l.6 X   # h.h.4   X             X       8 I X . . . X   X   . . . . . 6 l.=   . . . . . . . . . . . X .   O = I h.l.*.I = + . > l.l.l.l.l.l.l.l.l.l.l.l.l.l.l.u.l.l.l.l.l.^._.w.,.^ [.[.[.[.",
"[.[.[.d j / ' W # # h.j.5 X         X X X     X     8 8 . . . . . . . X . . . .   6 j.=   . . . . . . X . . . . . X   X   X # 6 +.l.l.+.I +.l.l.l.l.l.l.l.l.l.l.l.l.l.l.l.l.l.l.l.l.Z.9.7. .Z ~ [.[.[.[.",
"[.[.[.[.[.V ^ / B Z t.G + O O O X O O O O O O O O O 7 7 O O O O O X O O O O O O X 7 j.2 O O O O O O X O O O O O O X O O O O O O @ 1 ! l.l.u.u.u.u.u.l.l.l.l.l.u.u.u.l.u.y.u.y.t.t.] &...P ^ ^ [.[.[.[.[.",
"[.[.[.[.[.[.[.[.V V V A B B B B m m m m m m m m B B Z Z m m m m B B B B m m m m m Z ^ A m m m m m m B m B B B B B B B B B B B B m M n Z / / ( / ( / ( / ( / ( ( ( ( ( ( / / / / ^ C ^ C ~ [.[.[.[.[.[.[.",
"[.[.[.[.[.[.[.[.[.[.[.[.[.[.[.[.[.[.[.[.[.[.[.[.[.[.[.[.[.[.[.[.[.[.[.[.[.[.[.[.[.[.[.[.[.[.[.[.[.[.[.[.[.[.[.[.[.[.[.[.[.[.[.[.[.v b b [.[.[.[.[.[.[.[.[.[.[.[.[.[.[.[.[.[.[.[.[.[.[.[.[.[.[.[.[.[.[.[.",
"[.[.[.[.[.[.[.[.[.[.[.[.[.[.[.[.[.[.[.[.[.[.[.[.[.[.[.[.[.[.[.[.[.[.[.[.[.[.[.[.[.[.[.[.[.[.[.[.[.[.[.[.[.[.[.[.[.[.[.[.[.[.[.[.[.v b v [.[.[.[.[.[.[.[.[.[.[.[.[.[.[.[.[.[.[.[.[.[.[.[.[.[.[.[.[.[.[.[.",
"[.[.[.[.[.[.[.[.[.[.[.[.[.[.[.[.[.[.[.[.[.[.[.[.[.[.[.[.[.[.[.[.[.[.[.[.[.[.[.[.[.[.[.[.[.[.[.[.[.[.[.[.[.[.[.[.[.[.[.[.[.[.[.[.[.v b v [.[.[.[.[.[.[.[.[.[.[.[.[.[.[.[.[.[.[.[.[.[.[.[.[.[.[.[.[.[.[.[.",
"[.[.[.[.[.[.[.[.[.[.[.[.[.[.[.[.[.[.[.[.[.[.[.[.[.[.[.[.[.[.[.[.[.[.[.[.[.[.[.[.[.[.[.[.[.[.[.[.[.[.[.[.[.[.[.[.[.[.[.[.[.[.[.[.[.v b v [.[.[.[.[.[.[.[.[.[.[.[.[.[.[.[.[.[.[.[.[.[.[.[.[.[.[.[.[.[.[.[.",
"[.[.[.[.[.[.[.[.[.[.[.[.[.[.[.[.[.[.[.[.[.[.[.[.[.[.[.[.[.[.[.[.[.[.[.[.[.[.[.[.[.[.[.[.[.[.[.[.[.[.[.[.[.[.[.[.[.[.[.[.[.[.[.[.[.v S v [.[.[.[.[.[.[.[.[.[.[.[.[.[.[.[.[.[.[.[.[.[.[.[.[.[.[.[.[.[.[.[.",
"[.[.[.[.[.[.[.[.[.[.[.[.[.[.[.[.[.[.[.[.[.[.[.[.[.[.[.[.[.[.[.[.[.[.[.[.[.[.[.[.[.[.[.[.[.[.[.[.[.[.[.[.[.[.[.[.[.[.[.[.[.[.[.[.[.v v [.[.[.[.[.[.[.[.[.[.[.[.[.[.[.[.[.[.[.[.[.[.[.[.[.[.[.[.[.[.[.[.[."
};
