/* XPM */
static char *ff2fef81dc8746dfc5c27cdbadf837abFvz67RYUa4mb6qMa[] = {
/* columns rows colors chars-per-pixel */
"50 46 178 2 ",
"   c None",
".  c #67423F",
"X  c #70413E",
"o  c #4D4342",
"O  c #4D4343",
"+  c #4D4545",
"@  c #4E4645",
"#  c #4D4646",
"$  c #534443",
"%  c #654341",
"&  c #6C4441",
"*  c #664C4A",
"=  c #6E4E4B",
"-  c #734A46",
";  c gray40",
":  c #6D6D6D",
">  c gray43",
",  c #6F6F6F",
"<  c #6F7070",
"1  c #737474",
"2  c #747474",
"3  c gray46",
"4  c #767676",
"5  c #777777",
"6  c gray47",
"7  c #797979",
"8  c gray48",
"9  c #7B7B7B",
"0  c gray49",
"q  c #7E7E7E",
"w  c gray50",
"e  c #B81F19",
"r  c #BB1E19",
"t  c #C21D16",
"y  c #C31D16",
"u  c #C21E17",
"i  c #C72D24",
"p  c #D52F23",
"a  c #DD3126",
"s  c #DD372D",
"d  c #CB3B30",
"f  c #E93927",
"g  c #EA3927",
"h  c #E23429",
"j  c #E43B2A",
"k  c #E0382F",
"l  c #EA3D2C",
"z  c #E43B32",
"x  c #CF4436",
"c  c #C8463A",
"v  c #D9503F",
"b  c #E54038",
"n  c #E1443C",
"m  c #E5463D",
"M  c #E34E3C",
"N  c #834642",
"B  c #844541",
"V  c #8F504B",
"C  c #9B5852",
"Z  c #935858",
"A  c #935958",
"S  c #915B5A",
"D  c #975C5B",
"F  c #985C5C",
"G  c #995D5C",
"H  c #A45048",
"J  c #A1564D",
"K  c #AE574B",
"L  c #B7584F",
"P  c #B35D52",
"I  c #A76259",
"U  c #876F6B",
"Y  c #866E6E",
"T  c #956261",
"R  c #9A6A68",
"E  c #81716E",
"W  c #877D7C",
"Q  c #8C7A7A",
"!  c #907E7D",
"~  c #A16967",
"^  c #BC7B6F",
"/  c #AE7C73",
"(  c #CD5B4F",
")  c #DC5646",
"_  c #C45E53",
"`  c #D05751",
"'  c #DF5B53",
"]  c #E64E45",
"[  c #E65442",
"{  c #E95349",
"}  c #E95B49",
"|  c #EA5E55",
" . c #E36654",
".. c #EE6359",
"X. c #C8746C",
"o. c #D0736A",
"O. c #EC6A60",
"+. c #C3827E",
"@. c #808080",
"#. c #808181",
"$. c #818181",
"%. c gray51",
"&. c #838383",
"*. c #848484",
"=. c #848585",
"-. c gray52",
";. c gray53",
":. c #888888",
">. c #898888",
",. c #898989",
"<. c gray54",
"1. c #8B8B8B",
"2. c gray55",
"3. c #8D8D8D",
"4. c #8E8E8E",
"5. c gray56",
"6. c #909090",
"7. c gray57",
"8. c #929292",
"9. c #939393",
"0. c #939595",
"q. c #939596",
"w. c gray58",
"e. c #949595",
"r. c #959595",
"t. c gray59",
"y. c #979797",
"u. c #989898",
"i. c gray60",
"p. c #989B9B",
"a. c #9A9A9A",
"s. c #9A9B9B",
"d. c #9B9B9B",
"f. c #9D9C9B",
"g. c #9B9C9C",
"h. c #9B9D9D",
"j. c #9B9E9E",
"k. c gray61",
"l. c #9D9D9D",
"z. c #9C9E9E",
"x. c #9C9F9F",
"c. c gray62",
"v. c #9F9F9F",
"b. c #A5908F",
"n. c #A0A0A0",
"m. c gray63",
"M. c #A2A2A2",
"N. c gray64",
"B. c #A4A4A4",
"V. c #A5A5A5",
"C. c gray65",
"Z. c #A7A7A7",
"A. c gray66",
"S. c #A9A9A9",
"D. c #AAAAAA",
"F. c gray67",
"G. c #ACACAC",
"H. c #AEAEAE",
"J. c #AFAFAF",
"K. c gray69",
"L. c #B1B1B1",
"P. c #B2B2B2",
"I. c gray70",
"U. c #B3B4B4",
"Y. c #B4B4B4",
"T. c gray71",
"R. c #B6B6B6",
"E. c #B7B7B7",
"W. c gray72",
"Q. c #B9B9B9",
"!. c gray73",
"~. c #BBBBBB",
"^. c #BCBCBC",
"/. c #BCBDBD",
"(. c gray74",
"). c #BDBEBE",
"_. c gray",
"`. c #BEBFBF",
/* pixels */
"n { ..                                                                                              ",
"s b ] | O.                                                                                          ",
"p h z m ' +.                                                                                        ",
"    a k ` b.p.                                                                                      ",
"          f.V.t.                                                                                    ",
"            S.                                                                                      ",
"            p.                                                                                      ",
"              G.                                                                                    ",
"              7.M.t.k.                                                                              ",
"                M.  %.      1.    5.t.  t.p.                                                        ",
"                k.                              -.      5.    7.    7.k.    k.                      ",
"                  G.                                                        1.            7.    k.7.",
"                  k.                                                                            M.k.",
"                                                                                                M.M.",
"                    M.                                                                          M.  ",
"                                                                                                M.  ",
"                      p.  7.    7.p.  7.t.    t.    7.    5.    5.    5.    5.p.    p.    k.  V.k.  ",
"                      %.M.  %.    %.    0     0     5     6 0   6     6 -.    -.    -.    5.  M.p.  ",
"                        M.                                                                    S.k.  ",
"                        7.                                                                    S.M.  ",
"                          V.                                                                  V.M.  ",
"                          7.                                                                  S.k.  ",
"                            S.                                          t.    7.p.  7.t.7.7.k.k.    ",
"                            t.                    p.    t.p.7.5.7.-.1.  0 -.                  M.    ",
"                              V.  t.p.t.7.t.1.1.    %.                                        M.    ",
"                              7.                                                    M.G.  V.V.p.    ",
"                                                                    M.    M.G.V.M.V.p.p.t.5.%.      ",
"                                M.                    S.  V.S.V.M.V.p.k.p.7.7.1.                    ",
"                                t.~.  S.  S.K.K.k.V.k.p.k.t.7.5.                                    ",
"                                  t.k.k.M.-.6 5 , ,                                                 ",
"                                    7.M.1.; ; 5 5                                                   ",
"                                    G.5.,                                                           ",
"                                  K.5.                                                              ",
"                                Y.7.                                                                ",
"                                p.                                                                  ",
"                              k.                                                                    ",
"                            M.-.                                                                    ",
"                          V.1.7.G.K.K.K.K.U.K.Y.Y.Y.Y.Y.Y.Y.Y.Y.~.~.~.~.~.~.(.(.(.(.(.(.U.          ",
"                          %.0 1.7.q.q.q.q.t.t.t.t.t.t.t.t.t.t.p.p.p.p.p.p.p.p.g.g.g.k.k.p.1.        ",
"                            < 6 Y Z Z Z D R W %.%.%.%.%.%.%.%.%.%.%.-.-.-.-.! ~ G G G T Q 1         ",
"                                  r u u d _                                   ( i u u r             ",
"                                  x f l  ./                                   ^ } f j c             ",
"                                  K [ v I E                                   U P M ) J             ",
"                                * C o.H =                                       - L X.V             ",
"                                  & B .                                         $ X N %             ",
"                                  @ o @                                           @ o               "
};
