/* XPM */
static char *f9b55266fd18443be3b1db3f95529e2ebiX5C05h67v4kDAe[] = {
/* columns rows colors chars-per-pixel */
"50 50 98 2 ",
"   c #5B4E4E",
".  c #5B5050",
"X  c #6C4846",
"o  c #714441",
"O  c #7C4743",
"+  c gray39",
"@  c #6D6B6B",
"#  c #7D6D6B",
"$  c #727272",
"%  c #7E7473",
"&  c #757678",
"*  c #77797B",
"=  c #797C7D",
"-  c #BF3835",
";  c #CA1B14",
":  c #DF392E",
">  c #E43A30",
",  c #E83D33",
"<  c #B04A3F",
"1  c #BA493D",
"2  c #D7463D",
"3  c #EE412C",
"4  c #EA4C39",
"5  c #E9513E",
"6  c #9B534C",
"7  c #BB4441",
"8  c #A7544C",
"9  c #A45B55",
"0  c #8B6564",
"q  c #8A6868",
"w  c #906867",
"e  c #926A6A",
"r  c #B66C65",
"t  c #BD6D69",
"y  c #BF7B6E",
"u  c #B47B7A",
"i  c #B97C7A",
"p  c #D34E42",
"a  c #DB564F",
"s  c #D3594C",
"d  c #E84F46",
"f  c #C06359",
"g  c #DC6B5E",
"h  c #D26763",
"j  c #DE6963",
"k  c #C87769",
"l  c #E36860",
"z  c #7B7E81",
"x  c #7F8284",
"c  c #848586",
"v  c #8F8384",
"b  c #85898B",
"n  c #8A8C8D",
"m  c #928787",
"M  c #898E91",
"N  c #8D9295",
"B  c #919496",
"V  c #929699",
"C  c #969A9C",
"Z  c #999C9E",
"A  c #AE9494",
"S  c #A39B9F",
"D  c #AA9C9D",
"F  c #BB9F9F",
"G  c #979DA0",
"H  c #9A9FA1",
"J  c #AA9FA2",
"K  c #9DA2A5",
"L  c #9EA5A9",
"P  c #A2A4A5",
"I  c #ABA4A7",
"U  c #A1A6A9",
"Y  c #A3A9AC",
"T  c #A2A9AD",
"R  c #A4A9AC",
"E  c #A5AAAD",
"W  c #A6ACAF",
"Q  c #A8AAAB",
"!  c #ABABAF",
"~  c #ADABAF",
"^  c #A8ACAF",
"/  c #B7A6A7",
"(  c #A3ABB0",
")  c #A4ABB0",
"_  c #A3ACB1",
"`  c #A4ADB2",
"'  c #A7AFB4",
"]  c #ABAFB1",
"[  c #A9AFB3",
"{  c #A7B0B5",
"}  c #ACB0B2",
"|  c #A9B1B5",
" . c #AEB3B6",
".. c #AFB4B6",
"X. c #AEB5B8",
"o. c #B1B7BA",
"O. c #B2B9BC",
"+. c #CD8F8C",
/* pixels */
"{ { { { { { { { { { { { { { { { { { { { { { { { { { { { { { { { { { { { { { { { { { { { { { { { { { ",
"{ { { { { { { { { { { { { { { { { { { { { { { { { { { { { { { { { { { { { { { { { { { { { { { { { { ",
"{ { { { { { { { { { { { { { { { { { { { { { { { { { { { { { { { { { { { { { { { { { { { { { { { { { ",
"{ { { { { { { { { { { { { { { { { { { { { { { { { { { { { { { { { { { { { { { { { { { { { { { { { { ",
"{ { { { { { { { { { { { { { { { { { { { { { { { { { { { { { { { { { { { { { { { { { { { { { { { { { ",
"{ { { { { { { { { { { { { { { { { { { { { { { { { { { { { { { { { { { { { { { { { { { { { { { { { { ",
"{ { { { { { { { { { { { { { { { { { { { { { { { { { { { { { { { { { { { { { { { { { { { { { { { { { ",
"{ { { { { { { { { { { { { { { { { { { { { { { { { { { { { { { { { { { { { { { { { { { { { { { { { { ",
"{ { { { { { { { { { { { { { { { { { { { { { { { { { { { { { { { { { { { { { { { { { { { { { { { { { ",
"{ { { { { { { { { { { { { { { { { { { { { { { { { { { { { { { { { { { { { { { { { { { { { { { { { { ",
"{ { { { { { { { { { { { { { { { { { { { { { { { { { { { { { { { { { { { { { { { { { { { { { { { { { ",
"{ { ' { ! ~ { { { ' { { { { { { { { { { { { { { { { { { { { { { { { { { { { { { { { { { { { { { { { ",
"{ { { I h j +./ [ { { { { { { { { { { { { { { { { { { { { { { { { { { { { { { { { { { { { { { { { { ",
"{ { { A : , d l F { ' ' { { { { { { { { { { { { { { { { { { { { { { { { { { { { { { { { { { { { { { ",
"{ { { Q t 2 > a D Y | { { { { { { { { { { { { { { { { { { { { { { { { { { { { { { { { { { { { { { { ",
"{ { ' { ' J i u U R U | ' { { { { { { { { { { { { { { { { { { { { { { { { { { { { { { { { { { { { { ",
"{ { { ' { { { ' K  .L R { ' { { { { { { { { { { { { { { { { { { { { { { { { { { { { { { { { { { { { ",
"{ { { { { { { { _ P X.H [ ' ' ' ' ' ' ' ' { { { { { { { { { { { { { { { { { { { { { { { { { { { { { ",
"{ { { { { { { ' { K } U R | | | | | | { { { { { { { ' ' ' ' ' ' ' ' ' { { { { { { { { { { { { { { { ",
"{ { { { { { { { { Y C R C K U H U R U R R R [ [ ` [ | | | | | | | | { { { { { { { { ' ' ' ' { { { { ",
"{ { { { { { { { ' { K  .L U ' K U ` C U Y C Y U C U U Z Y U K R R P R R R [ ` ` | | | | | | ' { { { ",
"{ { { { { { { { { { Y P X.L | _ U | Y R | L W { L ` ' K ` _ K ` Y H ` L H Y K H Y K K Y R K ` { { { ",
"{ { { { { { { { { { { K  .Y R { L [ ` L | ( U | Y R | L ` { L [ ` U | ` U | Y R | U R { [ P { ' { { ",
"{ { { { { { { { { { { Y U | U | Y Y | L ` { L | ` U | Y R | L ` { L [ ` U | ( Y | U R { ^ U | ' { { ",
"{ { { { { { { { { { { ' K ..U W { L | ` U | Y R { L | ` U | Y R | U [ ' L | _ U | Y R { ! R { ' { { ",
"{ { { { { { { { { { { { L P W P W L U R K R U K Y K P Y H U L K Y K P R K R R P ` U R [ Q Y { { { { ",
"{ { { { { { { { { { { { ` V R V C L N K G N L N Z K M K V B K N H G B L V Z L B U H Z Y P U { { { { ",
"{ { { { { { { { { { { ' { L R ` K | K R ` H | Y R { K | Y U | K ` ` K | L Y ' K | Y R | R ` { { { { ",
"{ { { { { { { { { { { { { ` K X.L [ ` U | L ` ` U | U W ' L | Y R ' L | Y R { K | Y Y | Q ` { { { { ",
"{ { { { { { { { { { { { ' { L ^ ` U | L [ _ U | L [ _ U | L [ _ U | L [ ( Y | U | ) W | P ` { { { { ",
"{ { { { { { { { { { { { { { ` K X.L [ Y Y { L | Y R | U | Y R ' U [ U R R K U H P K H R H ` { { { { ",
"{ { { { { { { { { { { { { ' { K [ ` R | U [ U U R K U H H K V K V Z Z V L B L C L L K [ P | ' { { { ",
"{ { { { { { { { { { { { { { { Y C R C H H V L N L C K L Z ` G ` L Y _ L { L | Y [ ` ^ } U { ' { { { ",
"{ { { { { { { { { { { { { { { { H } L L ` K | L ` Y U { L | L [ ` R X.R o.R  .R R P Z C L { { { { { ",
"{ { { { { { { { { { { { { { { { Y P X.L | L ` ` R | U X.W  .} ! } P Q Z Z C C C G K L Y ' { { { { { ",
"{ { { { { { { { { { { { { { { { ' K o.` [ X.^ o.Q ^ P P Z Z C C G H K L Y ` ' { { { { { { { { { { { ",
"{ { { { { { { { { { { { { { { { { Y Z K P B $ @ + * K L Y _ ` ' { { { { { { { { { { { { { { { { { { ",
"{ { { { { { { { { { { { { { { { ' { Y Y P = = B K L { { { { { { { { { { { { { { { { { { { { { { { { ",
"{ { { { { { { { { { { { { { { { { ' o.P M L ' | { { ' { { { { { { { { { { { { { { { { { { { { { { { ",
"{ { { { { { { { { { { { { { { { ' X.P N ` { { { { { { { { { { { { { { { { { { { { { { { { { { { { { ",
"{ { { { { { { { { { { { { { { ' X.R N ` { ' { { { { { { { { { { { { { { { { { { { { { { { { { { { { ",
"{ { { { { { { { { { { { { { ' | ^ N _ ' ' ' ' ' ' ' ' ' ' ' ' ' ' ' ' ' ' ' ' ' ' ' { { { { { { { { ",
"{ { { { { { { { { { { { { ' | [ n [ X.X.o.X.X.X.o.o.o.o.o.o.o.o.O.O.O.O.O.O.O.O.O.o.` { ' { { { { { ",
"{ { { { { { { { { { { { { { Y n b C K K P P P P P P P P P P P P P P P P Q Q Q ^ ^ P K ` { { { { { { ",
"{ { { { { { { { { { { { { { Y b c c q 0 0 w v n n n n n n n n n n n n n m e e e e v b L { { { { { { ",
"{ { { { { { { { { { { { { ' { ` ( P 7 ; ; p A Y Y Y Y Y Y Y Y Y Y Y Y ( D s ; ; - S _ ' { { { { { { ",
"{ { { { { { { { { { { { { { { { { Y r 3 4 k B { { { { { { { { { { { { { C y 5 3 f L { { { { { { { { ",
"{ { { { { { { { { { { { { { { { | N 6 g 1 # K { { { { { { { { { { { { { L % < g 8 c { { { { { { { { ",
"{ { { { { { { { { { { { { { { { | M O 9 o M { { { { { { { { { { { { { { { V X 9 O x { { { { { { { { ",
"{ { { { { { { { { { { { { { { { { Y $   & Y { ' { { { { { { { { { { { { { ` z . @ L { { { { { { { { "
};
