/* XPM */
static char *_5aea7b4394e424d83adc2db1dc95fe81qSrKXGSsoIvNg6P[] = {
/* columns rows colors chars-per-pixel */
"50 50 114 2 ",
"   c #050505",
".  c #070708",
"X  c #0A0709",
"o  c #070808",
"O  c #0C0B0C",
"+  c #100A0F",
"@  c #0F0E10",
"#  c #140D13",
"$  c #190F17",
"%  c #0F1010",
"&  c #131314",
"*  c #191017",
"=  c #161718",
"-  c #1D131B",
";  c #1A1C1C",
":  c #21151E",
">  c #1D1F20",
",  c #231621",
"<  c #271A25",
"1  c #291B26",
"2  c #2C1D2A",
"3  c #1F2121",
"4  c #212324",
"5  c #252728",
"6  c #2F202D",
"7  c #272929",
"8  c #2A2C2D",
"9  c #32202F",
"0  c #352232",
"q  c #392636",
"w  c #3C2638",
"e  c #3E293A",
"r  c #2E3132",
"t  c #313435",
"y  c #343738",
"u  c #36393B",
"i  c #393C3E",
"p  c #422B3E",
"a  c #3B3E40",
"s  c #462E42",
"d  c #492F45",
"f  c #4A3146",
"g  c #4E3349",
"h  c #51354D",
"j  c #563952",
"k  c #583A53",
"l  c #5E3D59",
"z  c #603F5B",
"x  c #3E4143",
"c  c #414446",
"v  c #434649",
"b  c #45494B",
"n  c #494D4E",
"m  c #4A4E50",
"M  c #4D5254",
"N  c #505457",
"B  c #525759",
"V  c #555A5C",
"C  c #585C5F",
"Z  c #63415D",
"A  c #595E61",
"S  c #664461",
"D  c #6A4564",
"F  c #6E4867",
"G  c #734B6D",
"H  c #774E70",
"J  c #794F73",
"K  c #7D5276",
"L  c #5D6265",
"P  c #5F6568",
"I  c #616669",
"U  c #656B6D",
"Y  c #676C70",
"T  c #696F72",
"R  c #6D7376",
"E  c #6F7578",
"W  c #71777A",
"Q  c #73797C",
"!  c #84567C",
"~  c #86587F",
"^  c #777D81",
"/  c #875980",
"(  c #8C5C84",
")  c #8F5E88",
"_  c #915F89",
"`  c #95618C",
"'  c #9C6693",
"]  c #9F6896",
"[  c #A06997",
"{  c #A16998",
"}  c #7C8286",
"|  c #7E8689",
" . c #80878B",
".. c #82898D",
"X. c #868D91",
"o. c #899195",
"O. c #8E959A",
"+. c #91999E",
"@. c #959DA1",
"#. c #979FA4",
"$. c #97A0A4",
"%. c #9AA2A6",
"&. c #9BA3A8",
"*. c #9BA4A8",
"=. c #9CA4A9",
"-. c #9EA7AC",
";. c #9FA8AD",
":. c #A2AAAF",
">. c #A3ABB0",
",. c #A3ACB1",
"<. c #A5AEB3",
"1. c #A6AFB4",
"2. c #A7B0B5",
"3. c #A8B1B6",
/* pixels */
"2.2.2.2.2.2.2.2.2.2.2.2.2.2.2.2.2.2.2.2.2.2.2.2.2.2.2.2.2.2.2.2.2.2.2.2.2.2.2.2.2.2.2.2.2.2.2.2.2.2.",
"2.2.2.2.2.2.2.2.2.2.2.2.2.2.2.2.2.2.2.2.2.2.2.2.2.2.2.2.2.2.2.2.2.2.2.2.2.2.2.2.2.2.2.2.2.2.2.2.2.2.",
"2.2.2.2.2.2.2.2.2.2.2.2.2.2.2.2.2.2.2.2.2.2.2.2.2.2.2.2.2.2.2.2.2.2.2.1.2.2.2.2.2.2.2.2.2.2.2.2.2.2.",
"2.2.2.2.2.2.2.2.2.2.2.2.2.2.2.2.2.2.2.2.2.2.2.2.2.2.2.2.2.2.2.2.2.2.1.2.1.,.<.1.2.2.2.2.2.2.2.2.2.2.",
"2.2.2.2.2.2.2.2.2.2.2.2.2.2.2.2.2.2.2.2.2.2.2.2.2.2.2.2.2.2.2.2.2.2.2.1.@.^ | -.2.2.2.2.2.2.2.2.2.2.",
"2.2.2.2.2.2.2.2.2.2.2.2.2.2.2.2.2.2.2.2.2.2.2.2.2.2.2.2.2.2.2.2.2.2.2.;.U 3 y o.1.2.2.2.2.2.2.2.2.2.",
"2.2.2.2.2.2.2.2.2.2.2.2.2.2.2.2.2.2.2.2.2.2.2.2.2.2.2.2.2.2.2.2.2.2.2.@.a   4 ..1.2.2.2.2.2.2.2.2.2.",
"2.2.2.2.2.2.2.2.2.2.2.2.2.2.2.2.2.2.2.2.2.2.2.2.2.2.2.2.2.2.2.2.2.2.<.} >   a +.2.2.2.2.2.2.2.2.2.2.",
"2.2.2.2.2.2.2.2.2.2.2.2.2.2.2.2.2.2.2.2.2.2.2.2.2.2.2.2.2.2.2.2.2.2.=.C O % I -.2.2.2.2.2.2.2.2.2.2.",
"2.2.2.2.2.2.1.:.=.%.@.@.@.@.#.%.*.:.<.2.2.2.2.1.2.2.2.2.2.2.2.2.2.2.O.t   5 ..<.2.2.2.2.2.2.2.2.2.2.",
"2.1.2.2.>.@...R V m b x x x b n B T } o.%.:.2.2.2.1.2.2.2.2.2.2.2.,.Q =   n %.2.2.2.2.2.2.2.2.2.2.2.",
"2.2.1.%.Q b 5 & O o o O O O O O O & ; r M R o.*.<.2.2.1.2.2.2.2.2.:.Y & ; W >.2.2.2.2.2.2.2.2.2.2.2.",
"2.2.&.P 3 o X # : 2 q e p p q 9 < * # O O = r C ..*.1.2.2.2.2.2.2.<...n C @.2.2.2.2.2.2.2.2.2.2.2.2.",
"2.>.^ 4   : d D K / ( _ ` _ ( ( ! G z s 2 # o O 7 A o.:.2.2.1.2.2.1.>.@.&.<.2.2.2.2.2.2.2.2.2.2.2.2.",
"2.@.v o - D ` ] [ { { { { { { { { [ ' ` ! S p - o & y E %.1.2.1.2.2.2.2.2.2.1.2.2.2.3.2.<.:.=.@.$.:.",
",.} ; X g ` { [ ] [ [ [ [ [ { { [ { { { { ] _ G s * o ; V O.<.2.1.2.2.2.2.2.2.<.=.@.+.X.^ T V x n ^ ",
"&.C O - G ] [ ] ] ] ] [ [ { [ [ [ [ [ { { { { ] ) S 6 O & b X.,.2.1.2.2.2.2.2.@.P x t 5 ; & o   = M ",
"O.u o w ( { ] ] ] ] ] ] [ [ { { { [ [ [ [ [ { { { ] K p # O i ..,.2.1.2.2.2.<...5       o O = 3 a E ",
"^ 4 O k ' { ] ] ] ] ] [ [ [ [ [ { { [ [ [ { [ [ { { { ( h * O i ..<.2.1.2.2.1.O.n 8 t x N I W  .+.;.",
"L = # F ] [ ] [ ] ] ] [ ] [ [ [ { { [ [ [ { { { { { { { _ k * O a X.<.2.1.2.2.,.@.O.+.@.&.;.>.<.2.2.",
"m % : K [ ] ] [ ] ] ] ] [ { [ [ { { { { { { [ { { { { { { ` k * O n +.1.2.2.1.2.2.3.2.2.2.2.2.2.2.2.",
"x O 2 ! { [ ] [ ] ] ] [ [ ] ] { { { { { { { [ { { { { { { { _ h # = L &.2.2.2.2.2.2.2.2.2.2.2.2.2.2.",
"u O 0 ( { [ ] [ ] ] [ ] ~ G ! ] { [ [ { [ [ [ { { { { { { { { ( p O 4 Q >.2.1.2.2.2.2.2.2.2.2.2.2.2.",
"t O q ( { ] [ [ ] [ ] ! e * f ` { [ [ { [ [ [ { { [ { { { { { { K 2 o i O.1.2.2.2.2.2.2.2.2.2.2.2.2.",
"y @ q ( { ] [ ] ] { ' Z # O g ` { [ [ { [ [ [ { [ [ { { { { { { ' Z * & I =.2.1.2.2.2.2.2.2.2.2.2.2.",
"a @ 0 ( { [ [ ] ] [ ] G q f ! [ { [ [ { { { [ [ { { { { { { { { { ( p o r o.1.2.2.2.2.2.2.2.2.2.2.2.",
"v @ 1 ! { [ ] ] ] [ ] ' ( _ ` ` ] [ [ { { { [ [ [ { { [ [ { { { { ] F - & I -.2.2.2.2.2.2.2.2.2.2.2.",
"M & - J ] [ ] [ [ ] ] { ] ! h h ( [ { [ { { [ [ [ [ { { { [ { { { { ) p O u O.2.2.2.2.2.2.2.2.2.2.2.",
"U ; # D ] [ ] [ [ ] ] [ ( p O - G ] { [ { { { { [ [ [ { { { [ { { { ] D # ; Q >.2.2.2.2.2.2.2.2.2.2.",
" .7 o g ` { ] [ [ ] ] { ! 9 # e ~ [ { [ [ { { { [ [ [ [ { { { [ [ { { ~ 2 @ B *.2.2.2.2.2.2.2.2.2.2.",
"+.c o 9 ( { [ ] [ ] ] [ ` F z ! ] [ [ [ [ { { { { [ [ [ [ [ [ { [ { { ` f O y +.2.2.2.2.2.2.2.2.2.2.",
"=.U & # D ] [ ] [ [ ] ] ] ' ' ] [ [ ] [ [ [ [ { { { [ [ [ { { { { [ { ] S # 4 ..1.2.2.2.2.2.2.2.2.2.",
"1.X.7 X p ( { ] ] [ ] ] ] { { [ ] ] [ [ [ [ [ { { { [ [ { { { { { [ { { J - = R :.2.2.2.2.2.2.2.2.2.",
"2.&.B O * D ] [ ] ] [ ] ] ] ] ] [ [ [ [ [ [ [ { { [ [ { ] ( ( ' { { { { ! 2 % L =.2.2.2.2.2.2.2.2.2.",
"2.<. .7   q ! [ ] ] [ [ [ ] ] ] ] [ [ [ [ [ [ [ [ [ { ' H p p ! [ { { { ( 0 @ V =.2.2.2.2.2.2.2.2.2.",
"1.2.=.L & O h _ { ] ] [ [ [ ] ] ] [ ] [ [ [ [ [ [ [ { ( q   - G ] { [ { ) q O N &.2.2.2.2.2.2.2.2.2.",
"2.2.1.O.x o * z ` { ] ] ] [ ] ] ] ] [ [ [ [ [ [ [ [ { ( q - g ( [ [ [ { ) q O M &.2.2.2.2.2.2.2.2.2.",
"2.1.2.,.} 8   - Z ` { ] ] ] ] ] ] ] [ [ ] [ [ [ [ [ { ' K G ( ] [ [ { { ( 0 O B =.2.2.2.2.2.2.2.2.2.",
"2.2.1.2.:.Q 7   - l _ [ { ] ] ] ] ] ] ] [ [ [ ] [ [ [ [ ] ] { [ [ [ { { ! 1 O A =.2.2.2.2.2.2.2.2.2.",
"2.2.2.2.2.-.E 7   # g ! ' [ [ [ ] ] ] ] ] [ [ [ [ [ [ [ { { { [ { [ { [ G * & T :.2.2.2.2.2.2.2.2.2.",
"2.2.2.2.2.2.-.Q r o O 0 D ( ] { { [ ] ] ] ] ] ] ] ] ] ] [ [ [ [ [ [ { ' j O 4 ..<.2.2.2.2.2.2.2.2.2.",
"2.2.2.2.2.2.2.:.| c &   * e D ( ' ] [ { [ [ ] [ ] ] ] ] ] [ [ [ { { { K 2 o c @.2.2.2.2.2.2.2.2.2.2.",
"2.2.2.2.2.2.2.2.<.O.P 8 O X # 0 k G ( ` ' ] [ { { { { { { { { { [ ' K e X ; E :.2.2.2.2.2.2.2.2.2.2.",
"2.2.2.2.2.2.2.1.2.2.=...V 7 O o O - 9 f l G K / ( _ ` ` ` _ ( ! G h 2 X O M @.2.2.2.2.2.2.2.2.2.2.2.",
"2.2.2.2.2.2.2.2.1.2.2.<.&...I i > O o O + $ , 2 0 e p p p e 0 < $ O . = n o.<.2.2.2.2.2.2.2.2.2.2.2.",
"2.2.2.2.2.2.2.2.2.2.1.2.2.1.=.+.| I n r 3 & O O O O O O O O O O & 3 x T +.<.2.1.2.2.2.2.2.2.2.2.2.2.",
"2.2.2.2.2.2.2.2.2.2.2.2.1.2.2.2.<.-.@.o.| T V n v a y t y a v M I } +.:.2.2.1.2.2.2.2.2.2.2.2.2.2.2.",
"2.2.2.2.2.2.2.2.2.2.2.2.2.2.2.2.2.2.2.2.<.:.=.%.%.#.@.@.@.#.%.*.;.<.2.2.2.1.2.2.2.2.2.2.2.2.2.2.2.2.",
"2.2.2.2.2.2.2.2.2.2.2.2.2.2.2.2.2.2.2.2.2.2.2.2.2.3.3.3.3.3.2.2.2.2.2.2.2.2.2.2.2.2.2.2.2.2.2.2.2.2.",
"2.2.2.2.2.2.2.2.2.2.2.2.2.2.2.2.2.2.2.2.2.2.2.2.2.2.2.2.2.2.2.2.2.2.2.2.2.2.2.2.2.2.2.2.2.2.2.2.2.2."
};
