/* XPM */
static char *_f37414aefc44d69bd830b8bbde8ecdcunePFVXOCseh5OjL[] = {
/* columns rows colors chars-per-pixel */
"50 50 192 2 ",
"   c #613E2F",
".  c #603F35",
"X  c #694323",
"o  c #684628",
"O  c #754D27",
"+  c #764C29",
"@  c #7A4E2A",
"#  c #76512B",
"$  c #7B532D",
"%  c #614130",
"&  c #6C4C35",
"*  c #68483C",
"=  c #714D34",
"-  c #794F32",
";  c #765233",
":  c #7C5432",
">  c #7F5834",
",  c #72523C",
"<  c #7F6237",
"1  c #7C613E",
"2  c #6A4D48",
"3  c #675242",
"4  c #6E5441",
"5  c #695048",
"6  c #755743",
"7  c #785745",
"8  c #765A46",
"9  c #725948",
"0  c #7F6841",
"q  c #79624C",
"w  c #776358",
"e  c #7D6658",
"r  c #7A6B64",
"t  c #7B6C6E",
"y  c #81542F",
"u  c #845B2C",
"i  c #815632",
"p  c #835B34",
"a  c #8A5E35",
"s  c #855C38",
"d  c #8E5F39",
"f  c #80602E",
"g  c #8A6235",
"h  c #8C6833",
"j  c #8E623A",
"k  c #916537",
"l  c #906C37",
"z  c #92643A",
"x  c #966A3A",
"c  c #9A6F3B",
"v  c #97773A",
"b  c #9B743C",
"n  c #A27F3C",
"m  c #836040",
"M  c #886C47",
"N  c #84664F",
"B  c #8C6C49",
"V  c #966F45",
"C  c #8A7644",
"Z  c #8E7A46",
"A  c #8B714C",
"S  c #8F7D4D",
"D  c #9D7443",
"F  c #927C46",
"G  c #9D7D46",
"H  c #94774C",
"J  c #947A4F",
"K  c #99784A",
"L  c #816A55",
"P  c #896E56",
"I  c #84755E",
"U  c #8B7A5B",
"Y  c #937A55",
"T  c #937B5A",
"R  c #A47C47",
"E  c #8B7664",
"W  c #897969",
"Q  c #917F63",
"!  c #847670",
"~  c #877F75",
"^  c #857E7E",
"/  c #97843C",
"(  c #A4833C",
")  c #AA873B",
"_  c #9A8448",
"`  c #8F8059",
"'  c #9D8154",
"]  c #96825A",
"[  c #988358",
"{  c #A98445",
"}  c #A28844",
"|  c #AD8C42",
" . c #AC844D",
".. c #B38D44",
"X. c #B78C4C",
"o. c #B98F4F",
"O. c #A49147",
"+. c #AC974F",
"@. c #B49342",
"#. c #B59B47",
"$. c #B2924A",
"%. c #BC9248",
"&. c #BA9C4D",
"*. c #A08055",
"=. c #A78D51",
"-. c #AA8C56",
";. c #AE9759",
":. c #B79654",
">. c #BD9655",
",. c #BE9C53",
"<. c #BD9D58",
"1. c #8F8166",
"2. c #91856C",
"3. c #8D847D",
"4. c #8F887F",
"5. c #928974",
"6. c #948D7D",
"7. c #C7994D",
"8. c #C59D4D",
"9. c #C69C53",
"0. c #C99D51",
"q. c #C89E58",
"w. c #C5A24F",
"e. c #C2A94C",
"r. c #C2A452",
"t. c #CCA354",
"y. c #C5AB53",
"u. c #CBAD55",
"i. c #CCAA5B",
"p. c #D0A155",
"a. c #D5AE57",
"s. c #D4AA5B",
"d. c #D9AF5F",
"f. c #CAB253",
"g. c #CAB458",
"h. c #D0B957",
"j. c #D2B65C",
"k. c #DAB35E",
"l. c #D5BB5B",
"z. c #DDBD5D",
"x. c #D9AF64",
"c. c #D7B363",
"v. c #DDB562",
"b. c #D0B861",
"n. c #DEBC64",
"m. c #E4BC63",
"M. c #E7B965",
"N. c #E5BF68",
"B. c #DDC55E",
"V. c #DDC467",
"C. c #DDC861",
"Z. c #E3C364",
"A. c #EBC566",
"S. c #EFC867",
"D. c #E7C06A",
"F. c #ECC56C",
"G. c #EDCC6A",
"H. c #F3CC6F",
"J. c #E6D069",
"K. c #EBD269",
"L. c #F2D26D",
"P. c #F4DA6F",
"I. c #F9DA6E",
"U. c #EECA70",
"Y. c #F2CC72",
"T. c #F8CD73",
"R. c #F7D471",
"E. c #FAD473",
"W. c #F5DB71",
"Q. c #FBDC72",
"!. c #FAE173",
"~. c #8E8A83",
"^. c #8E878A",
"/. c #938C85",
"(. c #928E8B",
"). c #95938D",
"_. c #969493",
"`. c #9B9691",
"'. c #9A9B97",
"]. c #989798",
"[. c #9A9C9C",
"{. c #9DA2A4",
"}. c #9FA5AA",
"|. c #A1A5A5",
" X c #A0A6AA",
".X c #A1A6AA",
"XX c #A3AAAE",
"oX c #A5AEB3",
"OX c #A6AFB4",
"+X c #A7B0B5",
"@X c #A8B2B7",
"#X c #A8B3BA",
/* pixels */
"+X+X+X+X+X+X+X+X+X+X+X+X+XOX+XXX(./.{. X_.3.E P N N L E 3._.{._.).{.OX+XOX+X+X+X+X+X+X+X+X+X+X+X+X+X",
"+X+X+X+X+X+X+X+X+X+X+X+XOX+X XE  . .B B K  .q.v.v.v.s.9.X.D m V R B 4.oX+X+X+X+X+X+X+X+X+X+X+X+X+X+X",
"+X+X+X+X+X+X+X+X+X+X+X+X+XoXW >.E.Q.m.m.R.Q.Q.!.!.!.!.Q.Q.L.m.Y.Q.A.G ).+X+X+X+X+X+X+X+X+X+X+X+X+X+X",
"+X+X+X+X+X+X+X+X+X+X+XOX+X[.A Y.Q.Q.!.!.Q.!.!.!.!.!.Q.!.!.!.!.!.Q.!.u.I +X+X+X+X+X+X+X+X+X+X+X+X+X+X",
"+X+X+X+X+X+X+X+X+X+XOX+XoXW  .Q.Q.Q.!.!.Q.!.!.!.!.!.!.!.!.!.!.!.!.!.z.< _.+X+X+X+X+X+X+X+X+X+X+X+X+X",
"+X+X+X+X+X+X+X+X+X+X+X+X/. .F.Q.!.!.!.!.!.!.!.!.!.!.!.!.!.!.!.!.!.Q.I.w.1 ].+XOX+X+X+X+X+X+X+X+X+X+X",
"+X+X+X+X+X+X+X+X+XOX+X'.*.H.Q.!.!.!.!.!.!.!.!.!.!.!.!.!.!.!.!.!.!.!.Q.Q...q  X+XOX+X+X+X+X+X+X+X+X+X",
"+X+X+X+X+X+X+X+X+X+XXXU c.Q.Q.!.!.!.!.!.!.!.!.!.!.!.!.!.!.!.!.!.!.!.Q.Q.L.b ~ +X+X+X+X+X+X+X+X+X+X+X",
"+X+X+X+X+X+X+X+X+X+X).-.Q.!.!.!.!.!.!.!.!.!.!.!.!.!.!.!.!.!.!.!.!.!.!.Q.!.z.0 {.+X+X+X+X+X+X+X+X+X+X",
"+X+X+X+X+X+X+X+X+XoX1.v.Q.!.!.!.!.!.!.!.!.!.!.!.!.!.!.!.!.!.!.!.!.!.!.!.Q.I.n ~.+X+X+X+X+X+X+X+X+X+X",
"+X+X+X+X+X+X+X+X+X}.' L.!.!.!.!.!.!.!.!.!.!.!.!.!.!.!.!.!.!.!.!.!.!.!.!.!.!.w.I OX+X+X+X+X+X+X+X+X+X",
"+X+X+X+X+X+X+X+X+X[.' W.!.!.!.!.!.!.!.!.!.!.!.!.!.!.!.!.!.!.!.!.!.!.!.!.!.!.z.M XX+X+X+X+X+X+X+X+X+X",
"+X+X+X+X+X+X+X+X+X_.=.Q.!.!.!.!.!.!.!.!.!.!.!.!.!.!.!.!.!.!.!.!.!.!.!.!.!.!.G.C {.+X+X+X+X+X+X+X+X+X",
"+X+X+X+X+X+X+X+X+X~.:.Q.!.!.!.!.!.!.!.!.!.!.!.!.!.!.!.!.!.!.!.!.!.!.!.!.!.!.K.Z {.+X+X+X+X+X+X+X+X+X",
"+X+X+X+X+X+X+X+X+X4.<.Q.!.!.!.!.!.!.!.!.!.!.!.!.!.!.!.!.!.!.!.!.!.!.!.!.!.!.L.Z {.+X+X+X+X+X+X+X+X+X",
"+X+X+X+X+X+X+X+X+X4.<.Q.!.!.!.!.!.!.!.!.!.!.!.!.!.!.!.!.!.!.!.!.!.!.!.!.!.!.G.S  X+X+X+X+X+X+X+X+X+X",
"+X+X+X+X+X+X+X+X+X).<.Q.Q.!.!.!.!.!.!.!.!.!.!.!.!.!.!.!.!.!.!.!.!.!.!.!.!.!.B.U oX+X+X+X+X+X+X+X+X+X",
"+X+X+X+X+X+X+X+X+X{.-.W.!.!.!.!.!.!.!.!.!.!.!.!.!.!.!.!.!.!.!.!.!.!.!.!.!.!.f.5.+X+X+X+X+X+X+X+X+X+X",
"+X+X+X+X+X+X+X+X+XoX2.V.!.!.!.!.!.!.!.!.!.!.!.!.!.!.!.!.!.!.!.!.!.!.!.!.!.I.+.'.+X+X+X+X+X+X+X+X+X+X",
"+X+X+X+X+X+X+X+X+X+X).;.W.!.!.!.!.!.!.!.!.!.!.!.!.!.!.!.!.!.!.!.!.!.!.!.!.l.` XX+X+X+X+X+X+X+X+X+X+X",
"+X+X+X+X+X+X+X+X+X+XXXQ b.!.!.!.!.!.!.!.!.!.!.!.!.!.!.!.!.!.!.!.!.!.!.!.G._ `.+XOX+X+X+X+X+X+X+X+X+X",
"+X+X+X+X+X+X+X+X+XOX+X[.] V.!.!.!.!.!.!.!.!.!.!.!.!.!.!.!.!.!.!.!.!.!.K.O.6.OX+X+X+X+X+X+X+X+X+X+X+X",
"+X+X+X+X+X+X+X+X+X+X+X+X[.[ g.W.!.!.!.!.!.!.!.!.!.!.!.!.!.!.!.!.!.!.B./ 6.OX+XOX+X+X+X+X+X+X+X+X+X+X",
"+X+X+X+X+X+X+X+X+X+X+X+X+X4.f &.K.Q.!.!.!.!.!.!.!.!.!.!.!.!.!.!.P.h.( g '.+XOX+X+X+X+X+X+X+X+X+X+X+X",
"+X+X+X+X+X+X+X+X+X+XOX+X[.T s.0...r.h.J.W.!.!.!.!.!.!.!.Q.P.C.e.| %.M.a.H |.+XOX+X+X+X+X+X+X+X+X+X+X",
"+X+X+X+X+X+X+X+X+X+X+XXXT x.Q.Q.S.s.%.| | #.y.h.l.h.f.e.#.@...9.M.E.Q.Q.8.1.oX+X+X+X+X+X+X+X+X+X+X+X",
"+X+X+X+X+X+X+X+X+X+X+X6.>.Q.Q.Q.Q.Q.Q.H.M.p.7.7.0.0.0.t.v.F.R.Q.Q.Q.Q.Q.E.%.6.+X+X+X+X+X+X+X+X+X+X+X",
"+X+X+X+X+X+X+X+XOX+X{.K F.Q.Q.Q.Q.Q.Q.Q.Q.Q.Q.Q.Q.Q.Q.Q.Q.Q.Q.Q.Q.Q.Q.Q.Q.S.G {.+XOX+X+X+X+X+X+X+X+X",
"+X+X+X+X+X+X+X+X+X+X2.9.Q.Q.Q.Q.Q.Q.Q.Q.Q.Q.Q.Q.Q.Q.Q.Q.Q.Q.Q.Q.Q.Q.Q.Q.Q.Q.8.2.+X+X+X+X+X+X+X+X+X+X",
"+X+X+X+X+X+X+X+X+X{.K F.Q.Q.Z.L.Q.Q.Q.Q.Q.Q.Q.Q.Q.Q.Q.Q.Q.Q.Q.Q.Q.Q.P.Q.Q.Q.A.F |.+X+X+X+X+X+X+X+X+X",
"+X+X+X+X+X+X+X+X+X6.o.E.Q.L.) Z.Q.Q.Q.Q.Q.Q.Q.Q.Q.Q.Q.Q.Q.Q.Q.Q.Q.Q.e.Z.Q.Q.E...).+X+X+X+X+X+X+X+X+X",
"+X+X+X+X+X+X+X+XOXQ d.Q.Q.A.n U.Q.Q.Q.Q.Q.Q.Q.Q.W.W.Q.Q.Q.Q.Q.Q.Q.Q.8.i.Q.Q.Q.a.1.+X+X+X+X+X+X+X+X+X",
"+X+X+X+X+X+X+X+XXXY D.Q.Q.n.b n.G.R.E.Q.Q.Q.E.E.Q.Q.Q.Q.Q.E.E.L.L.G.&.,.E.Q.Q.Z.J XX+X+X+X+X+X+X+X+X",
"+X+X+X+X+X+X+X+X XH F.E.E.k.u b { $.,.y.u.j.j.l.l.j.j.u.u.r.&.$.| ( h { E.E.E.S.F  X+X+X+X+X+X+X+X+X",
"+X+X+X+X+X+X+X+X XJ F.E.E.k.u x x x x x x c b b l h h l x x c x x x a R R.E.E.S.F  X+X+X+X+X+X+X+X+X",
"+X+X+X+X+X+X+X+XXXY N.R.R.s.u x x x x x x x x g O @ @ O j x x x x x g D T.E.R.m.S oX+X+X+X+X+X+X+X+X",
"+X+X+X+X+X+X+X+X+X5.r.E.R.t.u x x x x x x x z O i x x $ $ x x x x x g c Y.E.R.r.2.+X+X+X+X+X+X+X+X+X",
"+X+X+X+X+X+X+X+X+X|.H i.Y.9.$ x x x x x x x k O a x z a O z x x x x g x Y.Y.l.F [.+X+X+X+X+X+X+X+X+X",
"+X+X+X+X+X+X+X+X+X+X`.B } v $ z z z x x z z z @ $ z z u O z z z z x g $ =._ A (.OX+X+X+X+X+X+X+X+X+X",
"+X+X+X+X+X+X+X+X+X+X+X|./.L : x z z z z z z z a y z z # y z z z z z g = 3._. X+X+XOX+X+X+X+X+X+X+X+X",
"+X+X+X+X+X+X+X+X+X+X+X+X#X6.: z z z z z z z z z j g $ + d z z z z z g 8 XX@X+X+XOX+X+X+X+X+X+X+X+X+X",
"+X+X+X+X+X+X+X+X+X+X+X+X+X(.$ z z z z z z z z j @ + @ d z z z z z z p q oX+X+X+X+X+X+X+X+X+X+X+X+X+X",
"+X+X+X+X+X+X+X+X+X+X+X+X+X].; z z z z z z z z z d d j z z z z z z z i e OX+X+X+X+X+X+X+X+X+X+X+X+X+X",
"+X+X+X+X+X+X+X+X+X+X+X+X+X{.7 j z z z z z j p p a a g j z z z z z z i ! +X+X+X+X+X+X+X+X+X+X+X+X+X+X",
"+X+X+X+X+X+X+X+X+X+X+X+X+XXXe a z z z z z p X & 7 , o p z z z z z j > ~.@X+X+X+X+X+X+X+X+X+X+X+X+X+X",
"+X+X+X+X+X+X+X+X+X+X+XOX+X+X! > z z z z z j - 3. X].4 p j z j j z j ; _.+X+X+X+X+X+X+X+X+X+X+X+X+X+X",
"+X+X+X+X+X+X+X+X+X+X+X+X+X@X(.& d j z j j d ; _.@XoXw i z j j j z a 6 {.+X+X+X+X+X+X+X+X+X+X+X+X+X+X",
"+X+X+X+X+X+X+X+X+X+X+X+X+X+X{.3 p z j j j i 9  X+X+X^ = j z j j j # r OX+X+X+X+X+X+X+X+X+X+X+X+X+X+X",
"+X+X+X+X+X+X+X+X+X+X+X+X+X+XOX^ & > s p ; , (.+X+X+X Xr = i p p ; 4 ].+XOX+X+X+X+X+X+X+X+X+X+X+X+X+X",
"+X+X+X+X+X+X+X+X+X+X+X+X+XOX+XXXt .   % 5 ^.OX+X+XOX+X}.t * %   2 (.+X+X+X+X+X+X+X+X+X+X+X+X+X+X+X+X"
};
