/* XPM */
static char *_49a0bff9bb84d4bd086c66056b24d328QZpRMP9qjPTf8lZ[] = {
/* columns rows colors chars-per-pixel */
"50 50 166 2 ",
"   c #130B05",
".  c #1D140A",
"X  c #372B13",
"o  c #3C2E15",
"O  c #635123",
"+  c #7F552E",
"@  c #765F2B",
"#  c #7B5431",
"$  c #79573A",
"%  c #79652D",
"&  c #7F6046",
"*  c #7D6752",
"=  c #8B5C2F",
"-  c #845A32",
";  c #8B5E33",
":  c #835D3B",
">  c #8F6033",
",  c #956536",
"<  c #966836",
"1  c #9A6A37",
"2  c #966638",
"3  c #996938",
"4  c #9E7136",
"5  c #9A7F3C",
"6  c #A2733A",
"7  c #A67A3B",
"8  c #AB7D3E",
"9  c #836343",
"0  c #896644",
"q  c #8A6847",
"w  c #856849",
"e  c #896A4C",
"r  c #866C54",
"t  c #896D50",
"y  c #856D5B",
"u  c #8C7054",
"i  c #AA7C40",
"p  c #827061",
"a  c #897461",
"s  c #877769",
"d  c #86796E",
"f  c #877D76",
"g  c #8D7F72",
"h  c #9F8C5B",
"j  c #A58B47",
"k  c #A88B48",
"l  c #B58842",
"z  c #B28E49",
"x  c #BD9046",
"c  c #BC954C",
"v  c #B3994F",
"b  c #AD8F5A",
"n  c #AD9657",
"m  c #A69059",
"M  c #AC965B",
"N  c #B69957",
"B  c #B39C5C",
"V  c #B99E5C",
"C  c #BDA153",
"Z  c #BDA15C",
"A  c #9A8A63",
"S  c #9B8E6B",
"D  c #9E916C",
"F  c #8D8173",
"G  c #958C75",
"H  c #9B8C73",
"J  c #91897F",
"K  c #9A8E79",
"L  c #9C9176",
"P  c #9D937B",
"I  c #A39063",
"U  c #AE9A66",
"Y  c #A2946E",
"T  c #AB966A",
"R  c #AB996F",
"E  c #B59C61",
"W  c #BB9E65",
"Q  c #B69A68",
"!  c #A29472",
"~  c #A0967C",
"^  c #C59D4A",
"/  c #CB9F4D",
"(  c #C29D51",
")  c #C6A14A",
"_  c #CBA34D",
"`  c #C5A654",
"'  c #C7AA54",
"]  c #CCAC57",
"[  c #C1A75E",
"{  c #C5A95D",
"}  c #CAAA5B",
"|  c #D0A553",
" . c #D4AE54",
".. c #D4AF5D",
"X. c #D8AF58",
"o. c #CEB05B",
"O. c #D7B256",
"+. c #D9B156",
"@. c #D5B35C",
"#. c #DCB45C",
"$. c #D6B85C",
"%. c #DDBA5C",
"&. c #E0B55B",
"*. c #E3BC5D",
"=. c #C3A463",
"-. c #CDAD62",
";. c #C6A96E",
":. c #C9AB6A",
">. c #D3AF63",
",. c #D2B265",
"<. c #D9B662",
"1. c #D6B860",
"2. c #DDBD63",
"3. c #C4AC7E",
"4. c #C9AE79",
"5. c #E6BE61",
"6. c #E9BE61",
"7. c #E5C35E",
"8. c #E6C363",
"9. c #ECC563",
"0. c #EDCA64",
"q. c #F2CC65",
"w. c #F2C968",
"e. c #FCCF6D",
"r. c #F4D266",
"t. c #F6D369",
"y. c #FDD56C",
"u. c #FEDC6D",
"i. c #8D8580",
"p. c #918B85",
"a. c #979384",
"s. c #9C9685",
"d. c #9B9887",
"f. c #97958C",
"g. c #9A968C",
"h. c #9B998E",
"j. c #979696",
"k. c #9A9A94",
"l. c #979898",
"z. c #9B9D9B",
"x. c #9EA19D",
"c. c #9C9FA0",
"v. c #9EA3A4",
"b. c #A0A5A7",
"n. c #A0A6A9",
"m. c #A2A9AD",
"M. c #A5AEB3",
"N. c #A7B0B5",
"B. c #A7B0B6",
"V. c #A8B2B8",
"C. c #C4AC85",
"Z. c #C8AF83",
"A. c #C7B285",
"S. c #C8B188",
"D. c #C5B29C",
"F. c #C5B5A0",
"G. c #CABBA9",
"H. c #D7D0C7",
"J. c #DDD7D0",
"K. c #E2D9CF",
"L. c #EAE6E2",
"P. c #EEEBEB",
"I. c #F5F3F3",
"U. c #FAF9FA",
"Y. c #FBFBFC",
"T. c #FEFEFE",
/* pixels */
"N.N.N.N.N.N.N.N.N.N.N.N.N.N.M.g.H L a.f.P T B C ` ' { N I S G A m A z.N.M.N.N.N.N.N.N.N.N.N.N.N.N.N.",
"N.N.N.N.N.N.N.N.N.N.N.N.N.N.k.=.9.0.@.@.0.y.u.u.u.u.u.u.t.0.%.0.y.7.h m.N.N.N.N.N.N.N.N.N.N.N.N.N.N.",
"N.N.N.N.N.N.N.N.N.N.N.N.N.M.Y t.u.u.u.u.u.u.u.u.u.u.u.u.u.u.u.u.u.u.O.d.N.N.N.N.N.N.N.N.N.N.N.N.N.N.",
"N.N.N.N.N.N.N.N.N.N.N.M.N.z.Z u.u.u.u.u.u.u.u.u.u.u.u.u.u.u.u.u.u.u.q.D M.N.N.N.N.N.N.N.N.N.N.N.N.N.",
"N.N.N.N.N.N.N.N.N.N.M.N.n.I 9.u.u.u.u.u.u.u.u.u.u.u.u.u.u.u.u.u.u.u.u.v k.N.N.N.N.N.N.N.N.N.N.N.N.N.",
"N.N.N.N.N.N.N.N.N.N.N.M.L 8.u.u.u.u.u.u.u.u.u.u.u.u.u.u.u.u.u.u.u.u.u.r.M v.N.M.N.N.N.N.N.N.N.N.N.N.",
"N.N.N.N.N.N.N.N.N.M.N.k.{ u.u.u.u.u.u.u.u.u.u.u.u.u.u.u.u.u.u.u.u.u.u.u.0.Y M.N.N.N.N.N.N.N.N.N.N.N.",
"N.N.N.N.N.N.N.N.N.N.M.Y r.u.u.u.u.u.u.y.0.u.u.u.u.u.u.u.r.9.u.u.u.u.u.u.u.} k.N.M.N.N.N.N.N.N.N.N.N.",
"N.N.N.N.N.N.N.N.N.N.z.-.u.u.u.u.u.u.u.5 o C u.u.u.u.u.y.% X ' u.u.u.u.u.u.q.! M.N.N.N.N.N.N.N.N.N.N.",
"N.N.N.N.N.N.N.N.N.M.P 0.u.u.u.u.u.u.u.@   j u.u.u.u.u.t.O . C u.u.u.u.u.u.u.Z v.N.N.N.N.N.N.N.N.N.N.",
"N.N.N.N.N.N.N.N.N.M.R y.u.u.u.u.u.u.u.8.' r.u.t.r.t.u.u.7.] y.u.u.u.u.u.u.u.$.h.N.N.N.N.N.N.N.N.N.N.",
"N.N.N.N.N.N.N.N.N.v.E u.u.u.u.u.u.u.u.0.u.t.,.3.C.S.4.2.u.t.q.u.u.u.u.u.u.u.7.L N.N.N.N.N.N.N.N.N.N.",
"N.N.N.N.N.N.N.N.N.z.{ u.u.u.u.u.u.u.u.O.^ W K.U.U.U.I.F.c ^ *.u.u.u.u.u.u.u.0.S M.N.N.N.N.N.N.N.N.N.",
"N.N.N.N.N.N.N.N.N.x.-.u.u.u.u.u.u.u.u.u.O.G.T.T.T.T.T.P.Q t.u.u.u.u.u.u.u.u.0.D M.N.N.N.N.N.N.N.N.N.",
"N.N.N.N.N.N.N.N.N.v.[ u.u.u.u.u.u.u.u.q.^ D.U.I.H.L.Y.J.b *.t.u.u.u.u.u.u.u.r.Y M.N.N.N.N.N.N.N.N.N.",
"N.N.N.N.N.N.N.N.N.v.V u.u.u.u.u.u.u.r._ %.>.C.Z.-.;.A.:.5.+.*.u.u.u.u.u.u.u.r.Y M.N.N.N.N.N.N.N.N.N.",
"N.N.N.N.N.N.N.N.N.n.E u.u.u.u.u.u.u.u.u.u.u.r.t.u.u.r.u.u.u.u.u.u.u.u.u.u.u.7.P N.N.N.N.N.N.N.N.N.N.",
"N.N.N.N.N.N.N.N.N.M.! r.u.u.u.u.u.u.u.u.u.u.u.u.u.u.u.u.u.u.u.u.u.u.u.u.u.u.o.k.N.N.N.N.N.N.N.N.N.N.",
"N.N.N.N.N.N.N.N.N.N.g.1.u.u.u.u.u.u.u.u.u.u.u.u.u.u.u.u.u.u.u.u.u.u.u.u.u.y.M n.N.N.N.N.N.N.N.N.N.N.",
"N.N.N.N.N.N.N.N.N.N.n.U u.u.u.u.u.u.u.u.u.u.u.u.u.u.u.u.u.u.u.u.u.u.u.u.u.%.L N.N.N.N.N.N.N.N.N.N.N.",
"N.N.N.N.N.N.N.N.N.N.N.h.o.u.u.u.u.u.u.u.u.u.u.u.u.u.u.u.u.u.u.u.u.u.u.u.r.U m.N.N.N.N.N.N.N.N.N.N.N.",
"N.N.N.N.N.N.N.N.N.N.N.M.~ 2.u.u.u.u.u.u.u.u.u.u.u.u.u.u.u.u.u.u.u.u.u.r.B x.N.M.N.N.N.N.N.N.N.N.N.N.",
"N.N.N.N.N.N.N.N.N.N.M.N.M.L ` y.u.u.u.u.u.u.u.u.u.u.u.u.u.u.u.u.u.u.7.k k.N.N.N.N.N.N.N.N.N.N.N.N.N.",
"N.N.N.N.N.N.N.N.N.N.M.N.M.K z ) *.t.u.u.u.u.u.u.u.u.u.u.u.u.u.u.0. ._ ( P M.N.M.N.N.N.N.N.N.N.N.N.N.",
"N.N.N.N.N.N.N.N.N.M.M.M.P <.u.0. .^ _ %.7.0.t.t.y.y.t.t.r.7. .^ ^ *.y.u.#.L m.N.M.N.N.N.N.N.N.N.N.N.",
"N.N.N.N.N.N.N.N.M.N.M.L <.u.u.u.u.t.*.+. ._ _ _ _ _ ^ ^ _ X.*.0.y.u.u.u.u.#.P M.N.M.N.N.N.N.N.N.N.N.",
"N.N.N.N.N.N.N.N.N.M.s.<.u.u.u.u.u.u.u.u.u.u.y.t.t.t.t.y.u.u.u.u.u.u.u.u.u.u.@.d.M.N.N.N.N.N.N.N.N.N.",
"N.N.N.N.N.N.N.N.N.h.-.u.u.u.u.u.u.u.u.u.u.u.u.u.u.u.u.u.u.u.u.u.u.u.u.u.u.u.y.Z z.N.M.N.N.N.N.N.N.N.",
"N.N.N.N.N.N.M.N.v.W y.u.u.u.u.u.u.u.u.u.u.u.u.u.u.u.u.u.u.u.u.u.u.u.u.u.u.u.u.q.T m.N.N.N.N.N.N.N.N.",
"N.N.N.N.N.N.N.M.K 5.u.u.u.u.y.y.u.u.u.u.u.y.u.u.u.u.u.u.u.u.u.u.u.u.y.t.u.u.u.u.] f.N.M.N.N.N.N.N.N.",
"N.N.N.N.N.N.N.v.W y.u.u.u.u.+.*.y.y.y.y.y.y.y.y.y.u.y.u.y.y.y.y.y.u.*.X.u.y.y.u.9.S M.N.N.N.N.N.N.N.",
"N.N.N.N.N.N.N.z.-.u.y.y.y.y./ 6.y.y.y.y.y.y.y.y.y.u.y.y.y.y.y.y.y.u.*.| y.y.y.y.y.M m.N.N.N.N.N.N.N.",
"N.N.N.N.N.N.N.z.-.y.y.y.y.y._ w.y.t.w.9.6.*.&.#.X.X.+.+.#.&.*.6.9.w.6._ y.y.y.y.y.n v.N.N.N.N.N.N.N.",
"N.N.N.N.N.N.N.v.=.y.y.y.y.y.x ^ ^ l 8 7 6 6 6 1 1 1 1 1 1 1 6 6 7 8 7 l y.y.y.y.y.M n.N.N.N.N.N.N.N.",
"N.N.N.N.N.N.N.M.P #.y.y.y.w.4 < < < < < 1 1 1 1 1 1 1 1 1 1 1 1 < < < i e.y.y.y.*.L M.N.N.N.N.N.N.N.",
"N.N.N.N.N.N.M.N.m.L V @...b : 3 1 < < < 1 1 < < < < < < 1 1 1 1 < 1 < < #.w.9.O.I v.M.M.N.N.N.N.N.N.",
"N.N.N.N.N.N.N.M.N.M.z.g.h.z.w < < < < < 3 3 3 3 < < < 3 3 3 3 3 < < < 9 K ! ! a.n.N.M.N.N.N.N.N.N.N.",
"N.N.N.N.N.N.N.N.M.N.N.N.N.n.q < < < < < 3 3 3 < < < < < < < < < < < < u M.M.M.N.N.M.N.N.N.N.N.N.N.N.",
"N.N.N.N.N.N.N.N.N.N.N.N.N.b.0 < < < < < < < < 3 3 < < < < < < < < < < e m.N.N.N.N.N.N.N.N.N.N.N.N.N.",
"N.N.N.N.N.N.N.N.N.N.N.N.N.v.0 < < 3 3 3 3 3 3 3 3 3 3 3 3 3 3 < < < < e m.N.N.N.N.N.N.N.N.N.N.N.N.N.",
"N.N.N.N.N.N.N.N.N.N.N.N.N.b.0 < < < 2 2 2 2 3 3 3 3 , , < < < , < < < t M.N.N.N.N.N.N.N.N.N.N.N.N.N.",
"N.N.N.N.N.N.N.N.N.N.N.N.N.m.e < < < < < < < , , , , , , , < < < < < < t M.N.N.N.N.N.N.N.N.N.N.N.N.N.",
"N.N.N.N.N.N.N.N.N.N.N.N.N.M.r , < < < < < < , , , , , , , < < < < < , r M.N.N.N.N.N.N.N.N.N.N.N.N.N.",
"N.N.N.N.N.N.N.N.N.N.N.N.N.M.a , < , < < < < < , , , , , < < < , < < > a M.N.N.N.N.N.N.N.N.N.N.N.N.N.",
"N.N.N.N.N.N.N.N.N.N.N.N.N.N.g ; < , , , < < = + : 9 - ; < < , , < < ; g N.N.N.N.N.N.N.N.N.N.N.N.N.N.",
"N.N.N.N.N.N.N.N.N.N.N.N.N.N.p.- , , , , < < = * z.c.p - , , , , < < ; J N.N.N.N.N.N.N.N.N.N.N.N.N.N.",
"N.N.N.N.N.N.N.N.N.N.N.N.N.N.z.: , , , , , < ; F V.V.i.; < , , , , , : j.N.N.N.N.N.N.N.N.N.N.N.N.N.N.",
"N.N.N.N.N.N.N.N.N.N.N.N.N.N.M.y ; , , , , , : k.N.N.c.9 , < , , , ; r m.N.N.N.N.N.N.N.N.N.N.N.N.N.N.",
"N.N.N.N.N.N.N.N.N.N.N.N.N.M.N.j.: > , , , - s M.N.N.M.f - , , , - & z.N.M.N.N.N.N.N.N.N.N.N.N.N.N.N.",
"N.N.N.N.N.N.N.N.N.N.N.N.N.N.N.M.i.$ - - # p n.N.M.M.N.m.d $ # # * l.N.N.N.N.N.N.N.N.N.N.N.N.N.N.N.N."
};
