/* XPM */
static char *_1e5a1df15d74becefbb6c380ab53f39qBzrRVyKJ338p2eB[] = {
/* columns rows colors chars-per-pixel */
"50 50 183 2 ",
"   c #010000",
".  c #0D0700",
"X  c #35260E",
"o  c #68491F",
"O  c #7A4F2C",
"+  c #7C5734",
"@  c #7D5834",
"#  c #765B3E",
"$  c #7C5B3B",
"%  c #76622B",
"&  c #756930",
"*  c #7C5D41",
"=  c #7D614A",
"-  c #7E6A58",
";  c #7F6F60",
":  c #944627",
">  c #83562E",
",  c #875A2F",
"<  c #9C5A2B",
"1  c #8C4A34",
"2  c #845A32",
"3  c #8B5D32",
"4  c #825C3C",
"5  c #89583B",
"6  c #866730",
"7  c #8D6034",
"8  c #866C33",
"9  c #86613E",
"0  c #946436",
"q  c #986737",
"w  c #976836",
"e  c #996936",
"r  c #966538",
"t  c #986738",
"y  c #926D3C",
"u  c #996A38",
"i  c #897D3B",
"p  c #A2743A",
"a  c #AC7D3C",
"s  c #896845",
"d  c #997645",
"f  c #826652",
"g  c #816955",
"h  c #85725E",
"j  c #937651",
"k  c #846F60",
"l  c #847365",
"z  c #82776C",
"x  c #897B6E",
"c  c #877D74",
"v  c #8A7B71",
"b  c #A4833F",
"n  c #998740",
"m  c #9F8857",
"M  c #9D865B",
"N  c #9D8D5D",
"B  c #AD8040",
"V  c #A7844D",
"C  c #AE8B4B",
"Z  c #B78F43",
"A  c #BA8D46",
"S  c #BC8F48",
"D  c #BC9343",
"F  c #BA9647",
"G  c #BB9C4C",
"H  c #A58751",
"J  c #AB8E55",
"K  c #A48C5D",
"L  c #AA8E5B",
"P  c #AB9254",
"I  c #AC935B",
"U  c #B69556",
"Y  c #BC9B53",
"T  c #B39D5A",
"R  c #BC9E5B",
"E  c #BAA055",
"W  c #BAA35B",
"Q  c #968463",
"!  c #9D8C64",
"~  c #93856C",
"^  c #998A6A",
"/  c #9E916F",
"(  c #8E8679",
")  c #8B847C",
"_  c #918777",
"`  c #958B73",
"'  c #9A8C72",
"]  c #968D7C",
"[  c #988C78",
"{  c #A18D67",
"}  c #A59369",
"|  c #B39566",
" . c #B09D60",
".. c #B49A72",
"X. c #B69D78",
"o. c #BBA679",
"O. c #C19647",
"+. c #C29A46",
"@. c #C09349",
"#. c #C49D4A",
"$. c #CA9C4D",
"%. c #CA9E52",
"&. c #C6A14B",
"*. c #CDA44D",
"=. c #CFA84D",
"-. c #D2A34F",
";. c #D3AC4F",
":. c #C3A357",
">. c #CBA553",
",. c #CBAA57",
"<. c #C3A35A",
"1. c #C2A95B",
"2. c #D2A554",
"3. c #D4AC53",
"4. c #D4AD59",
"5. c #DAAD5A",
"6. c #CDB45B",
"7. c #D4B356",
"8. c #D9B456",
"9. c #DCB957",
"0. c #DBB25B",
"q. c #D6B85D",
"w. c #DDBA5C",
"e. c #E3BC5D",
"r. c #EBBF5F",
"t. c #C3A467",
"y. c #D8B760",
"u. c #E5BD61",
"i. c #E9BD62",
"p. c #E4C15D",
"a. c #E8C35F",
"s. c #E3C462",
"d. c #EAC562",
"f. c #EDCA63",
"g. c #F2C764",
"h. c #F2CD65",
"j. c #F3CB69",
"k. c #FCCF6C",
"l. c #EFD066",
"z. c #F7D266",
"x. c #F9D467",
"c. c #F4D369",
"v. c #FDD46C",
"b. c #FEDC6D",
"n. c #FFDC70",
"m. c #8C8783",
"M. c #8E8A86",
"N. c #918B85",
"B. c #928F8C",
"V. c #969387",
"C. c #9A9282",
"Z. c #95928C",
"A. c #99978F",
"S. c #969493",
"D. c #989790",
"F. c #979A95",
"G. c #9A9995",
"H. c #97989A",
"J. c #9A9C9C",
"K. c #B8A089",
"L. c #9B9EA1",
"P. c #9EA3A4",
"I. c #9FA4A8",
"U. c #A0A5A7",
"Y. c #A0A7AA",
"T. c #A2A9AD",
"R. c #A5AEB3",
"E. c #A7B0B5",
"W. c #A8B1B7",
"Q. c #A8B3B9",
"!. c #C1B098",
"~. c #C3B4AA",
"^. c #CEC3B5",
"/. c #D0C1B4",
"(. c #D6CABF",
"). c #D9CECD",
"_. c #DCD6CD",
"`. c #E5E3DB",
"'. c #F0EBEE",
"]. c #F4F4F2",
"[. c #F8F6F7",
"{. c #F9F9F7",
"}. c #FEFEFF",
/* pixels */
"E.E.E.E.E.E.E.E.E.E.E.E.E.E.E.R.J.N.F.T.R.Y.J.D.Z.D.F.L.Y.R.E.R.R.E.E.R.E.E.E.E.E.E.E.E.E.E.E.E.E.E.",
"E.E.E.E.E.E.E.E.E.E.E.E.E.E.E.G.L :.Y M Q K R :.:.:.R T K Q _ ^ ^ ] U.E.R.E.E.E.E.E.E.E.E.E.E.E.E.E.",
"E.E.E.E.E.E.E.E.E.E.E.E.R.E.Y.{ c.b.b.f.d.x.b.b.b.b.b.b.x.a.8.d.h.3.Q T.E.E.E.E.E.E.E.E.E.E.E.E.E.E.",
"E.E.E.E.E.E.E.E.E.E.E.R.E.E.] ,.b.b.b.b.b.b.b.b.b.b.b.b.b.b.b.b.b.b.Y F.E.R.E.E.E.E.E.E.E.E.E.E.E.E.",
"E.E.E.E.E.E.E.E.E.E.E.E.E.Z.H h.b.b.b.b.b.b.b.b.b.b.b.b.b.b.b.b.b.b.;.~ E.E.R.E.E.E.E.E.E.E.E.E.E.E.",
"E.E.E.E.E.E.E.E.E.E.R.E.F.P c.b.b.b.b.b.b.b.b.b.b.b.b.b.b.b.b.b.b.b.h.C V.E.E.E.E.E.E.E.E.E.E.E.E.E.",
"E.E.E.E.E.E.E.E.E.R.E.P.K f.b.b.b.b.b.b.b.b.b.b.b.b.b.b.b.b.b.b.b.b.b.h.J J.E.R.E.E.E.E.E.E.E.E.E.E.",
"E.E.E.E.E.E.E.E.E.E.R.^ s.b.b.b.b.b.b.b.b.b.b.b.b.b.b.b.b.b.b.b.b.b.b.b.f.K Y.E.E.E.E.E.E.E.E.E.E.E.",
"E.E.E.E.E.E.E.E.E.E.V.1.b.b.b.b.b.b.b.b.b.b.b.b.b.b.b.b.b.b.b.b.b.b.b.b.b.3.] E.E.E.E.E.E.E.E.E.E.E.",
"E.E.E.E.E.E.E.E.E.T.! c.b.b.b.b.G % 6.b.b.b.b.b.b.d.G s.b.b.b.b.b.b.b.b.b.x.J Y.E.E.E.E.E.E.E.E.E.E.",
"E.E.E.E.E.E.E.E.E.F.1.b.b.b.b.x.o   i b.b.b.b.b.b.6 . & b.b.b.b.b.b.b.b.b.b.>.A.E.E.E.E.E.E.E.E.E.E.",
"E.E.E.E.E.E.E.E.R.` s.b.b.b.b.b.#.8 q.b.b.b.b.b.b.b X n b.b.b.b.b.b.b.b.b.b.p.' R.E.E.E.E.E.E.E.E.E.",
"E.E.E.E.E.E.E.E.T.N c.b.b.b.b.b.n.b.x.e.q.q.w.h.b.x.d.x.b.b.b.b.b.b.b.b.b.b.z.K R.E.E.E.E.E.E.E.E.E.",
"E.E.E.E.E.E.E.E.P.T b.b.b.b.x.3.e.d.t.!./.(./.X.y.v.p.f.b.b.b.b.b.b.b.b.b.b.x.H Y.E.E.E.E.E.E.E.E.E.",
"E.E.E.E.E.E.R.E.P.W b.b.b.b.b.e.$.V _.}.}.}.}.'.K.F &.h.b.b.b.b.b.b.b.b.b.b.v.J Y.E.E.E.E.E.E.E.E.E.",
"E.E.E.E.E.R.E.R.B.E b.b.b.b.b.b.r...{.}.}.}.}.}.).R b.b.b.b.b.b.b.b.b.b.b.b.v.I U.E.E.E.E.E.E.E.E.E.",
"E.E.E.E.R.E.P.^ d &.b.b.b.b.x.8.D L `.]._.^.].[.~.C d.b.b.b.b.b.b.b.b.b.b.b.b.U I.E.E.E.E.E.E.E.E.E.",
"E.E.E.R.E.P.M w.e.&.b.b.b.b.x.e.j.u.t.| 5 1 } o.<.0.*.h.b.b.b.b.b.b.b.b.b.b.x.J Y.E.E.E.E.E.E.E.E.E.",
"E.E.E.E.R.~ q.b.h.O.x.b.b.b.b.b.b.b.b.g.< : 7.c.b.n.b.b.b.b.b.b.b.b.b.b.b.b.h.M R.E.E.E.E.E.E.E.E.E.",
"E.E.E.E.I.I b.b.b.O.f.b.b.b.b.b.b.b.b.b.-.#.b.b.b.b.b.b.b.b.b.b.b.b.b.b.b.b.e.` E.E.E.E.E.E.E.E.E.E.",
"E.E.E.E.J.T b.b.b.3.7.b.b.b.b.b.b.b.b.b.b.b.b.b.b.b.b.b.b.b.b.b.b.b.b.b.b.b.Y F.E.E.E.E.E.E.E.E.E.E.",
"E.E.E.E.J.T b.b.b.g.O.c.b.b.b.b.b.b.b.b.b.b.b.b.b.b.b.b.b.b.b.b.b.b.b.b.b.g.! R.E.E.R.E.E.E.E.E.E.E.",
"E.E.E.E.P. .b.b.b.b.3.7.b.b.b.b.b.b.b.b.b.b.b.b.b.b.b.b.b.b.b.b.b.b.b.b.x.Z j [ G.T.E.R.E.E.E.E.E.E.",
"E.E.E.E.R./ l.b.b.b.v.#.7.b.b.b.b.b.b.b.b.b.b.b.b.b.b.b.b.b.b.b.b.b.b.b.=.O.d.e.>.! I.E.R.E.E.E.E.E.",
"E.E.E.E.E.V.6.b.b.b.b.h.D 7.b.b.b.b.b.b.b.b.b.b.b.b.b.b.b.b.b.b.b.b.b.3.+.c.b.b.b.e.{ T.E.E.E.E.E.E.",
"E.E.E.E.E.I.N c.b.b.b.b.h.#.+.p.b.b.b.b.b.b.b.b.b.b.b.b.b.b.b.b.b.f.#.$.c.b.b.b.b.b.4.C.E.E.E.E.E.E.",
"E.E.E.E.E.E.A.W b.b.b.b.b.v.e.D +.7.d.c.b.b.b.b.b.b.b.b.b.b.c.9.+.F w.b.b.b.b.b.b.b.h.K T.E.E.E.E.E.",
"E.E.E.E.E.E.R.] 1.x.b.b.b.b.b.v.d.3.O.O.&.3.9.9.9.p.9.;.#.D D >.e.v.b.b.b.b.b.b.b.b.b.U P.E.E.E.E.E.",
"E.E.E.E.E.R.E.R.V.I s.b.b.b.b.b.b.b.v.j.u.0.3.*.+.#.2.0.e.d.c.b.b.b.b.b.b.b.b.b.b.b.b.,.G.E.E.E.E.E.",
"E.E.E.E.E.E.R.E.R.F.Q E f.v.b.b.b.b.b.b.b.b.n.n.b.b.b.b.b.b.b.b.b.v.b.b.b.b.b.b.b.b.b.9.C.E.E.E.E.E.",
"E.E.E.E.E.E.E.R.E.E.R.D./ I w.b.b.v.v.v.v.v.v.v.v.v.v.v.b.v.v.v.v.v.v.f.v.b.v.b.v.v.b.9.[ E.E.E.E.E.",
"E.E.E.E.E.E.E.E.E.R.R.E.R.( ,.v.v.v.v.v.v.v.v.v.v.v.v.v.v.v.v.v.v.v.k.D j.v.v.v.v.v.v.3.C.E.E.E.E.E.",
"E.E.E.E.E.E.E.E.E.E.E.E.R.' d.v.v.v.v.v.v.v.v.v.v.v.v.v.v.v.v.v.v.v.j.D j.v.v.v.v.v.v.Y J.E.E.E.E.E.",
"E.E.E.E.E.E.E.E.E.E.E.E.T.{ j.v.v.v.v.v.v.v.v.v.v.v.v.v.v.v.v.v.v.v.v.O.u.v.v.v.v.v.e.^ R.E.E.E.E.E.",
"E.E.E.E.E.E.E.E.E.E.E.E.P.I k.v.v.v.v.v.v.v.v.v.v.v.v.v.v.v.v.v.v.v.v.5.Z j.v.v.k.0.K P.E.R.E.E.E.E.",
"E.E.E.E.E.E.E.E.E.E.E.E.H.d %.i.k.v.v.v.k.k.v.v.k.k.k.k.k.v.v.v.v.v.k.i.y m <.<.P ` I.E.R.E.E.E.E.E.",
"E.E.E.E.E.E.E.E.E.E.E.E.Z.7 e p A 2.i.j.k.k.k.k.k.k.v.v.k.k.k.j.i.3.@.a s J.J.F.P.R.E.R.E.E.E.E.E.E.",
"E.E.E.E.E.E.E.E.E.R.E.Q.N.3 u e e e p B S %.2.5.0.0.0.5.2.$.A a p e q q 9 P.Q.E.E.E.R.E.E.E.E.E.E.E.",
"E.E.E.E.E.E.E.R.E.E.R.P.l 3 u e e e e q q q w u u u u u e e q q q q e q > l J.R.E.R.E.E.E.E.E.E.E.E.",
"E.E.E.E.E.E.R.E.R.S.h 9 O 3 u q q q q q q q t r r r t t t u e e q q q q 0 3 4 l Y.E.R.E.E.E.E.E.E.E.",
"E.E.E.E.E.E.E.E.M.$ 7 q > 3 t q q r r r r r r q q q r t r r r r r q q q r r q , l R.E.E.E.E.E.E.E.E.",
"E.E.E.E.E.E.E.L.* 0 q q 0 0 q q q r r r r r r r r r r r r r q q q q q q r r r q 2 S.E.E.E.E.E.E.E.E.",
"E.E.E.E.E.E.E.) 2 r r q q q q q q q q q q q r r r r q q q q q q q q 0 q q q q r 2 ( E.E.E.E.E.E.E.E.",
"E.E.E.E.E.E.E.l 3 q q q q q q 0 0 0 0 0 q q q q 0 q q q 0 0 q q 0 q 0 0 0 0 q r 3 x E.E.E.E.E.E.E.E.",
"E.E.E.E.E.E.E.z 2 q q q q q 0 0 0 0 0 0 q q q 0 0 r r r r q 0 0 0 0 0 0 q q r r 3 ( E.E.E.E.E.E.E.E.",
"E.E.E.E.E.E.E.S.$ 0 0 0 0 0 0 0 0 0 0 0 0 0 0 0 0 0 0 r q q 0 0 0 0 0 0 0 0 0 q 2 V.E.E.E.E.E.E.E.E.",
"E.E.E.E.R.E.R.R.z + 7 0 0 0 0 0 0 0 0 0 0 0 0 0 0 0 0 0 0 0 0 0 0 0 0 0 0 0 0 3 g T.E.E.E.E.E.E.E.E.",
"E.E.E.E.R.R.R.E.T.c # + 2 3 3 7 0 0 0 0 0 0 0 0 0 0 3 3 3 3 7 0 0 0 0 0 0 3 2 = H.E.R.E.E.E.E.E.E.E.",
"E.E.E.E.E.E.E.R.E.R.L.) l - = * * $ $ + + @ $ $ * = f k c ; = * + @ + @ 4 f v P.E.E.E.E.E.E.E.E.E.E.",
"E.E.E.E.E.E.E.E.R.E.E.W.R.R.T.P.L.H.S.S.Z.Z.S.J.P.I.T.R.E.R.I.J.B.m.m.B.J.T.E.E.E.E.E.E.E.E.E.E.E.E."
};
