/* XPM */
static char *_f3e79b9e6734b63e7bdbf5216a23f25pqwtIVN7UPFCumJt[] = {
/* columns rows colors chars-per-pixel */
"50 50 209 2 ",
"   c #322C18",
".  c #3F3820",
"X  c #49241B",
"o  c #4F311E",
"O  c #4B3823",
"+  c #583C3B",
"@  c #4B4328",
"#  c #59472C",
"$  c #5D522C",
"%  c #474338",
"&  c #4B493A",
"*  c #524936",
"=  c #595339",
"-  c #654D2C",
";  c #63572E",
":  c #7C443F",
">  c #655935",
",  c #715B3D",
"<  c #6F6337",
"1  c #72663C",
"2  c #786939",
"3  c #4E4D43",
"4  c #4F504A",
"5  c #585447",
"6  c #56534B",
"7  c #545553",
"8  c #5A5956",
"9  c #565958",
"0  c #5C5E5E",
"q  c #625B43",
"w  c #655B4D",
"e  c #765F41",
"r  c #635C5A",
"t  c #6C644B",
"y  c #76664A",
"u  c #686257",
"i  c #756A58",
"p  c #7D765F",
"a  c #5D6262",
"s  c #636565",
"d  c #696663",
"f  c #64696A",
"g  c #6A6A68",
"h  c #726E63",
"j  c #7A7266",
"k  c #6B6F71",
"l  c #6D7274",
"z  c #727474",
"x  c #737779",
"c  c #7B7B79",
"v  c #BD1D18",
"b  c #B33C3A",
"n  c #DF3B30",
"m  c #EB3B28",
"M  c #E63C32",
"N  c #86743F",
"B  c #C74B3E",
"V  c #EA4634",
"C  c #844944",
"Z  c #A25850",
"A  c #8B6F4A",
"S  c #906E42",
"D  c #897643",
"F  c #9E7643",
"G  c #997845",
"H  c #95754B",
"J  c #9C794B",
"K  c #867156",
"L  c #887658",
"P  c #927754",
"I  c #987C57",
"U  c #9C7D54",
"Y  c #957D5D",
"T  c #A17944",
"R  c #A17C4B",
"E  c #A17F52",
"W  c #876E6B",
"Q  c #847663",
"!  c #857864",
"~  c #8C7A62",
"^  c #817B68",
"/  c #937E62",
"(  c #8A7777",
")  c #8C7B74",
"_  c #917D7D",
"`  c #BB6A64",
"'  c #BB7977",
"]  c #D44D45",
"[  c #E74F46",
"{  c #E26151",
"}  c #D66A65",
"|  c #D27969",
" . c #E77064",
".. c #8F804E",
"X. c #958145",
"o. c #9A864A",
"O. c #9D825D",
"+. c #9F8F5E",
"@. c #A48D4B",
"#. c #AD8D4B",
"$. c #AA934E",
"%. c #A38153",
"&. c #A18D55",
"*. c #A2845C",
"=. c #AD9451",
"-. c #B09651",
";. c #B49C55",
":. c #B99E55",
">. c #BDA359",
",. c #8C8169",
"<. c #9C8465",
"1. c #958468",
"2. c #9B8669",
"3. c #9E8A6C",
"4. c #9F936D",
"5. c #8A837B",
"6. c #958B74",
"7. c #9B8A72",
"8. c #A18765",
"9. c #A18A69",
"0. c #A9956D",
"q. c #B18878",
"w. c #AC9B74",
"e. c #B8A367",
"r. c #B1A176",
"t. c #B8A77C",
"y. c #C59F59",
"u. c #DA9A5B",
"i. c #C2A659",
"p. c #C5AA59",
"a. c #CBAD5D",
"s. c #D6B15E",
"d. c #F2926C",
"f. c #C9AF67",
"g. c #D4B462",
"h. c #D7B963",
"j. c #DCBB66",
"k. c #C6AC76",
"l. c #CCB57E",
"z. c #D6BA78",
"x. c #F7A56A",
"c. c #E5BD69",
"v. c #F8B76C",
"b. c #F3A572",
"n. c #DDC07C",
"m. c #E4C367",
"M. c #E4C169",
"N. c #EBC76B",
"B. c #EECA6D",
"V. c #F3CD6E",
"C. c #E5C57A",
"Z. c #EAC978",
"A. c #F4CE73",
"S. c #F8C977",
"D. c #F4D172",
"F. c #FFD476",
"G. c #FFD876",
"H. c #F6D17D",
"J. c #FED67A",
"K. c #FFDA78",
"L. c #787F83",
"P. c #7A8084",
"I. c #7C8389",
"U. c #838586",
"Y. c #898687",
"T. c #868A8D",
"R. c #8D8E8E",
"E. c #938D8D",
"W. c #97938E",
"Q. c #868D92",
"!. c #8B8F91",
"~. c #8D9194",
"^. c #8D9499",
"/. c #919293",
"(. c #929799",
"). c #969A9D",
"_. c #9B9C9D",
"`. c #AD9596",
"'. c #B99E9F",
"]. c #B2A581",
"[. c #959CA0",
"{. c #999EA1",
"}. c #9CA2A5",
"|. c #9EA6AA",
" X c #9FA8AE",
".X c #A2A5A6",
"XX c #ABA4A7",
"oX c #A2A6A9",
"OX c #A3A9AC",
"+X c #AAABAD",
"@X c #B5A6A8",
"#X c #A6AEB3",
"$X c #AAAEB2",
"%X c #A7B0B5",
"&X c #AAB1B6",
"*X c #AEB6BA",
"=X c #B2B7BB",
"-X c #CB8F8C",
";X c #C1AF83",
":X c #CAB687",
">X c #D3BB83",
",X c #D6BD85",
"<X c #DCC285",
"1X c #DCC288",
"2X c #E4C784",
"3X c #F3D080",
"4X c #BEBEC1",
"5X c #F4F5F6",
"6X c #FDFEFE",
/* pixels */
"%X%X%X%X%X%X%X%X%X%X%X%X%X%X%X%X%X%X%X%X#X%X~.% 2 < % & & & 3 7 f I.}.%X%X%X#X%X%X%X%X%X%X%X%X%X%X%X",
"%X%X%X%X%X%X%X%X%X%X%X%X%X%X%X%X%X%X%X#X%XOX4 -.G.F.h.h.j.h.a.:.o.1 3 s (.%X%X#X%X%X%X%X%X%X%X%X%X%X",
"%X%X%X%X%X%X%X%X%X%X%X%X%X%X%X%X%X%X#X%X Xa 2 F.G.G.G.J.J.K.K.K.K.F.M.o.= l #X%X#X%X%X%X%X%X%X%X%X%X",
"%X%X%X%X%X%X%X%X%X%X%X%X%X%X%X%X%X#X%X}.7 D B.G.G.G.G.G.G.G.G.G.G.G.g.B.M.1 a #X%X#X%X%X%X%X%X%X%X%X",
"%X%X%X%X%X%X%X%X%X%X%X%X%X%X%X%X#X%X X7 X.F.G.F.F.F.F.F.G.G.G.G.G.G.N @.K.D.1 k %X%X%X%X%X%X%X%X%X%X",
"%X%X%X%X%X%X%X%X%X%X%X%X%X%X%X%X%X%Xf 2 D.F.F.F.F.F.F.F.F.G.G.G.G.G.a.$ N =.j.= Q.%X#X%X%X%X%X%X%X%X",
"%X%X%X%X%X%X%X%X%X%X%X%X%X%X%X#X%X^.* M.G.F.F.F.F.F.F.F.F.F.F.F.F.F.G.h.@.-.D.;.8 #X%X%X%X%X%X%X%X%X",
"%X%X%X%X%X%X%X%X%X%X%X%X%X%X%X%X%Xs X.G.F.F.G.F.G.s.; a.G.F.F.F.F.F.V.G.G.G.G.A.q ^.%X%X%X%X%X%X%X%X",
"%X%X%X%X#X#X%X%X%X%X%X%X%X%X%X%X X3 g.G.F.F.G.F.J.:.  =.K.G.G.G.J.:.. p.G.G.F.J.X.l %X%X%X%X%X%X%X%X",
"%X%X%X%X#X#X%X%X%X%X%X%X%X%X%X%X^.= V.F.F.G.G.F.F.D.m.B.i.@.@.i.D.>.@ a.G.F.F.J.>.9 #X%X%X%X%X%X%X%X",
"%X%X%X%X#X#X#X#X%X%X%X%X%X%X%X%XI.1 G.F.F.F.G.F.G.=.G 1 d R.T.g , h.V.D.F.F.F.G.g.4 #X%X%X%X%X%X%X%X",
"%X%X#X%X$X$X#X%X%X#X%X%X%X%X%X%XL.D G.F.F.F.G.F.G.j.2 8 5X6X6X6XoX@ 2 j.G.F.F.G.j.3  X%X%X%X%X%X%X%X",
"%X%X%XXX} } -X@X$X%X%X%X%X%X%X%XL.D G.G.F.F.F.F.G.j.< % +X_..X5X4XO p.A.G.G.G.G.h.3 OX%X%X%X%X%X%X%X",
"%X%X%X`.n M [  .'.%X%X#X#X%X%X#XP.1 G.G.F.F.F.F.G.j.:.i.@ X X 6 q ; =.G.F.G.G.G.a.4 #X%X%X%X%X%X%X%X",
"%X%X%X+X' ] M { `.OX%X%X%X#XL.6 & . p.F.F.F.F.G.G.G.J.K.>.o O :.N.A.B.F.F.G.F.K.$.0 %X%X%X%X%X%X%X%X",
"%X%X#X%X%XXXq.' oXOXoX%X%Xx > y.u.#.; D N.G.F.F.F.G.G.G.G.h.j.G.G.F.F.F.F.F.F.F.1 P.%X#X%X%X%X%X%X%X",
"%X%X%X#X%X%X%X%X|.&XoXOX}.= s.x.x.v.N.D > a.G.F.G.G.F.G.a.=.M.G.G.G.G.G.F.F.G.a.3 |.#X#X%X%X%X%X%X%X",
"%X%X%X%X%X%X%X%X#XoX&X}.~.1 v.x. .d.G.G.:.$ -.F.F.F.G.G.a.N g.G.G.G.G.G.F.F.B.> L.%X#X%X%X%X%X%X%X%X",
"%X%X%X%X%X%X%X#X%X}.&XoX(.q c.S.b.S.G.J.K.h.> X.V.G.G.G.G.G.G.G.G.G.F.F.G.N.1 f #X%X%X#X%X%X%X%X%X%X",
"%X%X%X%X%X%X%X%X%XOX).oX).P.,.;X>X,X>X1X1X2Xl.t +.Z.H.H.H.J.J.J.J.G.G.A.>.= k #X%X#X#X#X#X#X%X%X%X%X",
"%X%X%X%X%X%X%X%X#X%X}.&X|.{.9 t >XA.k.,XZ.t.<Xn.6.8 t 6.0.w.].t.r.t.r.4.u 0 |.$X%X%X$X#X%X%X#X%X%X%X",
"%X%X%X%X%X%X%X%X%X%XOXoX&X|.|.9 6.D.Z.,XG.n.2XG.l.e.@.L 1 ; i > > p &.f.:Xe.6 _.+X|.}.OXOX}.#X%X%X%X",
"%X%X%X%X%X%X%X%X%X#X%X}.&XoX+XOXT.L j.>XH.A.>XJ.C.1XK.n.2XD.l.C.A.>XJ.A.k.A...~.%XOX$X%X$X.X%X#X%X%X",
"%X%X%X%X%X%X%X%X%X%X%XOXoX%XoX%X#Xx = e.2XF.>XH.A.>XJ.Z.1XG.n.2XG.>XH.D.1.=.Z.c [.#X&X%X+XoX%X#X%X%X",
"%X%X%X%X%X%X%X%X%X%X%X#X}.&XoX#X#X|.P.& r.J.C.<XG.z.3XD.>XD.j.l.c.k.k.s.3.# g.Q f #X$X%X+XoX%X%X%X%X",
"%X%X%X%X%X%X%X%X%X%X%X%X|..XOX.X#XoXOXx h <Xn.;XC.l.:Xz.w.0.*.7.O.<.3.U 3.t y 6.s oX+X$XoXOX%X%X%X%X",
"%X%X%X%X%X%X%X%X%X%X%X%X#X(.OX(.).|.~.|.k 3.z.w.9.P ! P K ~ P Q Y P ~ I L / P j & 0 ).OX}.OX%X%X%X%X",
"%X%X%X%X%X%X%X%X%X%X%X#X%X|.OX#X}.%X}.#X^.^ y.E <.F Y E J <.T Y *.G 1.R I *.T <.S > z |.oX#X%X%X%X%X",
"%X%X%X%X%X%X%X%X%X%X%X%X%X#X}.&X|.#X#XOXQ.7 I T 2.R I 8.F 2.R U <.# w # e 8.T <.%.U 5 x oX#X%X%X%X%X",
"%X%X%X%X%X%X%X%X%X%X%X%X#X%X|.+X#XoX%X^.5 # L R O.*.J 3.R <.*.J 3.G Y y O ~ T <.%.U i s oX#X#X%X%X%X",
"%X%X%X%X%X%X%X%X%X%X%X%X%X%X#X}.&X|.#X9 L F i H J 3.F <.%.I 9.R 7.*.<.0.K ) 8.7.7.3.j U.{.#X%X%X%X%X",
"%X%X%X%X%X%X%X%X%X%X%X%X%X#X%X}.&X#XOX7 Q Y w j O.7.3.7.7.2.6.2.,.1./ 1.A u A K K , g _..X%X#X%X%X%X",
"%X%X%X%X%X%X%X%X%X%X%X%X%X%X%XOX_.oX).U.8 Q L i % t Y J / J Y E P O.J <.- 7 6 r u 0 .X$XoX%X#X%X%X%X",
"%X%X%X%X%X%X%X%X%X%X%X%X%X%X%X#X{.$X}.}.l d * 6 7 4 i - K S K I H 2.H ! 8 /.$X.XoXoX}.).oX%X%X%X%X%X",
"%X%X%X%X%X%X%X%X%X%X%X%X%X%X%X%XOXoX%XoX%X}.[.[.oX#X(.x x d u 5.5.W.W./.).).).).).{.}.OX#X%X%X%X%X%X",
"%X%X%X%X%X%X%X%X%X%X%X%X%X%X%X%X#X}.=XOX$X%X$X=XOX&X.XoX}._.).).[.{.}.|.OX#X#X#X%X%X%X%X%X%X%X%X%X%X",
"%X%X%X%X%X%X%X%X%X%X%X%X%X%X%X#X%XOX}..X.X_.c z g c {.}.|.#X#X#X%X%X%X%X%X%X%X%X%X%X%X%X%X%X%X%X%X%X",
"%X%X%X%X%X%X%X%X%X%X%X%X%X%X%X%X%X%X|.|..Xc z T.(.}.%X%X%X%X%X%X%X%X%X%X%X%X%X%X%X%X%X%X%X%X%X%X%X%X",
"%X%X%X%X%X%X%X%X%X%X%X%X%X%X%X%X%X#X=XoXQ.}.#X%X%X%X#X%X%X%X%X%X%X%X%X%X%X%X%X%X%X%X%X%X%X%X%X%X%X%X",
"%X%X%X%X%X%X%X%X%X%X%X%X%X%X%X%X#X*XoX~.#X%X%X%X%X%X%X%X%X%X%X%X%X%X%X%X%X%X%X%X%X%X%X%X%X%X%X%X%X%X",
"%X%X%X%X%X%X%X%X%X%X%X%X%X%X%X#X*X+X~.#X%X#X%X%X%X%X%X%X%X%X%X%X%X%X%X%X%X%X%X%X%X%X%X%X%X%X%X%X%X%X",
"%X%X%X%X%X%X%X%X%X%X%X%X%X%X#X%X&X/.OX%X#X#X#X#X#X#X#X#X#X#X#X#X#X#X#X#X#X#X#X#X#X#X#X%X%X%X%X%X%X%X",
"%X%X%X%X%X%X%X%X%X%X%X%X%X#X%X&X/.#X*X*X*X*X*X*X*X*X*X*X*X*X*X*X*X=X*X*X*X*X*X*X*X*X#X%X%X%X%X%X%X%X",
"%X%X%X%X%X%X%X%X%X%X%X%X%X%X#X/.U._..X.X.XoXoXoX+X+XoXoXoX+X+X+X+X+X+X+X+X+X+X$X$XoX|.#X%X%X%X%X%X%X",
"%X%X%X%X%X%X%X%X%X%X%X%X%X%XOXU.U.Y.( ( ( ( Y.R.R.R.R.R.R.!.!.~././././.E._ _ _ _ E.T.OX%X%X%X%X%X%X",
"%X%X%X%X%X%X%X%X%X%X%X%X%X%X%X#X|._.b v v ] `. X|.|.|.|.|.|.|.|.|.|.|. X`.B v v b _.|.#X%X%X%X%X%X%X",
"%X%X%X%X%X%X%X%X%X%X%X%X%X%X%X%X%X#X` m V | _.%X%X%X%X%X%X%X%X%X%X%X%X%X_.| V m ` #X%X%X#X%X%X%X%X%X",
"%X%X%X%X%X%X%X%X%X%X%X%X%X%X%X%X%X~.Z { B W }.%X%X%X%X%X%X%X%X%X%X%X%X%X{.W B { Z ^.%X%X%X%X%X%X%X%X",
"%X%X%X%X%X%X%X%X%X%X%X%X%X%X%X%X%XU.C ` : T.%X%X%X%X%X%X%X%X%X%X%X%X%X%X%XT.: ` C T.%X%X%X%X%X%X%X%X",
"%X%X%X%X%X%X%X%X%X%X%X%X%X%X%X%X%X}.r + g OX%X#X%X%X%X%X%X%X%X%X%X%X%X#X%XOXd + r }.%X%X%X%X%X%X%X%X"
};
