/* XPM */
static char *_2c506d28d3c48e5a9a3bb8c9f76382euJzUt3u732hd4heq[] = {
/* columns rows colors chars-per-pixel */
"40 50 142 2 ",
"   c None",
".  c black",
"X  c #0B0B05",
"o  c #1B1309",
"O  c #2D2011",
"+  c #69412A",
"@  c #744E2D",
"#  c #784E2D",
"$  c #74542D",
"%  c #7E552F",
"&  c #764D33",
"*  c #7D5432",
"=  c #686632",
"-  c #746133",
";  c #797237",
":  c #9B2E2D",
">  c #9C3236",
",  c #815632",
"<  c #855A34",
"1  c #8A5E36",
"2  c #8B5E38",
"3  c #8D6237",
"4  c #826836",
"5  c #8F613A",
"6  c #926637",
"7  c #91643A",
"8  c #96693B",
"9  c #986B3B",
"0  c #8A7C3C",
"q  c #9D723E",
"w  c #9C7C41",
"e  c #A47741",
"r  c #AA7F45",
"t  c #968645",
"y  c #9E9247",
"u  c #A28E48",
"i  c #AD8E4D",
"p  c #B18548",
"a  c #B28C4A",
"s  c #B88E4C",
"d  c #A79148",
"f  c #AD944C",
"g  c #AB9A4F",
"h  c #B39448",
"j  c #BE934F",
"k  c #B49D4D",
"l  c #BA9B4A",
"z  c #AE9B50",
"x  c #BA9750",
"c  c #B69C56",
"v  c #BFA14E",
"b  c #B6A152",
"n  c #BCA354",
"m  c #BEA954",
"M  c #BFA75A",
"N  c #BEAC58",
"B  c #B18168",
"V  c #B89072",
"C  c #C6904C",
"Z  c #C09650",
"A  c #C69B54",
"S  c #CA9F57",
"D  c #C0A04C",
"F  c #C4A251",
"G  c #C1AC56",
"H  c #CEAD57",
"J  c #C7A459",
"K  c #C6AD5B",
"L  c #CDAE5A",
"P  c #D2A65C",
"I  c #D2AA5B",
"U  c #C7B25B",
"Y  c #CDB259",
"T  c #CDB95F",
"R  c #D5B45A",
"E  c #D8B65C",
"W  c #D4BA5C",
"Q  c #DABB5E",
"!  c #C9AC68",
"~  c #D9AE60",
"^  c #CFBC60",
"/  c #D5B260",
"(  c #DDB462",
")  c #D4BC62",
"_  c #DCBC60",
"`  c #C6AE7A",
"'  c #CCB476",
"]  c #E3BE65",
"[  c #DEC05F",
"{  c #D7C060",
"}  c #DCC464",
"|  c #DEC966",
" . c #DFC575",
".. c #DCC47A",
"X. c #E2C463",
"o. c #E5CA65",
"O. c #E8C967",
"+. c #ECC56A",
"@. c #E5CB69",
"#. c #EBCD6A",
"$. c #F2CD6D",
"%. c #EBD067",
"&. c #E7D16B",
"*. c #EED36B",
"=. c #F2D56D",
"-. c #F4DA6F",
";. c #F8DD6F",
":. c #F5CF71",
">. c #F0D670",
",. c #FAD472",
"<. c #F7DC71",
"1. c #FADC71",
"2. c #FAE172",
"3. c #D4BE8B",
"4. c #D6C082",
"5. c #DCC483",
"6. c #D9C58E",
"7. c #D7C492",
"8. c #D2C199",
"9. c #D9C99D",
"0. c #D6C3C2",
"q. c #E1D7C5",
"w. c #E0D9C6",
"e. c #E8E6DB",
"r. c #EBE9E2",
"t. c #EDE8E3",
"y. c #EDE9E4",
"u. c #EEEAEA",
"i. c #F1EBED",
"p. c #F3EFEF",
"a. c #F0EEEC",
"s. c #F1F0EB",
"d. c #F9FBFA",
"f. c #FBF9FC",
"g. c #FBFAFC",
"h. c #FDFDFD",
"j. c #FDFCFD",
"k. c #FEFDFD",
"l. c #FEFDFE",
"z. c #FEFEFE",
"x. c #FFFFFF",
"c. c #FCFCFE",
/* pixels */
"                                d b m G G m b u   k Y U g                       ",
"                    n } @.{ W o.=.<.1.2.2.1.<.*.o.=.2.2.*.g                     ",
"                  l =.2.2.2.2.2.2.2.2.2.2.2.2.2.2.2.2.2.2.T                     ",
"                  Y 2.2.2.2.2.2.2.2.2.2.2.2.2.2.2.2.2.2.2.@.                    ",
"                  o.2.2.2.2.2.2.2.2.2.2.2.2.2.2.2.2.2.2.2.2.@.z                 ",
"                X.2.2.2.2.2.2.2.2.2.2.2.2.2.2.2.2.2.2.2.2.2.2.&.                ",
"              Q 2.2.2.2.2.2.2.2.2.2.2.2.2.2.2.2.2.2.2.2.2.2.2.2.|               ",
"            v -.2.2.2.2.2.2.2.2.2.2.2.2.2.2.2.2.2.2.2.2.2.2.2.2.2.T             ",
"            X.2.2.2.2.2.2.2.2.2.2.1.1.2.2.2.2.2.2.2.<.@.<.2.2.2.2.*.            ",
"          l -.2.2.2.2.2.2.2.2.2.#.- 4 =.2.2.2.2.2.2.t O w 2.2.2.2.2.^           ",
"          W 2.2.2.2.2.2.2.2.2.2.N X o W 2.2.2.2.2.2.= . $ 1.2.2.2.2.@.          ",
"          X.2.2.2.2.2.2.2.2.2.2.&.; 0 =.2.2.2.2.2.2.} y } 2.2.2.2.2.;.b         ",
"          %.2.2.2.2.2.2.2.2.2.2.2.2.2.2.<.#. ... .#.1.2.2.1.2.2.2.2.1.U         ",
"          =.2.2.2.2.2.2.2.2.2.2.1.O.*.>.6.q.y.s.r.w.5.=.X.X.1.2.2.2.2.)         ",
"        l <.2.2.2.2.2.2.2.2.2.2.2.*.Q ` a.z.z.z.z.z.e.! O.<.2.2.2.2.2.}         ",
"        l ;.2.2.2.2.2.2.2.2.2.2.2.2.<.8.g.z.z.z.z.z.d.3.;.2.2.2.2.2.2.}         ",
"        D ;.2.2.2.2.2.2.2.2.2.2.2.-.X.` u.z.a.0.i.g.t.' E #.2.2.2.2.2.) i       ",
"        l -.2.2.2.2.2.2.2.2.2.2.2.O.X.*.4.9.V > B 7...=.=.*.2.2.2.2.2.} O.}     ",
"          *.2.2.2.2.2.2.2.2.2.2.2.2.2.2.1.;.I : C 1.2.2.2.2.2.2.2.2.2.Q =.2.@.  ",
"          X.2.2.2.2.2.2.2.2.2.2.2.2.2.2.2.2.=.A #.2.2.2.2.2.2.2.2.2.<.Q 1.2.<.M ",
"          H 2.2.2.2.2.2.2.2.2.2.2.2.2.2.2.2.2.2.2.2.2.2.2.2.2.2.2.2.*.] 2.2.2.) ",
"            *.2.2.2.2.2.2.2.2.2.2.2.2.2.2.2.2.2.2.2.2.2.2.2.2.2.2.2.Q #.2.2.2.} ",
"            F 1.2.2.2.2.2.2.2.2.2.2.2.2.2.2.2.2.2.2.2.2.2.2.2.2.2.*.E 1.2.2.2.) ",
"      f Y _ H } 2.2.2.2.2.2.2.2.2.2.2.2.2.2.2.2.2.2.2.2.2.2.2.2.=.E =.2.2.2.1.K ",
"    l *.2.2.2.Q O.2.2.2.2.2.2.2.2.2.2.2.2.2.2.2.2.2.2.2.2.2.2.#.R =.2.2.2.2.=.c ",
"  h *.2.2.2.2.<.Q _ <.2.2.2.2.2.2.2.2.2.2.2.2.2.2.2.2.2.2.=._ Q =.2.2.2.2.2.}   ",
"  X.2.1.1.1.1.2.1.X.R X.-.2.2.2.2.2.2.2.2.2.2.1.2.2.1.*._ E #.1.1.1.1.1.2.=.n   ",
"l <.2.1.1.1.1.1.1.1.=.X.Q Q X.#.*.=.-.-.-.-.=.*.X._ Q Q #.1.1.1.1.1.1.1.=.K     ",
"R 1.1.1.1.1.1.1.1.1.1.1.1.=.O.] Q Q R R R E Q Q ] #.<.1.1.1.1.1.1.1.1.=.K       ",
"[ 1.1.1.1.1.1.1.1.1.1.1.1.1.1.1.1.1.1.<.1.1.1.1.1.1.1.1.1.1.1.1.1.1.@.n         ",
"X.1.1.1.1.1.1.1.1.1.1.1.1.1.1.1.1.1.1.1.1.1.1.1.1.1.1.1.1.1.1.<.@.L             ",
"Q 1.1.1.1.1.1.1.X.$.1.1.1.1.1.1.1.1.1.1.1.1.1.1.1.1.1.1.1.1.1.@.                ",
"H 1.1.,.,.,.1.1.] ] 1.1.1.1.1.1.,.,.,.1.1.1.1.,.1.,.,.1.1.1.1.#.                ",
"h $.,.,.,.,.,.,.X.] 1.,.,.,.,.,.,.,.,.,.,.,.,.,.,.,.,.,.,.,.,.#.                ",
"  R ,.,.,.,.,.,.( +.,.,.,.,.,.,.,.,.,.,.,.,.,.,.,.,.,.,.,.,.,.#.                ",
"    ( :.,.,.,.] a ] ,.,.,.,.,.,.,.,.,.,.,.,.,.,.,.,.,.,.,.=.] a                 ",
"      x I / J   % e Z ( +.:.,.,.,.,.,.,.,.,.,.,.,.,.$.] I a q 7                 ",
"                < 6 6 9 e p j S P ~ ( ] ( ( ~ P A s r q 8 6 8 3                 ",
"                % 6 6 7 7 7 6 7 6 8 8 8 8 8 8 6 7 7 7 7 6 8 7 3                 ",
"          < 5 1 % 7 7 7 7 7 7 7 7 7 7 7 7 7 7 7 7 7 7 7 6 6 1 %                 ",
"        < 7 7 7 < 7 7 7 7 7 7 7 7 7 7 7 7 7 7 7 7 7 7 7 7 7 7 5 <               ",
"        1 7 7 7 < 1 7 7 7 7 7 7 7 7 7 7 7 7 7 7 7 7 7 7 7 7 7 7 7 1             ",
"        < 7 7 3 % , 7 7 7 7 7 7 7 7 7 7 7 7 7 7 7 7 7 7 7 7 7 7 7 7 <           ",
"        % 7 7 5 2 , 3 7 7 7 7 7 7 7 7 7 7 7 7 7 7 7 7 7 7 7 7 7 7 7 3           ",
"          < 5 7 7 < * 7 7 7 7 7 7 7 7 7 7 7 7 7 7 7 7 7 7 7 7 7 7 7 5           ",
"            # , , , , < 7 7 7 7 7 7 5 7 7 7 7 7 7 7 5 7 7 7 7 7 7 7 1           ",
"              , 2 5 5 , , 5 7 5 5 5 5 5 5 5 5 5 5 5 5 5 5 5 5 5 7 5 *           ",
"                < 5 5 5 < , < 5 5 7 7 5 5 5 5 5 5 5 5 5 7 7 7 5 < *             ",
"                  , 2 5 5 2 < * * < 2 5 5 5 7 5 5 5 5 5 2 < , *                 ",
"                      * * * * & +     @ * * * * * , * $ @                       "
};
