/* XPM */
static char *_ffc2d0813c74e2e843a590bb4ac62fcyiRo5ftNYwxRU1FO[] = {
/* columns rows colors chars-per-pixel */
"40 50 134 2 ",
"   c None",
".  c #121208",
"X  c #2D2915",
"o  c #382D16",
"O  c #47371D",
"+  c #6E452C",
"@  c #744D2E",
"#  c #76502E",
"$  c #7B532F",
"%  c #784F33",
"&  c #7D5431",
"*  c #7F5833",
"=  c #7B6533",
"-  c #716C35",
";  c #815632",
":  c #855A34",
">  c #8A5D36",
",  c #8B5F38",
"<  c #A34935",
"1  c #8C6237",
"2  c #8F6139",
"3  c #916439",
"4  c #956939",
"5  c #9A6D3D",
"6  c #8A733C",
"7  c #8B7F3E",
"8  c #9C703E",
"9  c #A14C49",
"0  c #A37741",
"q  c #A57941",
"w  c #A87B44",
"e  c #968645",
"r  c #9F8343",
"t  c #A88549",
"y  c #B08548",
"u  c #B58A4B",
"i  c #A39549",
"p  c #AC964B",
"a  c #B7944C",
"s  c #BC924E",
"d  c #BC9D4B",
"f  c #BD9750",
"g  c #B49B52",
"h  c #BAA24F",
"j  c #B7A554",
"k  c #BBA654",
"l  c #BDA358",
"z  c #B8856E",
"x  c #BE9177",
"c  c #C78B4E",
"v  c #C19751",
"b  c #C29A52",
"n  c #CC9E57",
"m  c #C0A14C",
"M  c #C5A551",
"N  c #CFA456",
"B  c #C2AC55",
"V  c #CDAC55",
"C  c #CCA158",
"Z  c #C3AB5B",
"A  c #CBAB5B",
"S  c #D3A95C",
"D  c #CDB057",
"F  c #CBB25C",
"G  c #CEBB5F",
"H  c #D0B457",
"J  c #D4B45B",
"K  c #D4BB5D",
"L  c #DBBC5E",
"P  c #D9AF60",
"I  c #D6B260",
"U  c #DCB462",
"Y  c #D4BB62",
"T  c #DEBD60",
"R  c #D2B976",
"E  c #E3BD65",
"W  c #DBC05E",
"Q  c #DCC363",
"!  c #E2C463",
"~  c #E8C567",
"^  c #E4CA66",
"/  c #E8CD67",
"(  c #E5C369",
")  c #EBC569",
"_  c #E5CA69",
"`  c #EBCD69",
"'  c #F3CB6E",
"]  c #EED36B",
"[  c #F2D46D",
"{  c #F4DA6E",
"}  c #F8DB6F",
"|  c #EACE72",
" . c #E1C87B",
".. c #F7CF70",
"X. c #F9CF71",
"o. c #ECD372",
"O. c #F7D171",
"+. c #F9D471",
"@. c #F6DC70",
"#. c #F9DC71",
"$. c #FAE16F",
"%. c #FAE171",
"&. c #D2BB83",
"*. c #DCC787",
"=. c #DFC880",
"-. c #DFCC8F",
";. c #D5C192",
":. c #DDC891",
">. c #D9CA9D",
",. c #DECC9D",
"<. c #E1CA89",
"1. c #E1D7BE",
"2. c #E1D8BF",
"3. c #DDCCCB",
"4. c #E4DECD",
"5. c #E7DFD7",
"6. c #E8E2D7",
"7. c #EAE3D8",
"8. c #EAE7DB",
"9. c #EBE6DC",
"0. c #EBE2E2",
"q. c #EDE6E4",
"w. c #EEECE3",
"e. c #F0EDEC",
"r. c #F1F2EE",
"t. c #F9F6F6",
"y. c #FBFAFA",
"u. c #FDFBFC",
"i. c #FCFBFC",
"p. c gray99",
"a. c #FDFCFC",
"s. c #FCFCFD",
"d. c #FDFDFE",
"f. c #FEFEFF",
/* pixels */
"                      g F F h   p k B B B B k p                                 ",
"                      _ #.@.] / ] [ } @.@.@.[ ] ^ K Q ^ Q B                     ",
"                    G @.%.%.%.%.%.%.%.%.%.%.%.%.%.%.%.%.%.`                     ",
"                    ^ %.%.%.%.%.%.%.%.%.%.%.%.%.%.%.%.%.%.} D                   ",
"                k ^ #.%.%.%.%.%.%.$.%.%.%.%.%.%.%.%.%.%.%.%.Q                   ",
"                ^ #.%.%.%.%.%.%.%.%.%.%.%.%.%.%.%.%.%.%.%.%.#.Q                 ",
"              Q %.%.%.%.%.%.%.%.%.%.%.%.%.%.%.%.%.%.%.%.%.%.%.@.K               ",
"            G @.%.%.%.%.%.%.%.%.%.%.%.%.%.%.%.%.%.%.%.%.%.%.%.%.] M             ",
"            ] %.%.%.%.[ ^ ] %.%.%.%.%.%.%.[ [ #.%.%.%.%.%.%.%.%.%.W             ",
"          G #.%.%.%.[ r O e @.%.%.%.%.%.^ 6 6 Q %.%.%.%.%.%.%.%.%.]             ",
"          ^ %.%.%.%.` = . - [ %.%.%.%.%.k o X j %.%.%.%.%.%.%.%.%.} H           ",
"        k [ %.%.%.%.} K i G %.%.#.#.%.%.^ 7 7 Q %.%.%.%.%.%.%.%.%.%.W           ",
"        F @.%.%.%.#.#.#.#.@.|  . . .o.@.%.{ [ #.%.%.%.%.%.%.%.%.%.%.^           ",
"        Y #.%.%.%.} ~ ! ` <.2.8.w.9.1.-.o.] ` { %.%.%.%.%.%.%.%.%.%.]           ",
"        Q %.%.%.%.%.{ ! R 4.s.s.u.u.s.6.&.L ] #.%.%.%.%.%.%.%.%.%.%.[           ",
"        Q %.%.%.%.%.%.] :.r.s.s.u.s.s.e.,.] %.%.%.%.%.%.%.%.%.%.%.%.[ d         ",
"      g Y %.%.%.%.#.] L &.7.t.0.3.q.y.5.&.! { %.%.%.%.%.%.%.%.%.%.%.[ m         ",
"    Q _ Q %.%.%.%.} [ ] o.=.;.z 9 x >.*._ ^ ` #.%.%.%.%.%.%.%.%.%.%.]           ",
"  ^ #.[ L @.%.%.%.%.%.%.%.#.[ c < n @.@.#.#.#.%.%.%.%.%.%.%.%.%.%.%./           ",
"Z { %.{ T { %.%.%.%.%.%.%.%.%.! N / %.%.%.%.%.%.%.%.%.%.%.%.%.%.%.%.W           ",
"Y #.%.#.! ` %.%.%.%.%.%.%.%.%.#.#.#.%.%.%.%.%.%.%.%.%.%.%.%.%.%.%.} V           ",
"Q #.%.#.` L #.%.%.%.%.%.%.%.%.%.%.%.%.%.%.%.%.%.%.%.%.%.%.%.%.%.%./             ",
"Y #.%.%.{ T ` %.%.%.%.%.%.%.%.%.%.%.%.%.%.%.%.%.%.%.%.%.%.%.%.%.[ M             ",
"F @.%.%.#.] L ] %.%.%.%.%.%.%.%.%.%.%.%.%.%.%.%.%.%.%.%.%.%.%.@.T H K D         ",
"l ] %.%.%.#.` L ` #.%.%.%.%.%.%.%.%.%.%.%.%.%.%.%.%.%.%.%.%.#.^ ! @.%.} / d     ",
"  Q %.%.%.%.#.[ T ! ] #.%.%.%.%.%.%.%.%.%.%.%.#.%.%.%.%.%.[ Q ! [ %.%.#.%./     ",
"  Z ] #.#.#.#.#.} ` L E ] { #.#.#.%.%.#.%.%.#.#.#.#.#.[ ^ L ^ { #.#.#.#.#.#.Q   ",
"    F [ #.#.#.#.#.#.[ ` T L ! ~ ] [ { { { { [ ] ` ^ L L ! [ #.#.#.#.#.#.#.#.[ d ",
"      F [ #.#.#.#.#.#.#.#.[ ` ! L L L J J L L T ! ~ [ { #.#.#.#.#.#.#.#.#.#.@.D ",
"        A _ @.#.#.#.#.#.#.#.#.#.#.#.@.[ [ { @.#.#.#.#.#.#.#.#.#.#.#.#.#.#.#.#.L ",
"            J _ +.#.#.#.#.#.#.#.#.#.#.#.#.#.#.#.#.#.#.#.#.#.#.#.#.#.#.#.#.#.#.L ",
"                ^ #.#.+.#.#.#.#.#.#.#.#.#.#.#.#.#.#.#.#.#.#.` ` +.#.#.#.#.#.} J ",
"                _ #.+.#.#.+.+.+.+.+.+.+.#.+.+.#.#.+.+.+.#.#.T ~ +.#.+.+.+.#.[ V ",
"                ` +.+.+.+.+.+.+.+.+.+.+.+.+.+.#.+.+.+.+.+.+.T ) +.+.+.+.+.+.` a ",
"                ( +.+.+.+.O.O.O.O.+.O.+.+.+.+.+.+.O.O.+.+.+.E E [ O.O.+.+.O.J   ",
"                a E ' O.O.O.O.O.O.O.O.O.O.+.+.+.O.O.O.O.O.[ U f E O.O.O.' U     ",
"                3 0 s S E ' ' X.X.O.O.O.O.O.O.X.O.X.' ) U v q : t A U I b       ",
"                1 4 4 5 0 y s n S P U U U U P S C v u w 8 4 3 ;                 ",
"                1 3 3 3 3 4 4 4 5 5 5 8 8 5 5 5 4 4 4 4 4 4 3 $                 ",
"                * > 3 3 3 4 4 3 3 3 3 3 3 3 3 3 3 3 3 3 3 3 2 ; > , :           ",
"              > 1 3 3 3 3 3 3 3 3 3 3 3 3 3 3 3 3 3 3 3 3 3 , > 3 3 3 :         ",
"            > 3 3 3 3 3 3 3 3 3 3 3 3 3 3 3 3 3 3 3 3 3 3 3 : > 3 3 3 :         ",
"          : 3 3 3 3 3 3 3 3 3 3 3 3 3 3 3 3 3 3 3 3 3 3 3 3 ; ; 1 3 3 ;         ",
"          , 3 3 3 3 3 3 3 3 3 3 3 3 3 3 3 3 3 3 3 3 3 3 3 > : > 2 3 2 $         ",
"          , 3 3 3 3 3 3 3 3 3 3 3 3 3 3 3 3 3 2 3 3 3 3 1 & : 2 3 2 :           ",
"          > 3 3 3 2 2 2 2 2 2 2 2 2 2 2 2 2 2 2 3 3 2 2 : ; ; ; ; #             ",
"          * 2 2 2 2 2 2 2 2 2 2 2 2 2 2 2 2 2 2 2 2 , : : , , > &               ",
"            * > 2 2 2 2 2 2 2 2 2 2 2 2 2 2 2 2 , : ; : , 2 2 :                 ",
"                & : > , 2 2 2 2 2 2 2 2 , , : ; & ; > , , > ;                   ",
"                      # & & ; ; ; ; & & # @   + % & ; ; & @                     "
};
