/* XPM */
static char *d754e9c74d4b4dfce78290ffebbe4651ZWxidPlZKGjluGmp[] = {
/* columns rows colors chars-per-pixel */
"50 50 183 2 ",
"   c #050000",
".  c #100600",
"X  c #3E2F12",
"o  c #4A431D",
"O  c #734F2E",
"+  c #715927",
"@  c #734F30",
"#  c #745435",
"$  c #7F5936",
"%  c #74543A",
"&  c #77593F",
"*  c #736931",
"=  c #775C43",
"-  c #7C5D43",
";  c #785F4B",
":  c #77624E",
">  c #79614D",
",  c #7D6856",
"<  c #7F6B5C",
"1  c #7E6F61",
"2  c #8E3826",
"3  c #904A25",
"4  c #81522B",
"5  c #85592F",
"6  c #8B5A2F",
"7  c #845A33",
"8  c #8B5D33",
"9  c #835B39",
"0  c #8E6135",
"q  c #846D32",
"w  c #87603B",
"e  c #946436",
"r  c #986735",
"t  c #966935",
"y  c #986836",
"u  c #966538",
"i  c #986738",
"p  c #976838",
"a  c #9A6A38",
"s  c #9A773D",
"d  c #A07137",
"f  c #A6783B",
"g  c #B47D3B",
"h  c #856747",
"j  c #9F7C4A",
"k  c #826C5A",
"l  c #947850",
"z  c #A47E45",
"x  c #846F61",
"c  c #827263",
"v  c #887766",
"b  c #8C7C62",
"n  c #867C73",
"m  c #8B7F76",
"M  c #AC803E",
"N  c #B78F3F",
"B  c #978841",
"V  c #978056",
"C  c #9D855B",
"Z  c #9D895B",
"A  c #AB8345",
"S  c #A5874F",
"D  c #A9854C",
"F  c #A88F4D",
"G  c #B28442",
"H  c #B68E46",
"J  c #B98B46",
"K  c #A99346",
"L  c #BC9544",
"P  c #BE9A45",
"I  c #B4934E",
"U  c #BD934D",
"Y  c #B99D4C",
"T  c #A58A57",
"R  c #AD8E52",
"E  c #A48B5E",
"W  c #AC8D5C",
"Q  c #A5925C",
"!  c #AF965A",
"~  c #B39452",
"^  c #B89656",
"/  c #B49A56",
"(  c #BB9A52",
")  c #BFA65F",
"_  c #968667",
"`  c #9C8B63",
"'  c #968969",
"]  c #9B8A6D",
"[  c #9F9061",
"{  c #8A837B",
"}  c #8C8878",
"|  c #938A74",
" . c #998D75",
".. c #968D7B",
"X. c #988D79",
"o. c #9C907C",
"O. c #A18C68",
"+. c #A39162",
"@. c #A89561",
"#. c #BA9D66",
"$. c #BDA574",
"%. c #C19A46",
"&. c #C2954B",
"*. c #C49B4A",
"=. c #C89B49",
"-. c #C39C53",
";. c #C6A14B",
":. c #CAA34C",
">. c #C3A354",
",. c #C4A757",
"<. c #CCA353",
"1. c #CEAA52",
"2. c #CCAC59",
"3. c #D1A653",
"4. c #D5AC54",
"5. c #D8AD54",
"6. c #D4AF5A",
"7. c #DCB356",
"8. c #D5B45B",
"9. c #DDB45A",
"0. c #DBBB5D",
"q. c #E2B65C",
"w. c #E4BB5C",
"e. c #C3A563",
"r. c #C8A764",
"t. c #E2BE62",
"y. c #E9BF61",
"u. c #E4C25F",
"i. c #EAC25D",
"p. c #E3C362",
"a. c #ECC463",
"s. c #E6C964",
"d. c #ECCA64",
"f. c #EEC569",
"g. c #EFCF68",
"h. c #F2C467",
"j. c #F1CA65",
"k. c #F6CC69",
"l. c #FCCE6C",
"z. c #EFD26A",
"x. c #F4D266",
"c. c #F5D369",
"v. c #FDD46C",
"b. c #FEDC6C",
"n. c #FFDC71",
"m. c #8A8580",
"M. c #8F8983",
"N. c #8F8C89",
"B. c #918B84",
"V. c #928E8B",
"C. c #959184",
"Z. c #989382",
"A. c #95928C",
"S. c #99968C",
"D. c #959593",
"F. c #989690",
"G. c #969891",
"H. c #9A9A94",
"J. c #9B9D9B",
"K. c #AA9481",
"L. c #9DA09F",
"P. c #9C9FA0",
"I. c #9EA2A3",
"U. c #9FA5A8",
"Y. c #A0A7AA",
"T. c #A2A9AD",
"R. c #A6AEB4",
"E. c #A7B0B5",
"W. c #A8B1B7",
"Q. c #A8B2B8",
"!. c #C0AE9E",
"~. c #C5B7AC",
"^. c #CEBEB9",
"/. c #CBC0A9",
"(. c #D5CBBF",
"). c #DDDACE",
"_. c #DFD9D1",
"`. c #E3DDD9",
"'. c #E7E2E0",
"]. c #E9E4E3",
"[. c #F1F2ED",
"{. c #FAFAF8",
"}. c #FEFFFF",
/* pixels */
"E.E.E.E.E.E.E.E.E.E.E.E.E.E.E.E.E.E.E.E.E.E.E.E.E.E.E.E.E.E.E.E.E.E.E.R.E.E.E.E.E.E.E.E.E.E.E.E.E.E.",
"E.E.E.E.E.E.E.E.E.E.E.E.E.R.E.E.T.I.Y.T.I.H.C...X. ...S.J.I.H...| F.R.E.E.E.E.E.E.E.E.E.E.E.E.E.E.E.",
"E.E.E.E.E.E.E.E.E.E.E.E.E.E.R.A.Z ! T V R ,.8.0.p.u.w.8.( S ( 0.t./ S.E.R.E.E.E.E.E.E.E.E.E.E.E.E.E.",
"E.E.E.E.E.E.E.E.E.E.E.E.E.E.L.D j.b.c.j.b.b.b.b.b.b.b.b.b.c.b.b.b.x.[ T.E.R.E.E.E.E.E.E.E.E.E.E.E.E.",
"E.E.E.E.E.E.E.E.E.E.E.E.R.E...5.b.b.b.b.b.b.b.b.b.b.b.b.b.b.b.b.b.b.,.} E.E.E.E.E.E.E.E.E.E.E.E.E.E.",
"E.E.E.E.E.E.E.E.E.E.E.R.E.Y.l i.b.b.b.b.b.b.b.b.b.b.b.b.b.b.b.b.b.b.x.~ C.E.E.E.E.E.E.E.E.E.E.E.E.E.",
"E.E.E.E.E.E.E.E.E.E.R.E.T._ 3.b.b.b.b.b.b.b.b.b.b.b.b.b.b.b.b.b.b.b.b.c./ G.E.E.E.E.E.E.E.E.E.E.E.E.",
"E.E.E.E.E.E.E.E.E.E.E.R. .4.b.b.b.b.b.b.b.b.b.b.b.b.b.b.b.b.b.b.b.b.b.b.x.Q I.E.R.E.E.E.E.E.E.E.E.E.",
"E.E.E.E.E.E.E.E.E.R.E.H.( b.b.b.b.b.b.b.b.b.b.b.b.b.b.b.b.b.b.b.b.b.b.b.b.p.' T.E.E.E.E.E.E.E.E.E.E.",
"E.E.E.E.E.E.E.E.E.E.R.` d.b.b.b.b.b.b.b.b.b.b.b.b.b.b.b.b.b.b.b.s.b.b.b.b.b.,.A.E.E.E.E.E.E.E.E.E.E.",
"E.E.E.E.E.E.E.E.E.E.H.-.b.b.b.b.b.b.b.b.b.b.Y q 0.b.b.b.b.b.b.B X H b.b.b.b.d.` T.E.E.E.E.E.E.E.E.E.",
"E.E.E.E.E.E.E.E.E.E. .w.b.b.b.b.b.b.b.b.b.z.o   s b.b.b.b.b.b.* . t b.b.b.b.b.) J.E.E.E.E.E.E.E.E.E.",
"E.E.E.E.E.E.E.E.E.T.E x.b.b.b.b.b.b.b.b.b.b.K + 8.b.b.b.b.b.b.s.Y a.b.b.b.b.b.0.| E.E.E.E.E.E.E.E.E.",
"E.E.E.E.E.E.E.E.E.I.R b.b.b.b.b.b.b.b.b.b.b.b.b.b.c.8.r.e.e.2.j.n.b.c.b.b.b.b.x.` R.E.E.E.E.E.E.E.E.",
"E.E.E.E.E.E.E.E.E.J.I b.b.b.b.b.b.b.b.b.b.b.w.5.d.#.~.'.].`.(.$.6.:.:.b.b.b.b.b.@.T.E.E.E.E.E.E.E.E.",
"E.E.E.E.E.E.E.E.E.J.( b.b.b.b.b.b.b.b.b.b.b.x.4.D ^.}.}.}.}.}.).D w.c.b.b.b.b.b.@.T.E.R.E.E.E.E.E.E.",
"E.E.E.E.E.E.E.E.E.J.-.b.b.b.b.b.b.b.b.b.b.b.b.b.#.].}.}.{.}.}.[.W w.b.b.b.b.b.b.F M.Y.E.E.E.E.E.E.E.",
"E.E.E.E.E.E.E.E.E.J.>.b.b.b.b.b.b.b.b.b.b.b.x.1.A !.].).K.~._./.~ *.5.b.b.b.b.b.L U ` J.E.E.E.E.E.E.",
"E.E.E.E.E.E.E.E.E.L.I b.b.b.b.b.b.b.b.b.b.b.d.9.j.6.e.j 2 6 -.9.c.v.x.b.b.b.b.c.%.k.s.Z P.E.E.E.E.E.",
"E.E.E.E.E.E.E.E.E.T.T c.b.b.b.b.b.b.b.b.b.b.b.b.b.b.b.9.3 g b.b.b.b.b.b.b.b.b.d.%.b.b.0.| R.E.E.E.E.",
"E.E.E.E.E.E.E.E.E.R.] u.b.b.b.b.b.b.b.b.b.b.b.b.b.b.b.b.7.a.b.b.b.b.b.b.b.b.b.0.:.b.b.c.+.T.E.E.E.E.",
"E.E.E.E.E.E.E.E.R.E.H.>.b.b.b.b.b.b.b.b.b.b.b.b.b.b.b.b.b.b.b.b.b.b.b.b.b.b.b.;.y.b.b.b.Q U.E.E.E.E.",
"E.E.E.E.E.E.R.E.E.R.U.C d.b.b.b.b.b.b.b.b.b.b.b.b.b.b.b.b.b.b.b.b.b.b.b.b.b.u.=.v.b.b.b.Q Y.E.E.E.E.",
"E.E.E.E.E.R.E.R.J. .E z N c.b.b.b.b.b.b.b.b.b.b.b.b.b.b.b.b.b.b.b.b.b.b.b.x.%.a.b.b.b.x.O.R.E.E.E.E.",
"E.E.E.E.E.E.R.S.~ a.v.c.:.:.b.b.b.b.b.b.b.b.b.b.b.b.b.b.b.b.b.b.b.b.b.b.c.P 9.b.b.b.b.0.Z.E.E.E.E.E.",
"E.E.E.E.R.E.J.^ v.b.b.b.b.:.:.c.b.b.b.b.b.b.b.b.b.b.b.b.b.b.b.b.b.b.b.d.P 3.b.b.b.b.b.! J.E.E.E.E.E.",
"E.E.E.E.E.R.O.a.b.b.b.b.b.c.4.P 0.c.b.b.b.b.b.b.b.b.b.b.b.b.b.b.b.d.;.P q.b.b.b.b.b.0.| R.E.E.E.E.E.",
"E.E.E.E.E.L.^ b.b.b.b.b.b.b.b.a.;.L 1.u.d.c.b.b.b.b.b.b.c.c.u.1.%.L 5.c.b.b.b.b.b.s.` U.E.R.E.E.E.E.",
"E.E.E.E.E.S.1.b.b.b.b.b.b.b.b.b.b.k.9.*.L L %.:.:.;.:.:.P %.=.5.a.v.b.b.b.b.b.b.p.+.J.E.R.E.E.E.E.E.",
"E.E.E.E.E.o.w.b.b.b.b.b.b.b.b.b.b.b.b.b.v.k.a.w.7.7.w.a.j.v.v.b.b.b.b.b.b.b.g.>.' I.E.E.E.E.E.E.E.E.",
"E.E.E.E.R.] a.b.b.b.b.b.b.v.b.b.b.b.b.b.b.b.b.b.b.n.b.b.b.b.b.b.b.b.b.v.d.2.Z B.T.E.R.E.E.E.E.E.E.E.",
"E.E.E.E.R.' i.b.v.v.v.v.b.j.w.v.v.v.v.v.v.v.v.v.v.v.v.v.v.v.v.v.v.v.v.>.' S.Y.E.E.R.E.E.E.E.E.E.E.E.",
"E.E.E.E.E.X.9.v.v.v.v.v.v.a.L v.v.v.v.v.v.v.v.v.v.v.v.v.v.v.v.v.v.v.v.,.A.Q.E.E.E.E.E.E.E.E.E.E.E.E.",
"E.E.E.E.E.H.( v.v.v.v.v.v.a.L v.v.v.v.v.v.v.v.v.v.v.v.v.v.v.v.v.v.v.v.t.X.E.R.E.E.E.E.E.E.E.E.E.E.E.",
"E.E.E.E.E.R.] 9.v.v.v.v.v.3.3.v.v.v.v.v.v.v.v.v.v.v.v.v.v.v.v.v.v.v.v.f.] R.E.E.E.E.E.E.E.E.E.E.E.E.",
"E.E.E.E.R.E.Y._ <.a.k.k.6.M h.v.v.v.v.v.v.v.v.v.v.v.v.v.v.v.v.l.v.v.v.f.C Y.E.E.E.E.E.E.E.E.E.E.E.E.",
"E.E.E.E.E.R.E.T.C.` @.+.b s q.j.v.v.v.v.v.l.l.l.l.l.l.v.v.v.v.l.k.y.<.A h I.E.E.E.E.E.E.E.E.E.E.E.E.",
"E.E.E.E.E.E.R.E.E.R.T.T.J.8 d M &.5.w.h.k.l.l.l.l.l.l.k.k.h.q.<.J f y r w J.E.E.E.E.E.E.E.E.E.E.E.E.",
"E.E.E.E.E.E.E.E.E.E.E.Q.V.8 y r y y d f G J &.*.-.&.U J G f a y y y y r w D.Q.E.E.E.E.E.E.E.E.E.E.E.",
"E.E.E.E.E.E.E.R.E.E.I.m - 5 y y y y y y e e r e e e e e e r y y y y y p 7 k A.Y.E.E.R.E.E.E.E.E.E.E.",
"E.E.E.E.E.E.E.E.E.A.- 8 e e e e e y p p i p i u u u e i i e e e e y y p 5 4 8 h B.R.E.R.E.E.E.E.E.E.",
"E.E.E.E.E.E.E.E.I.- e i u e e e e e e e i i i u e e u i u u u u u e e y 6 8 r e $ { R.E.E.E.E.E.E.E.",
"E.E.E.E.E.E.E.E.{ 5 u u u e e e e e e e e u u u u u u u u u u u u r e e e e e u e - I.E.E.E.E.E.E.E.",
"E.E.E.E.E.E.E.R.c 8 u e e e e e e e e e e e e e e e e e e e e e e e e e e e e u e $ N.W.E.E.E.E.E.E.",
"E.E.E.E.E.E.E.R.k 8 u e e e e e e e e e e e u e e e e e e e e e e e e e e e e e e 7 { E.E.E.E.E.E.E.",
"E.E.E.E.E.E.E.E.v 8 u u e e e u e e e e e u u u u u e u e e e e e e e e e e e e e $ N.W.E.E.E.E.E.E.",
"E.E.E.E.E.E.E.E.B.7 e e e e e e e e e e e e e e e e e e e e e e e e e e e e e e 8 : Y.E.E.E.E.E.E.E.",
"E.E.E.E.E.E.E.E.T.k 8 e e e e e e e e e e e e e e e e e e e e e e e e e e e 0 5 = D.E.E.E.E.E.E.E.E.",
"E.E.E.E.E.E.E.R.E.I.k 9 8 0 e e e 0 0 7 $ 9 7 8 8 8 8 0 0 0 0 0 0 8 8 7 7 $ & 1 J.E.E.E.E.E.E.E.E.E.",
"E.E.E.E.E.E.E.E.R.E.Y.B.x - # O @ % ; < m.V.m c < > - & % # % & = > , c n M.J.R.E.E.R.E.E.E.E.E.E.E."
};
