/* XPM */
static char *e16048e2ee4c407ddb93c3ee7d5a72cbJ29hXwme6MlIRxoD[] = {
/* columns rows colors chars-per-pixel */
"95 83 135 2 ",
"   c None",
".  c #020202",
"X  c #080607",
"o  c #070904",
"O  c #080A05",
"+  c #090709",
"@  c #070808",
"#  c #0B0A0C",
"$  c #100B0E",
"%  c #0E0F10",
"&  c #120C11",
"*  c #0E1010",
"=  c #151115",
"-  c #191117",
";  c #1B121A",
":  c #1C1E1F",
">  c #21161F",
",  c #231721",
"<  c #261924",
"1  c #291B27",
"2  c #2D1E2B",
"3  c #301F2D",
"4  c #26282A",
"5  c #2B2E2F",
"6  c #31212E",
"7  c #342332",
"8  c #382635",
"9  c #3D293A",
"0  c #2B3132",
"q  c #422B3E",
"w  c #452E42",
"e  c #482F44",
"r  c #493146",
"t  c #4D3349",
"y  c #51364D",
"u  c #54384F",
"i  c #563951",
"p  c #5A3C55",
"a  c #5E3E59",
"s  c #603F5B",
"d  c #3B4045",
"f  c #5F405B",
"g  c #63415D",
"h  c #664361",
"j  c #6B4665",
"k  c #6D4867",
"l  c #6E4868",
"z  c #734C6D",
"x  c #774E70",
"c  c #784F71",
"v  c #7B5175",
"b  c #7E5378",
"n  c #7F5579",
"m  c #7F5478",
"M  c #81557A",
"N  c #82557B",
"B  c #83567B",
"V  c #84577C",
"C  c #85577E",
"Z  c #83567B",
"A  c #86597F",
"S  c #86587E",
"D  c #875A80",
"F  c #885981",
"G  c #895A81",
"H  c #8A5A82",
"J  c #8A5B83",
"K  c #8D5C85",
"L  c #8D5D85",
"P  c #8D5E86",
"I  c #8E5E87",
"U  c #8C5C84",
"Y  c #905E88",
"T  c #915F89",
"R  c #925F89",
"E  c #915F89",
"W  c #93608A",
"Q  c #94618B",
"!  c #94608C",
"~  c #95618D",
"^  c #94628C",
"/  c #95628D",
"(  c #95638D",
")  c #96638E",
"_  c #97648E",
"`  c #97648F",
"'  c #95628D",
"]  c #98648F",
"[  c #98638F",
"{  c #986590",
"}  c #996590",
"|  c #9A6591",
" . c #9B6592",
".. c #9B6692",
"X. c #9B6693",
"o. c #9B6793",
"O. c #9C6693",
"+. c #9C6793",
"@. c #9C6794",
"#. c #9E6795",
"$. c #9B6692",
"%. c #9D6894",
"&. c #9D6895",
"*. c #9E6895",
"=. c #9F6895",
"-. c #9E6896",
";. c #9F6896",
":. c #9F6996",
">. c #9F6897",
",. c #9F6997",
"<. c #9F6896",
"1. c #A06897",
"2. c #A06997",
"3. c #A16997",
"4. c #A06997",
"5. c #A16998",
"6. c #A26998",
"7. c #A26999",
"8. c #A16A98",
"9. c #A16B98",
"0. c #A16A99",
"q. c #A16B99",
"w. c #A26A98",
"e. c #A26A99",
"r. c #A36A99",
"t. c #A26B99",
"y. c #A36B99",
"u. c #A26B9A",
"i. c #A36B9A",
"p. c #A36C99",
"a. c #A26C9A",
"s. c #A36C9A",
"d. c #A36C9B",
"f. c #A46C9B",
"g. c #A16A98",
/* pixels */
"                                                                                                                                                                                              ",
"                                                                                                                                                                                              ",
"                                                                                                                                                                                              ",
"                                                                                                                                              0 d                                             ",
"                                                                                                                                            . . . :                                           ",
"                                                                                                                                          . . . . .                                           ",
"                                                                                                                                          . . . . .                                           ",
"                                                                                                                                          . . . . .                                           ",
"                                                                                                                                        . . . . . .                                           ",
"                                                                                                                                        . . . . .                                             ",
"                                                                                                                                        . . . . .                                             ",
"                                                                                                                                      . . . . . .                                             ",
"                                                                                                                                      . . . . .                                               ",
"                                                                                                                                    . . . . . .                                               ",
"                              . # # # # # X X X X X @ # # # # # .                                                                   . . . . .                                                 ",
"                      . # @ . . . . . . . . . . . . . . . . . . . . . % #                                                           . . . . .                                                 ",
"                  @ . . . . . . . . . . . . . . . . . . . . . . . . . . . . . # .                                                   . . . . .                                                 ",
"              . X . . . . . . . . . . . . X X X X X X X . . . . . . . X X X X . . X X                                               . . . .                                                   ",
"            . . . . . . . . . & , 6 q y p h k z z k h a y w 7 < - # . . . . . X X X . . @ .                                           . .                                                     ",
"            . . . . . X , r j M R ;.w.w.w.w.w.w.w.w.w.w.w.w.;.^ A z a 9 > $ . . X X X X . . X .                                                                                               ",
"          @ . . . . < h Q ;.w.w.w.2.2.2.w.w.w.w.w.w.w.w.w.w.w.w.w.f.w.;.Q v i 2 # X . . X X X . X                                                                                             ",
"          . . . . 2 F w.w.2.2.2.2.2.2.2.2.w.w.w.w.w.w.w.w.w.w.w.w.w.w.w.w.w.w.^ v t ; X . X X X X . .                                                                                         ",
"        X . . . # c w.2.2.2.2.2.2.2.2.2.2.w.w.w.w.w.w.w.w.w.w.w.w.w.w.w.w.w.w.w.w.w.F a 2 # . X X X X X .                                                                                     ",
"        . . . . q  .2.2.2.2.2.2.2.2.2.2.w.w.w.w.w.w.w.w.w.w.w.w.w.w.w.w.w.w.w.w.w.2.w.w.^ h < X . X X X . .                                                                       . = = 5     ",
"      . . . . # c w.2.2.2.2.2.2.2.2.2.2.2.2.w.w.w.w.w.w.w.w.w.w.w.w.w.w.w.w.w.w.w.w.w.w.w.w.I i = . . X X . X                                                           . . # X . . . . . 4   ",
"      X . . . 8  .2.2.2.2.2.2.2.2.2.2.2.2.2.w.w.w.w.w.w.w.w.w.w.w.w.w.w.w.w.w.w.w.w.w.w.w.w.w.w.n 7 @ X X X X .                                           . * # X . . . . . . . . . . . . #   ",
"      . . . . h w.2.2.2.2.2.2.2.2.2.2.w.2.2.w.w.w.w.w.w.w.w.w.w.w.w.w.w.w.w.w.w.w.w.w.w.w.w.w.w.a. .a = . X X X . .                                     . . . . . . . . . . . . . . . . . #   ",
"    . . . . - F w.2.2.2.2.2.2.2.2.2.2.2.2.2.w.w.w.w.w.w.w.w.w.w.w.w.w.w.w.w.w.w.w.w.w.w.w.w.w.w.w.w.w.z < . X X X . .                                   . . . . . . . . . . . . . . . . .     ",
"    . . . . 8 #.2.2.2.2.2.2.2.2.2.2.2.2.2.2.2.2.w.w.w.w.w.w.w.w.w.w.w.w.w.w.w.w.w.w.w.w.w.w.w.w.w.w.w.a.D 8 X X X X X .                                 . . . . . . . . . . . . . .           ",
"    . . . . p w.2.2.2.2.2.2.2.2.2.2.2.2.2.2.w.w.w.w.w.w.w.w.w.w.w.w.w.w.w.w.w.w.w.w.w.w.w.w.w.w.w.w.w.w.f.^ w + . X X . .                               . . . . . . . .                       ",
"    . . . + v w.2.2.2.2.2.2.2.2.2.2.2.2.2.w.w.w.w.w.w.w.w.w.w.w.w.w.w.w.w.w.w.w.w.w.w.w.w.w.w.w.w.w.w.w.w.a.{ u # . X X X .                                                                   ",
"  . . . . - K w.2.2.2.2.2.2.2.2.2.2.2.2.2.2.2.2.w.w.w.w.w.w.w.w.w.w.w.w.w.w.w.w.w.w.w.w.w.w.w.w.w.w.w.w.w.w.a.;.a # X X X X .                                                                 ",
"  X . . . 6 ^ w.2.2.2.2.2.2.2.2.2.2.2.2.2.2.w.w.w.w.;.w.w.w.w.w.w.w.w.w.w.w.w.w.w.w.w.w.w.w.w.w.w.w.w.w.w.w.w.w.,.f # X X X . .                                                               ",
"  X . . . q #.2.2.2.2.2.2.2.2.2.2.2.2.2.2.w.w.w.w.w.w.w.w.w.w.w.w.w.w.w.w.w.w.w.w.w.w.w.w.w.w.w.w.w.w.w.w.w.w.w.w.;.p # X X X .                                                               ",
"  . . . . u w.2.2.2.2.2.2.2.2.2.2.2.2.2.2.2.w.w.w.w.w.w.w.w.w.w.w.w.w.w.w.w.w.w.w.w.w.w.w.w.w.w.w.w.w.w.w.w.w.w.w.a.o.t @ X X X X                                                             ",
"  . . . . s w.2.2.2.2.2.2.2.2.2.2.2.2.2.2.w.w.w.w.w.w.w.w.w.w.w.w.w.w.w.w.w.w.w.w.w.w.w.w.w.w.w.w.w.w.w.w.w.w.w.w.w.a.` 9 . X X X .                                                           ",
"  . . . + j w.2.2.2.2.2.2.2.2.2.2.2.2.2.2.2.2.w.w. .#.w.w.w.w.w.w.w.w.w.w.w.w.w.w.w.w.w.w.w.w.w.w.w.w.w.w.w.w.w.w.w.w.f.K 2 . X X . .                                                         ",
"  . . . + z w.2.2.2.2.2.2.2.2.2.2.2.2.2.2.w.w.] a 1 7 v 2.w.w.w.w.w.w.w.w.w.w.w.w.w.w.w.w.w.w.w.w.w.w.w.w.w.w.w.w.w.w.w.a.v - X X X X                                                         ",
"  . . . # x w.2.2.2.2.2.2.2.2.2.2.2.2.2.2.w.^ w X . . , R w.w.w.w.w.w.w.w.w.w.w.w.w.w.w.w.w.w.w.w.w.w.w.w.w.w.w.w.w.w.w.w.w.g # X X X .                                                       ",
"  . . . # v w.2.2.2.2.2.2.2.2.2.2.2.2.2.w. .w . . . . + M w.w.w.w.w.w.w.w.w.w.w.w.w.w.w.w.w.w.w.w.w.w.w.w.w.w.w.w.w.w.w.w.a.;.w . X X . .                                                     ",
"  . . . # c w.2.2.2.2.2.2.2.2.2.2.2.2.2.w.V & . . . . < R w.w.2.w.w.w.w.w.w.w.w.w.w.w.w.w.w.w.w.w.w.w.w.w.w.w.w.w.w.w.w.w.w.a.D ; . X X .                                                     ",
"  . . . + z w.2.2.2.2.2.2.2.2.2.2.2.2.2.w.F - . . . < b w.w.w.w.w.w.w.w.w.w.w.w.w.w.w.w.w.w.w.w.w.w.w.w.w.w.w.w.w.w.w.w.w.w.w.a.g # X X . .                                                   ",
"  . . . + j w.2.2.2.2.2.2.2.2.2.2.2.2.w.2.;.i & + 2 V w.w.w.w.w.w.w.w.w.w.w.w.w.w.w.w.w.w.w.w.w.w.w.w.w.w.w.w.w.w.w.w.w.w.w.w.a.` 7 . X X .                                                   ",
"  . . . . a w.2.2.2.2.2.2.2.2.2.2.2.2.2.2.w.O.M v W w.w.w.w.w.w.w.w.w.w.w.w.w.w.w.w.w.w.w.w.w.w.w.w.w.w.w.w.w.w.w.w.w.w.w.w.w.w.a.z # X X . .                                                 ",
"  . . . . y w.2.2.2.2.2.2.2.2.2.2.2.2.2.2.2.2.w.w.w.w.w.w.w.w.w.w.w.w.w.w.w.w.w.w.w.w.w.w.w.w.w.w.w.w.w.w.w.w.w.w.w.w.w.w.w.w.w.w. .9 . X X .                                                 ",
"  . . . . 9 O.2.2.2.2.2.2.2.2.2.2.2.2.2.2.2.2.2.2.w.w.K c F ;.w.w.w.w.w.w.w.w.w.w.w.w.w.w.w.w.w.w.w.w.w.w.w.w.w.w.w.w.w.w.w.w.w.w.a.z # X X . .                                               ",
"  . . . . 2 ^ w.2.2.2.2.2.2.2.2.2.2.2.2.2.2.2.2.w.;.l > + - l 2.w.w.w.w.w.w.w.w.w.w.w.w.w.w.w.w.w.w.w.w.w.w.w.w.w.w.w.w.w.w.w.w.w.w. .7 . X X .                                               ",
"  . . . . & F w.2.2.2.2.2.2.2.2.2.2.2.2.2.2.2.2.;.h & . . . 2 ^ w.w.w.w.w.w.w.w.w.w.w.w.w.w.w.w.w.w.w.w.w.w.w.w.w.w.w.w.w.w.w.w.w.w.a.j X X X .                                               ",
"    . . . X z w.2.2.2.2.2.2.2.2.2.2.2.2.2.2.2.w.v & . . . . < ^ w.w.w.w.w.w.w.w.w.w.w.w.w.w.w.w.w.w.w.w.w.w.w.w.w.w.w.w.w.w.w.w.w.w.a.W , . X X .                                             ",
"    . . . . y w.1.2.2.2.2.2.2.2.2.2.2.2.2.2.2.w.h X . . . X p ;.w.w.w.w.w.w.w.w.w.w.w.w.w.w.w.w.w.w.w.w.w.w.w.w.w.w.w.w.w.w.w.w.w.w.w.w.y . X X .                                             ",
"    . . . . 2 [ w.2.2.2.2.2.2.2.2.2.2.2.2.2.2.w.v & . . # p  .w.w.w.w.w.w.w.w.w.w.w.w.w.w.w.w.w.w.w.w.w.w.w.w.w.w.w.w.w.w.w.w.w.w.w.w.w.v # X X .                                             ",
"    . . . . & v w.2.2.2.2.2.2.2.2.2.2.2.2.2.2.2.#.h 2 2 j ;.w.w.w.w.w.w.w.w.w.w.w.w.w.w.w.w.w.w.w.w.w.w.w.w.w.w.w.w.w.w.w.w.w.w.w.w.w.w.` < . X . .                                           ",
"      . . . . p w.2.2.2.2.2.2.2.2.2.2.2.2.2.2.2.2.2. . .2.w.w.w.w.w.w.;.w.w.w.w.w.w.w.w.w.w.w.w.w.w.w.w.w.w.w.w.w.w.w.w.w.w.w.w.w.w.w.w.;.r . X . .                                           ",
"      O . . . , ^ 2.2.2.2.2.2.2.2.2.2.2.2.2.2.2.2.2.2.2.2.2.w.w.w.;.w.w.w.w.w.w.w.w.w.w.w.w.w.w.w.w.w.w.w.w.w.w.w.w.w.w.w.w.w.w.w.w.w.w.a.k X X X .                                           ",
"      . . . . + k w.2.2.2.2.2.2.2.2.2.2.2.2.2.2.2.2.2.2.2.2.w.2.w.w.w.w.w.w.w.w.w.w.w.w.w.w.w.w.w.w.w.w.w.w.w.w.w.w.w.w.w.w.w.w.w.w.w.w.a.A = . X .                                           ",
"        . . . . 3 ^ w.2.2.2.2.2.2.2.2.2.2.2.2.2.2.2.2.2.2.2.w.w.w.w.w.w.w.w.w.w.w.w.w.w.w.w.w.w.w.w.w.w.w.w.w.w.w.w.w.w.w.w.w.w.w.w.w.w.w.` < . X . .                                         ",
"        . . . . + k w.2.2.2.2.2.2.2.2.2.2.2.2.2.2.2.2.2.2.2.w.w.w.w.2.w.w.w.w.w.w.w.w.w.w.w.w.w.w.w.w.w.w.w.w.w.w.w.w.w.w.w.w.w.w.w.w.w.w.w.9 . X . .                                         ",
"          . . . . 2 ^ w.2.2.2.2.2.2.2.2.2.2.2.2.2.2.2.2.2.2.2.w.w.w.w.w.w.w.w.w.2.w.w.w.w.w.w.w.w.w.w.w.w.w.w.w.w.a.w.w.w.w.w.w.w.w.w.w.w.w.y . X . .                                         ",
"          . . . . X p 2.2.2.2.2.2.2.2.2.2.2.2.2.2.2.2.2.2.2.2.w.w.;.w.w.w.2.w.w.w.w.w.w.w.w.w.w.w.w.w.w.w.w.w.W h g F w.w.w.w.w.w.w.w.w.w.w.a . X . X                                         ",
"            . . . . - M w.2.2.2.2.2.2.2.2.2.2.2.2.2.2.2.2.2.2.2.2.w.w.2.w.w.w.w.w.w.w.w.w.w.w.w.w.w.w.w.w.w.V 6 X X 1 F w.w.w.w.w.w.w.w.w.w.l X X X X                                         ",
"            . . . . . 7 Q w.2.2.2.2.2.2.2.2.2.2.2.2.2.2.2.2.2.2.2.w.w.w.w.w.w.w.w.w.w.w.w.w.w.w.w.w.w.w.w.n , . . . X g w.w.w.w.w.w.w.w.w.w.c X X X .                                         ",
"              O . . . . y #.2.2.2.2.2.2.2.2.2.2.2.2.2.2.2.2.2.2.2.w.2.2.w.w.w.w.w.w.;.w.w.w.w.w.w.w.w.w. .8 . . . . + h w.w.w.w.w.w.w.w.w.a.n X . X .                                         ",
"                . . . . + g w.2.2.2.2.2.2.2.2.2.2.2.2.2.2.2.2.2.w.w.2.2.w.w.w.w.w.w.w.w.w.w.w.w.w.w.w.w.] 2 . . . . 8 R w.w.w.w.w.w.w.w.w.a.M X . . .                                         ",
"                . . . . . & z w.2.2.2.2.2.2.2.2.2.2.2.2.2.2.2.2.2.w.;.;.;.w.w.w.w.w.w.w.w.w.w.w.w.w.w.w.;.y X . X w R w.w.w.w.w.w.w.w.w.w.a.v X . . .                                         ",
"                  o . . . . - x w.2.2.2.2.2.2.2.2.2.2.2.2.2.2.2.2.2.2.2.w.w.w.2.2.w.w.w.w.w.w.w.w.w.w.w.w.^ s w g  .w.w.w.w.w.w.w.w.w.w.w.w.z X . . .                                         ",
"                    o . . . . - x w.2.2.2.2.2.2.2.2.2.2.2.2.2.2.2.2.2.w.2.w.w.w.2.2.w.w.2.w.w.w.w.w.w.w.2.w.2.#.w.w.w.w.w.w.w.w.w.w.w.w.w.w.h . . . X                                         ",
"                      o . . . . - k #.w.2.2.2.2.2.2.2.2.2.2.2.2.2.2.2.2.2.w.w.2.2.w.2.w.w.2.w.w.w.w.w.w.w.w.w.w.w.w.w.w.w.w.w.w.w.w.w.w.w.w.i . . . O                                         ",
"                        o . . . . # p  .w.2.2.2.2.2.2.2.2.2.2.2.2.2.2.2.2.2.w.2.2.2.2.2.2.w.w.w.w.w.w.w.w.w.w.w.w.w.w.w.w.w.w.w.w.w.w.w.w.w.9 . . . .                                         ",
"                          o . . . . X q K w.2.2.2.2.2.2.2.2.2.2.2.2.2.2.2.2.2.2.2.2.2.2.2.w.w.w.w.w.w.w.w.w.w.w.w.w.w.w.w.w.w.w.w.w.w.w.w.^ < . . . .                                         ",
"                            O . . . . . 1 x ;.w.2.2.2.2.2.2.2.2.2.2.2.2.2.2.2.2.2.2.2.2.2.2.w.w.w.2.w.w.w.w.w.w.w.w.w.w.w.w.w.w.w.w.w.w.w.v & . . .                                           ",
"                              # . . . . . $ t F w.w.2.2.2.2.2.2.2.2.2.2.2.2.2.2.2.2.2.2.2.2.w.w.w.2.2.w.2.2.w.w.w.w.w.w.w.w.w.w.w.w.w.w.w.p . . . .                                           ",
"                                O . . . . . . , a R w.w.2.2.2.2.2.2.2.2.2.2.2.2.2.2.2.2.2.2.2.2.2.2.2.2.w.2.w.w.w.w.w.w.w.w.w.w.w.w.w.w.^ 1 . . . O                                           ",
"                                  . . . . . . . . , s K w.w.w.2.2.2.2.2.2.2.2.2.2.2.2.2.2.2.2.2.2.2.2.2.2.2.2.w.w.w.2.w.w.w.w.w.w.w.w.2.a X . . . .                                           ",
"                                      O . . . . . . . , y M  .w.w.2.2.2.2.2.2.2.2.2.2.2.2.2.2.2.2.2.2.2.2.2.2.w.w.w.2.w.w.w.w.w.w.w.w.v = . . . X                                             ",
"                                        . . . . . . . . . & 8 s V  .2.w.w.2.2.2.2.2.2.2.2.2.2.2.2.2.2.2.2.2.2.2.w.w.w.w.w.w.w.w.w.w.M , . . . . .                                             ",
"                                            . . . . . . . . . . & 6 i x K #.w.w.w.w.w.2.2.2.2.2.2.2.2.2.2.2.w.w.w.w.w.w.w.w.w.w.U p - . . . . o                                               ",
"                                                . o . . . . . . . . . + ; 7 t k M K ^ #.w.w.w.w.w.w.w.w.w.w.w.w.w.w.w.2.[ K z e ; . . . . . .                                                 ",
"                                                    . O . . . . . . . . . . . . + - 2 q t a h z v M V A A V V v x j p w 7 - X . . . . . . .                                                   ",
"                                                          . . . . . . . . . . . . . . . . . X + # & & & & & & # # X . . . . . . . . . . o                                                     ",
"                                                                . O . . . . . . . . . . . . . . . . . . . . . . . . . . . . . . . . X .                                                       ",
"                                                                        . . . . . . . . . . . . . . . . . . . . . . . . . . . . O .                                                           ",
"                                                                                  . . X . . . . . . . . . . . . . . . X O .                                                                   ",
"                                                                                                                                                                                              "
};
